; Generated with MatterSlice 2.22.04
; filamentDiameter = 1.75
; extrusionWidth = 1
; firstLayerExtrusionWidth = 1
; layerThickness = 0.3
; firstLayerThickness = 0.3
; automatic settings before start_gcode
G21 ; set units to millimeters
M107 ; fan off
M140 S50 ; start heating the bed
M104 T0 S210 ; start heating T0
M190 S50 ; wait for bed temperature to be reached
T0 ; set the active extruder to 0
; settings from start_gcode
G28 X0 Y0 Z0 ; home all axes
G1 Z5 F5000
M109 S210 ; set the extruder temp and wait
G28 X0 Y0 Z0 ; Home Z again in case there was filament on nozzle
G29 ; probe the bed
; automatic settings after start_gcode
T0 ; set the active extruder to 0
G90 ; use absolute coordinates
G92 E0 ; reset the expected extruder position
M82 ; use absolute distance for extrusion
; Layer count: 85
; Layer Change GCode
; LAYER:0
; LAYER_HEIGHT:0.3
; TYPE:FILL
M400
M107
G1 X55.3 Y58 Z0.8 F9000
G1 X119.51 Y58.15
; TYPE:SKIRT
G1 Z0.3
G1 F1800
G1 X120.87 Y58.2 E0.17 F1080
G1 X122.22 Y58.27 E0.339
G1 X123.58 Y58.38 E0.508
G1 X124.93 Y58.52 E0.678
G1 X126.27 Y58.69 E0.847
G1 X127.62 Y58.89 E1.017
G1 X128.96 Y59.12 E1.186
G1 X130.29 Y59.38 E1.355
G1 X131.62 Y59.67 E1.525
G1 X132.93 Y59.99 E1.694
G1 X134.25 Y60.35 E1.864
G1 X135.55 Y60.73 E2.033
G1 X136.84 Y61.14 E2.202
G1 X138.13 Y61.58 E2.372
G1 X139.41 Y62.05 E2.541
G1 X140.67 Y62.55 E2.711
G1 X141.92 Y63.07 E2.88
G1 X143.16 Y63.63 E3.049
G1 X144.39 Y64.21 E3.219
G1 X145.6 Y64.82 E3.388
G1 X146.8 Y65.46 E3.558
G1 X147.98 Y66.13 E3.727
G1 X149.15 Y66.82 E3.896
G1 X150.31 Y67.54 E4.066
G1 X151.44 Y68.28 E4.235
G1 X152.56 Y69.05 E4.405
G1 X153.66 Y69.85 E4.574
G1 X154.74 Y70.67 E4.744
G1 X155.8 Y71.52 E4.913
G1 X156.85 Y72.38 E5.082
G1 X157.87 Y73.28 E5.252
G1 X158.87 Y74.19 E5.421
G1 X159.86 Y75.13 E5.59
G1 X160.82 Y76.09 E5.76
G1 X161.76 Y77.08 E5.929
G1 X162.67 Y78.08 E6.099
G1 X163.57 Y79.1 E6.268
G1 X164.43 Y80.15 E6.438
G1 X165.28 Y81.21 E6.607
G1 X166.1 Y82.29 E6.777
G1 X166.9 Y83.39 E6.946
G1 X167.67 Y84.51 E7.115
G1 X168.41 Y85.64 E7.284
G1 X169.13 Y86.8 E7.454
G1 X169.82 Y87.97 E7.624
G1 X170.49 Y89.15 E7.793
G1 X171.13 Y90.35 E7.962
G1 X171.74 Y91.56 E8.132
G1 X172.32 Y92.79 E8.301
G1 X172.88 Y94.03 E8.471
G1 X173.4 Y95.28 E8.64
G1 X173.9 Y96.54 E8.809
G1 X174.37 Y97.82 E8.979
G1 X174.81 Y99.11 E9.148
G1 X175.22 Y100.4 E9.317
G1 X175.6 Y101.7 E9.487
G1 X175.96 Y103.02 E9.657
G1 X176.28 Y104.33 E9.826
G1 X176.57 Y105.66 E9.995
G1 X176.83 Y106.99 E10.165
G1 X177.06 Y108.33 E10.334
G1 X177.26 Y109.68 E10.504
G1 X177.43 Y111.02 E10.673
G1 X177.57 Y112.37 E10.842
G1 X177.68 Y113.73 E11.012
G1 X177.75 Y115.1 E11.183
G1 X177.8 Y116.7 E11.383
G1 X177.82 Y127.65 E12.749
G1 X177.77 Y128.57 E12.863
G1 X177.55 Y129.77 E13.015
G1 X177.13 Y131.06 E13.184
G1 X176.64 Y132.01 E13.318
G1 X175.83 Y133.31 E13.509
G1 X174.53 Y134.59 E13.737
G1 X81.75 Y199.48 E27.858
G1 X79.25 Y200.25 E28.185
G1 X61.8 E30.361
G1 X59.1 Y199.42 E30.713
G1 X56.62 Y197.48 E31.106
G1 X55.12 Y194.79 E31.49
G1 X54.74 Y192.69 E31.756
G1 X54.74 Y116.41 E41.271
G1 X62.42 Y96.49 E43.932
G1 X62.9 Y95.28 E44.095
G1 X63.42 Y94.03 E44.264
G1 X63.98 Y92.79 E44.433
G1 X64.56 Y91.56 E44.603
G1 X65.17 Y90.35 E44.772
G1 X65.81 Y89.15 E44.942
G1 X66.48 Y87.97 E45.111
G1 X67.17 Y86.8 E45.28
G1 X67.89 Y85.64 E45.45
G1 X68.63 Y84.51 E45.62
G1 X69.4 Y83.39 E45.789
G1 X70.2 Y82.29 E45.958
G1 X71.02 Y81.21 E46.128
G1 X71.87 Y80.15 E46.297
G1 X72.73 Y79.1 E46.466
G1 X73.63 Y78.08 E46.636
G1 X74.54 Y77.08 E46.805
G1 X75.48 Y76.09 E46.974
G1 X76.44 Y75.13 E47.144
G1 X77.43 Y74.19 E47.314
G1 X78.43 Y73.28 E47.483
G1 X79.45 Y72.38 E47.653
G1 X80.5 Y71.52 E47.822
G1 X81.56 Y70.67 E47.991
G1 X82.64 Y69.85 E48.161
G1 X83.74 Y69.05 E48.33
G1 X84.86 Y68.28 E48.499
G1 X85.99 Y67.54 E48.669
G1 X87.15 Y66.82 E48.838
G1 X88.32 Y66.13 E49.008
G1 X89.5 Y65.46 E49.177
G1 X90.7 Y64.82 E49.346
G1 X91.91 Y64.21 E49.516
G1 X93.14 Y63.63 E49.685
G1 X94.38 Y63.07 E49.855
G1 X95.63 Y62.55 E50.024
G1 X96.89 Y62.05 E50.194
G1 X98.17 Y61.58 E50.363
G1 X99.46 Y61.14 E50.533
G1 X100.75 Y60.73 E50.702
G1 X102.05 Y60.35 E50.871
G1 X103.37 Y59.99 E51.041
G1 X104.68 Y59.67 E51.21
G1 X106.01 Y59.38 E51.38
G1 X107.34 Y59.12 E51.549
G1 X108.68 Y58.89 E51.718
G1 X110.03 Y58.69 E51.888
G1 X111.37 Y58.52 E52.057
G1 X112.72 Y58.38 E52.226
G1 X114.08 Y58.27 E52.396
G1 X115.43 Y58.2 E52.565
G1 X116.79 Y58.15 E52.735
G1 X118.15 Y58.13 E52.904
G1 X119.51 Y58.15 E53.074
G1 X119.49 Y59.15 F9000
G1 X120.82 Y59.19 E53.24 F1080
G1 X122.15 Y59.27 E53.407
G1 X123.48 Y59.38 E53.573
G1 X124.81 Y59.51 E53.74
G1 X126.14 Y59.68 E53.906
G1 X127.46 Y59.88 E54.073
G1 X128.77 Y60.1 E54.239
G1 X130.09 Y60.36 E54.406
G1 X131.39 Y60.65 E54.573
G1 X132.69 Y60.96 E54.739
G1 X133.98 Y61.31 E54.906
G1 X135.26 Y61.69 E55.073
G1 X136.53 Y62.09 E55.239
G1 X137.8 Y62.52 E55.406
G1 X139.05 Y62.98 E55.572
G1 X140.29 Y63.47 E55.739
G1 X141.52 Y63.99 E55.905
G1 X142.74 Y64.54 E56.072
G1 X143.95 Y65.11 E56.239
G1 X145.14 Y65.71 E56.405
G1 X146.32 Y66.34 E56.572
G1 X147.48 Y66.99 E56.738
G1 X148.63 Y67.67 E56.905
G1 X149.77 Y68.38 E57.072
G1 X150.88 Y69.11 E57.238
G1 X151.98 Y69.87 E57.404
G1 X153.06 Y70.65 E57.571
G1 X154.13 Y71.46 E57.738
G1 X155.17 Y72.29 E57.904
G1 X156.2 Y73.15 E58.071
G1 X157.21 Y74.02 E58.237
G1 X158.19 Y74.92 E58.404
G1 X159.16 Y75.85 E58.57
G1 X160.1 Y76.79 E58.737
G1 X161.03 Y77.76 E58.904
G1 X161.93 Y78.74 E59.07
G1 X162.8 Y79.75 E59.237
G1 X163.66 Y80.78 E59.403
G1 X164.49 Y81.82 E59.57
G1 X165.3 Y82.89 E59.737
G1 X166.08 Y83.97 E59.903
G1 X166.84 Y85.07 E60.069
G1 X167.57 Y86.18 E60.236
G1 X168.28 Y87.32 E60.403
G1 X168.96 Y88.47 E60.569
G1 X169.61 Y89.63 E60.736
G1 X170.24 Y90.81 E60.902
G1 X170.84 Y92 E61.069
G1 X171.41 Y93.21 E61.236
G1 X171.96 Y94.43 E61.402
G1 X172.48 Y95.66 E61.568
G1 X172.97 Y96.9 E61.735
G1 X173.43 Y98.15 E61.902
G1 X173.86 Y99.42 E62.069
G1 X174.26 Y100.69 E62.235
G1 X174.64 Y101.97 E62.402
G1 X174.99 Y103.26 E62.568
G1 X175.3 Y104.56 E62.735
G1 X175.59 Y105.86 E62.901
G1 X175.85 Y107.18 E63.068
G1 X176.07 Y108.49 E63.234
G1 X176.27 Y109.81 E63.401
G1 X176.44 Y111.14 E63.568
G1 X176.57 Y112.47 E63.734
G1 X176.68 Y113.8 E63.901
G1 X176.76 Y115.14 E64.069
G1 X176.8 Y116.72 E64.265
G1 X176.82 Y127.63 E65.626
G1 X176.77 Y128.45 E65.729
G1 X176.58 Y129.52 E65.865
G1 X176.2 Y130.67 E66.016
G1 X175.76 Y131.52 E66.135
G1 X175.04 Y132.69 E66.306
G1 X173.89 Y133.82 E66.508
G1 X81.31 Y198.57 E80.599
G1 X79.1 Y199.25 E80.887
G1 X61.95 E83.026
G1 X59.57 Y198.52 E83.337
G1 X57.4 Y196.82 E83.681
G1 X56.08 Y194.45 E84.019
G1 X55.74 Y192.6 E84.253
G1 X55.74 Y116.59 E93.733
G1 X63.35 Y96.85 E96.371
G1 X63.82 Y95.66 E96.532
G1 X64.34 Y94.43 E96.698
G1 X64.89 Y93.21 E96.865
G1 X65.46 Y92 E97.032
G1 X66.06 Y90.81 E97.198
G1 X66.69 Y89.63 E97.365
G1 X67.34 Y88.47 E97.531
G1 X68.02 Y87.32 E97.698
G1 X68.73 Y86.18 E97.865
G1 X69.46 Y85.07 E98.031
G1 X70.22 Y83.97 E98.197
G1 X71 Y82.89 E98.364
G1 X71.81 Y81.82 E98.531
G1 X72.64 Y80.78 E98.697
G1 X73.5 Y79.75 E98.864
G1 X74.37 Y78.74 E99.03
G1 X75.27 Y77.76 E99.197
G1 X76.2 Y76.79 E99.363
G1 X77.14 Y75.85 E99.53
G1 X78.11 Y74.92 E99.697
G1 X79.09 Y74.02 E99.863
G1 X80.1 Y73.15 E100.03
G1 X81.13 Y72.29 E100.196
G1 X82.17 Y71.46 E100.363
G1 X83.24 Y70.65 E100.53
G1 X84.32 Y69.87 E100.696
G1 X85.42 Y69.11 E100.863
G1 X86.53 Y68.38 E101.029
G1 X87.67 Y67.67 E101.196
G1 X88.82 Y66.99 E101.363
G1 X89.98 Y66.34 E101.529
G1 X91.16 Y65.71 E101.695
G1 X92.35 Y65.11 E101.862
G1 X93.56 Y64.54 E102.029
G1 X94.78 Y63.99 E102.195
G1 X96.01 Y63.47 E102.362
G1 X97.25 Y62.98 E102.528
G1 X98.5 Y62.52 E102.695
G1 X99.77 Y62.09 E102.862
G1 X101.04 Y61.69 E103.028
G1 X102.32 Y61.31 E103.195
G1 X103.61 Y60.96 E103.362
G1 X104.91 Y60.65 E103.528
G1 X106.21 Y60.36 E103.694
G1 X107.53 Y60.1 E103.861
G1 X108.84 Y59.88 E104.027
G1 X110.16 Y59.68 E104.194
G1 X111.49 Y59.51 E104.361
G1 X112.82 Y59.38 E104.527
G1 X114.15 Y59.27 E104.694
G1 X115.48 Y59.19 E104.86
G1 X116.81 Y59.15 E105.027
G1 X118.15 Y59.13 E105.194
G1 X119.49 Y59.15 E105.36
G1 E103.36 F1800
G1 Z0.8
G1 X119.34 Y67.91 F9000
G1 X114.3 Y68.93
G1 X102.22 Y75.54
G1 X92.18 Y80.84
G1 X81.19 Y91.83
G1 X75.83 Y101.67
G1 X72.58 Y116.4
G1 X74.56 Y118.3
; TYPE:WALL-OUTER
G1 Z0.3
G1 E105.36 F1800
G1 X78.31 E105.827 F1080
G1 Y191.97 E115.016
G1 X78.3 Y192.03 E115.024
G1 X78.23 Y192.16 E115.042
G1 X78.17 Y192.21 E115.051
G1 X78.04 Y192.25 E115.069
G1 X63.01 E116.943
G1 X62.87 Y192.21 E116.961
G1 X62.82 Y192.17 E116.969
G1 X62.76 Y192.06 E116.986
G1 X62.74 Y191.97 E116.996
G1 X62.74 Y118.3 E126.185
G1 X66.48 E126.651
G1 X66.5 Y116.63 E126.859
G1 X66.54 Y115.44 E127.007
G1 X66.6 Y114.28 E127.153
G1 X66.7 Y113.11 E127.299
G1 X66.82 Y111.94 E127.446
G1 X66.97 Y110.77 E127.593
G1 X67.14 Y109.61 E127.74
G1 X67.34 Y108.45 E127.886
G1 X67.57 Y107.28 E128.034
G1 X67.82 Y106.14 E128.18
G1 X68.09 Y105 E128.326
G1 X68.4 Y103.87 E128.473
G1 X68.73 Y102.74 E128.62
G1 X69.09 Y101.61 E128.768
G1 X69.47 Y100.5 E128.913
G1 X69.87 Y99.4 E129.06
G1 X70.3 Y98.31 E129.206
G1 X70.76 Y97.21 E129.355
G1 X71.24 Y96.15 E129.5
G1 X71.75 Y95.08 E129.648
G1 X72.27 Y94.04 E129.793
G1 X72.83 Y93 E129.94
G1 X73.4 Y91.97 E130.087
G1 X74 Y90.96 E130.233
G1 X74.63 Y89.96 E130.38
G1 X75.27 Y88.98 E130.527
G1 X75.94 Y88 E130.675
G1 X76.63 Y87.06 E130.82
G1 X77.34 Y86.12 E130.967
G1 X78.07 Y85.2 E131.113
G1 X78.82 Y84.3 E131.26
G1 X79.6 Y83.4 E131.408
G1 X80.39 Y82.54 E131.554
G1 X81.2 Y81.69 E131.7
G1 X82.04 Y80.85 E131.848
G1 X82.89 Y80.04 E131.995
G1 X83.75 Y79.25 E132.14
G1 X84.65 Y78.47 E132.288
G1 X85.55 Y77.72 E132.435
G1 X86.46 Y76.99 E132.58
G1 X87.4 Y76.28 E132.727
G1 X88.35 Y75.59 E132.874
G1 X89.33 Y74.92 E133.022
G1 X90.3 Y74.28 E133.167
G1 X91.3 Y73.66 E133.314
G1 X92.31 Y73.06 E133.461
G1 X93.35 Y72.48 E133.609
G1 X94.39 Y71.92 E133.755
G1 X95.43 Y71.4 E133.901
G1 X96.5 Y70.89 E134.049
G1 X97.56 Y70.41 E134.194
G1 X98.66 Y69.95 E134.342
G1 X99.75 Y69.52 E134.489
G1 X100.84 Y69.12 E134.634
G1 X101.96 Y68.74 E134.781
G1 X103.09 Y68.38 E134.929
G1 X104.22 Y68.05 E135.076
G1 X105.34 Y67.75 E135.221
G1 X106.49 Y67.47 E135.369
G1 X107.63 Y67.22 E135.514
G1 X108.79 Y66.99 E135.662
G1 X109.95 Y66.79 E135.808
G1 X111.12 Y66.62 E135.956
G1 X112.29 Y66.47 E136.103
G1 X113.45 Y66.35 E136.249
G1 X114.62 Y66.26 E136.395
G1 X115.79 Y66.19 E136.541
G1 X116.98 Y66.15 E136.689
G1 X118.15 Y66.13 E136.835
G1 X119.32 Y66.15 E136.981
G1 X120.51 Y66.19 E137.129
G1 X121.68 Y66.26 E137.276
G1 X122.85 Y66.35 E137.422
G1 X124.01 Y66.47 E137.568
G1 X125.18 Y66.62 E137.715
G1 X126.35 Y66.79 E137.863
G1 X127.51 Y66.99 E138.009
G1 X128.67 Y67.22 E138.156
G1 X129.81 Y67.47 E138.302
G1 X130.96 Y67.75 E138.45
G1 X132.08 Y68.05 E138.595
G1 X133.21 Y68.38 E138.742
G1 X134.34 Y68.74 E138.89
G1 X135.46 Y69.12 E139.036
G1 X136.55 Y69.52 E139.182
G1 X137.64 Y69.95 E139.328
G1 X138.74 Y70.41 E139.477
G1 X139.8 Y70.89 E139.622
G1 X140.87 Y71.4 E139.77
G1 X141.91 Y71.92 E139.915
G1 X142.95 Y72.48 E140.062
G1 X143.99 Y73.06 E140.21
G1 X144.99 Y73.65 E140.355
G1 X146 Y74.28 E140.503
G1 X146.97 Y74.92 E140.649
G1 X147.95 Y75.59 E140.797
G1 X148.9 Y76.28 E140.944
G1 X149.83 Y76.99 E141.089
G1 X150.75 Y77.72 E141.235
G1 X151.65 Y78.47 E141.382
G1 X152.55 Y79.25 E141.53
G1 X153.41 Y80.04 E141.676
G1 X154.26 Y80.85 E141.822
G1 X155.1 Y81.69 E141.97
G1 X155.91 Y82.54 E142.117
G1 X156.7 Y83.4 E142.262
G1 X157.48 Y84.3 E142.41
G1 X158.22 Y85.19 E142.556
G1 X158.96 Y86.11 E142.702
G1 X159.67 Y87.05 E142.849
G1 X160.36 Y88 E142.996
G1 X161.03 Y88.98 E143.144
G1 X161.67 Y89.95 E143.289
G1 X162.29 Y90.95 E143.436
G1 X162.89 Y91.96 E143.583
G1 X163.47 Y93 E143.731
G1 X164.02 Y94.03 E143.876
G1 X164.55 Y95.08 E144.023
G1 X165.06 Y96.15 E144.171
G1 X165.54 Y97.21 E144.316
G1 X165.99 Y98.3 E144.463
G1 X166.42 Y99.39 E144.61
G1 X166.83 Y100.49 E144.756
G1 X167.21 Y101.61 E144.903
G1 X167.57 Y102.73 E145.05
G1 X167.9 Y103.87 E145.198
G1 X168.2 Y104.99 E145.343
G1 X168.48 Y106.14 E145.491
G1 X168.73 Y107.28 E145.636
G1 X168.96 Y108.44 E145.783
G1 X169.16 Y109.6 E145.93
G1 X169.33 Y110.77 E146.078
G1 X169.48 Y111.93 E146.223
G1 X169.6 Y113.1 E146.37
G1 X169.69 Y114.27 E146.517
G1 X169.76 Y115.44 E146.663
G1 X169.8 Y116.82 E146.835
G1 X169.82 Y127.44 E148.16
G1 X169.81 Y127.63 E148.183
G1 X169.77 Y127.81 E148.206
G1 X169.72 Y127.97 E148.227
G1 X169.66 Y128.08 E148.242
G1 X169.53 Y128.29 E148.273
G1 X169.4 Y128.42 E148.297
G1 X169.21 Y128.55 E148.325
G1 X169.11 Y128.58 E148.338
G1 X169.01 Y128.61 E148.352
G1 X162.66 Y128.61 E149.143
G1 X162.5 Y128.6 E149.164
G1 X162.36 Y128.56 E149.181
G1 X162.2 Y128.46 E149.204
G1 X162.02 Y128.3 E149.235
G1 X161.91 Y128.13 E149.261
G1 X161.84 Y127.99 E149.28
G1 X161.78 Y127.81 E149.304
G1 X161.73 Y127.51 E149.341
G1 Y119.49 E150.342
G1 X161.72 Y116.75 E150.683
G1 X161.68 Y115.69 E150.815
G1 X161.62 Y114.64 E150.947
G1 X161.53 Y113.59 E151.078
G1 X161.42 Y112.55 E151.209
G1 X161.28 Y111.5 E151.34
G1 X161.11 Y110.46 E151.472
G1 X160.92 Y109.43 E151.603
G1 X160.71 Y108.4 E151.735
G1 X160.47 Y107.37 E151.866
G1 X160.2 Y106.35 E151.997
G1 X159.91 Y105.34 E152.129
G1 X159.6 Y104.33 E152.26
G1 X159.26 Y103.33 E152.392
G1 X158.9 Y102.34 E152.523
G1 X158.52 Y101.36 E152.654
G1 X158.11 Y100.39 E152.786
G1 X157.67 Y99.43 E152.917
G1 X157.22 Y98.48 E153.048
G1 X156.74 Y97.55 E153.18
G1 X156.24 Y96.62 E153.311
G1 X155.72 Y95.7 E153.443
G1 X155.27 Y94.96 E153.551
G1 X154.7 Y94.07 E153.683
G1 X154.02 Y93.04 E153.836
G1 X153.41 Y92.18 E153.968
G1 X152.78 Y91.34 E154.099
G1 X152.13 Y90.51 E154.231
G1 X151.46 Y89.7 E154.362
G1 X150.77 Y88.9 E154.493
G1 X150.07 Y88.12 E154.625
G1 X149.34 Y87.36 E154.756
G1 X148.59 Y86.61 E154.887
G1 X147.83 Y85.88 E155.019
G1 X147.05 Y85.18 E155.15
G1 X146.25 Y84.49 E155.282
G1 X145.44 Y83.82 E155.413
G1 X144.61 Y83.17 E155.544
G1 X143.77 Y82.54 E155.676
G1 X142.91 Y81.93 E155.807
G1 X142.04 Y81.34 E155.938
G1 X141.15 Y80.78 E156.07
G1 X140.25 Y80.23 E156.201
G1 X139.33 Y79.71 E156.332
G1 X138.4 Y79.21 E156.464
G1 X137.47 Y78.73 E156.595
G1 X136.52 Y78.28 E156.727
G1 X135.56 Y77.84 E156.858
G1 X134.59 Y77.43 E156.989
G1 X133.61 Y77.05 E157.121
G1 X132.62 Y76.69 E157.252
G1 X131.62 Y76.35 E157.384
G1 X130.61 Y76.04 E157.515
G1 X129.6 Y75.75 E157.646
G1 X128.58 Y75.48 E157.778
G1 X127.55 Y75.24 E157.909
G1 X126.52 Y75.03 E158.04
G1 X125.49 Y74.84 E158.172
G1 X124.45 Y74.67 E158.303
G1 X123.4 Y74.53 E158.434
G1 X122.36 Y74.42 E158.566
G1 X121.31 Y74.33 E158.697
G1 X120.26 Y74.27 E158.828
G1 X119.2 Y74.23 E158.96
G1 X118.15 Y74.22 E159.091
G1 X117.1 Y74.23 E159.222
G1 X116.04 Y74.27 E159.354
G1 X114.99 Y74.33 E159.485
G1 X113.94 Y74.42 E159.617
G1 X112.9 Y74.53 E159.748
G1 X111.85 Y74.67 E159.879
G1 X110.81 Y74.84 E160.011
G1 X109.78 Y75.03 E160.142
G1 X108.75 Y75.24 E160.273
G1 X107.72 Y75.48 E160.405
G1 X106.7 Y75.75 E160.536
G1 X105.69 Y76.04 E160.668
G1 X104.68 Y76.35 E160.799
G1 X103.68 Y76.69 E160.93
G1 X102.69 Y77.05 E161.062
G1 X101.71 Y77.43 E161.193
G1 X100.74 Y77.84 E161.324
G1 X99.78 Y78.28 E161.456
G1 X98.83 Y78.73 E161.587
G1 X97.9 Y79.21 E161.718
G1 X96.97 Y79.71 E161.85
G1 X96.05 Y80.23 E161.981
G1 X95.15 Y80.78 E162.113
G1 X94.26 Y81.34 E162.244
G1 X93.39 Y81.93 E162.375
G1 X92.53 Y82.54 E162.507
G1 X91.69 Y83.17 E162.638
G1 X90.86 Y83.82 E162.769
G1 X90.05 Y84.49 E162.901
G1 X89.25 Y85.18 E163.032
G1 X88.47 Y85.88 E163.164
G1 X87.71 Y86.61 E163.295
G1 X86.96 Y87.36 E163.426
G1 X86.23 Y88.12 E163.558
G1 X85.53 Y88.9 E163.689
G1 X84.84 Y89.7 E163.82
G1 X84.17 Y90.51 E163.952
G1 X83.52 Y91.34 E164.083
G1 X82.89 Y92.18 E164.214
G1 X82.28 Y93.04 E164.346
G1 X81.69 Y93.91 E164.477
G1 X81.13 Y94.8 E164.608
G1 X80.58 Y95.7 E164.74
G1 X80.06 Y96.62 E164.871
G1 X79.56 Y97.55 E165.003
G1 X79.08 Y98.48 E165.134
G1 X78.63 Y99.43 E165.265
G1 X78.19 Y100.39 E165.397
G1 X77.78 Y101.36 E165.528
G1 X77.4 Y102.34 E165.659
G1 X77.04 Y103.33 E165.791
G1 X76.7 Y104.33 E165.922
G1 X76.39 Y105.34 E166.054
G1 X76.1 Y106.35 E166.185
G1 X75.83 Y107.37 E166.316
G1 X75.59 Y108.4 E166.448
G1 X75.38 Y109.43 E166.579
G1 X75.19 Y110.46 E166.71
G1 X75.02 Y111.5 E166.842
G1 X74.88 Y112.55 E166.973
G1 X74.77 Y113.59 E167.105
G1 X74.68 Y114.64 E167.236
G1 X74.62 Y115.69 E167.367
G1 X74.58 Y116.75 E167.499
G1 X74.56 Y118.2 E167.68
G1 X74.56 Y118.3
G1 X77.56
G1 X73.55 Y119.3 F9000
; TYPE:WALL-INNER
G1 X77.31 E168.149 F1080
G1 Y191.25 E177.123
G1 X63.74 E178.815
G1 X63.74 Y119.3 E187.789
G1 X67.47 E188.254
G1 X67.5 Y116.63 E188.587
G1 X67.54 Y115.51 E188.726
G1 X67.6 Y114.33 E188.874
G1 X67.69 Y113.21 E189.014
G1 X67.81 Y112.03 E189.162
G1 X67.95 Y110.92 E189.302
G1 X68.13 Y109.74 E189.45
G1 X68.32 Y108.64 E189.59
G1 X68.54 Y107.51 E189.733
G1 X68.8 Y106.35 E189.882
G1 X69.06 Y105.26 E190.021
G1 X69.37 Y104.11 E190.169
G1 X69.68 Y103.04 E190.309
G1 X70.04 Y101.91 E190.457
G1 X70.4 Y100.85 E190.597
G1 X70.81 Y99.73 E190.745
G1 X71.24 Y98.66 E190.888
G1 X71.67 Y97.63 E191.028
G1 X72.14 Y96.58 E191.172
G1 X72.65 Y95.51 E191.32
G1 X73.16 Y94.51 E191.46
G1 X73.72 Y93.46 E191.608
G1 X74.26 Y92.48 E191.747
G1 X74.85 Y91.49 E191.891
G1 X75.48 Y90.48 E192.039
G1 X76.11 Y89.52 E192.183
G1 X76.75 Y88.6 E192.323
G1 X77.44 Y87.63 E192.471
G1 X78.12 Y86.74 E192.61
G1 X78.84 Y85.84 E192.754
G1 X79.58 Y84.95 E192.898
G1 X80.33 Y84.08 E193.042
G1 X81.13 Y83.21 E193.19
G1 X81.91 Y82.4 E193.33
G1 X82.75 Y81.56 E193.478
G1 X83.56 Y80.78 E193.618
G1 X84.43 Y79.98 E193.766
G1 X85.3 Y79.23 E193.909
G1 X86.19 Y78.49 E194.053
G1 X87.09 Y77.77 E194.197
G1 X87.98 Y77.09 E194.337
G1 X88.95 Y76.4 E194.485
G1 X89.87 Y75.76 E194.625
G1 X90.83 Y75.13 E194.768
G1 X91.84 Y74.5 E194.916
G1 X92.83 Y73.91 E195.06
G1 X93.81 Y73.37 E195.2
G1 X94.86 Y72.81 E195.348
G1 X95.86 Y72.3 E195.488
G1 X96.93 Y71.79 E195.636
G1 X97.98 Y71.32 E195.78
G1 X99.01 Y70.89 E195.919
G1 X100.08 Y70.46 E196.063
G1 X101.2 Y70.05 E196.211
G1 X102.27 Y69.69 E196.352
G1 X103.39 Y69.33 E196.499
G1 X104.46 Y69.02 E196.638
G1 X105.61 Y68.71 E196.787
G1 X106.7 Y68.45 E196.926
G1 X107.84 Y68.19 E197.073
G1 X108.98 Y67.97 E197.216
G1 X110.09 Y67.78 E197.358
G1 X111.27 Y67.6 E197.506
G1 X112.39 Y67.46 E197.646
G1 X113.55 Y67.34 E197.793
G1 X114.68 Y67.25 E197.933
G1 X115.86 Y67.19 E198.081
G1 X116.99 Y67.15 E198.222
G1 X118.15 Y67.13 E198.367
G1 X119.31 Y67.15 E198.512
G1 X120.44 Y67.19 E198.652
G1 X121.62 Y67.25 E198.8
G1 X122.75 Y67.34 E198.941
G1 X123.91 Y67.46 E199.087
G1 X125.03 Y67.6 E199.228
G1 X126.21 Y67.78 E199.376
G1 X127.32 Y67.97 E199.517
G1 X128.46 Y68.19 E199.661
G1 X129.6 Y68.45 E199.808
G1 X130.69 Y68.71 E199.947
G1 X131.84 Y69.02 E200.095
G1 X132.91 Y69.33 E200.235
G1 X134.03 Y69.69 E200.381
G1 X135.1 Y70.05 E200.523
G1 X136.22 Y70.46 E200.671
G1 X137.29 Y70.89 E200.814
G1 X138.32 Y71.32 E200.954
G1 X139.37 Y71.79 E201.098
G1 X140.44 Y72.3 E201.246
G1 X141.44 Y72.81 E201.386
G1 X142.49 Y73.37 E201.534
G1 X143.47 Y73.91 E201.674
G1 X144.46 Y74.5 E201.817
G1 X145.47 Y75.13 E201.965
G1 X146.43 Y75.76 E202.109
G1 X147.35 Y76.4 E202.249
G1 X148.32 Y77.09 E202.397
G1 X149.21 Y77.77 E202.536
G1 X150.11 Y78.49 E202.68
G1 X151 Y79.23 E202.824
G1 X151.87 Y79.98 E202.968
G1 X152.74 Y80.78 E203.116
G1 X153.55 Y81.56 E203.256
G1 X154.39 Y82.4 E203.404
G1 X155.17 Y83.21 E203.544
G1 X155.97 Y84.08 E203.692
G1 X156.72 Y84.95 E203.836
G1 X157.46 Y85.84 E203.979
G1 X158.18 Y86.74 E204.123
G1 X158.86 Y87.63 E204.263
G1 X159.55 Y88.6 E204.411
G1 X160.19 Y89.52 E204.551
G1 X160.82 Y90.48 E204.694
G1 X161.45 Y91.49 E204.843
G1 X162.04 Y92.48 E204.986
G1 X162.58 Y93.46 E205.126
G1 X163.14 Y94.51 E205.274
G1 X163.65 Y95.51 E205.414
G1 X164.16 Y96.58 E205.562
G1 X164.63 Y97.63 E205.706
G1 X165.06 Y98.66 E205.845
G1 X165.49 Y99.73 E205.989
G1 X165.9 Y100.85 E206.137
G1 X166.26 Y101.91 E206.277
G1 X166.62 Y103.04 E206.425
G1 X166.93 Y104.11 E206.564
G1 X167.24 Y105.26 E206.713
G1 X167.5 Y106.35 E206.852
G1 X167.75 Y107.47 E206.996
G1 X167.97 Y108.61 E207.14
G1 X168.17 Y109.74 E207.284
G1 X168.35 Y110.92 E207.432
G1 X168.49 Y112.03 E207.572
G1 X168.61 Y113.21 E207.72
G1 X168.7 Y114.33 E207.859
G1 X168.76 Y115.51 E208.008
G1 X168.8 Y116.82 E208.171
G1 X168.82 Y127.41 E209.491
G1 X168.81 Y127.51 E209.504
G1 X168.8 Y127.56 E209.51
G1 X168.79 Y127.59 E209.514
G1 X168.78 Y127.61 E209.517
G1 X162.77 Y127.61 E210.267
G1 X162.76 Y127.57 E210.272
G1 X162.73 Y127.44 E210.289
G1 Y119.48 E211.281
G1 X162.72 Y116.73 E211.625
G1 X162.68 Y115.65 E211.76
G1 X162.62 Y114.57 E211.894
G1 X162.53 Y113.5 E212.029
G1 X162.41 Y112.43 E212.163
G1 X162.27 Y111.36 E212.297
G1 X162.1 Y110.29 E212.432
G1 X161.9 Y109.23 E212.566
G1 X161.68 Y108.18 E212.7
G1 X161.44 Y107.13 E212.835
G1 X161.17 Y106.09 E212.969
G1 X160.87 Y105.05 E213.104
G1 X160.55 Y104.02 E213.238
G1 X160.21 Y103 E213.372
G1 X159.84 Y101.99 E213.507
G1 X159.44 Y100.99 E213.641
G1 X159.02 Y99.99 E213.776
G1 X158.58 Y99.01 E213.91
G1 X158.12 Y98.04 E214.044
G1 X157.63 Y97.08 E214.179
G1 X157.12 Y96.13 E214.313
G1 X156.58 Y95.2 E214.448
G1 X156.12 Y94.43 E214.559
G1 X155.54 Y93.52 E214.693
G1 X154.84 Y92.48 E214.85
G1 X154.22 Y91.59 E214.985
G1 X153.58 Y90.73 E215.119
G1 X152.91 Y89.88 E215.254
G1 X152.23 Y89.05 E215.388
G1 X151.52 Y88.23 E215.522
G1 X150.8 Y87.44 E215.657
G1 X150.05 Y86.66 E215.791
G1 X149.29 Y85.9 E215.925
G1 X148.51 Y85.15 E216.06
G1 X147.72 Y84.43 E216.194
G1 X146.9 Y83.72 E216.329
G1 X146.07 Y83.04 E216.463
G1 X145.22 Y82.37 E216.598
G1 X144.36 Y81.73 E216.732
G1 X143.48 Y81.11 E216.866
G1 X142.58 Y80.51 E217.001
G1 X141.67 Y79.93 E217.135
G1 X140.75 Y79.37 E217.269
G1 X139.82 Y78.83 E217.404
G1 X138.87 Y78.32 E217.538
G1 X137.91 Y77.83 E217.673
G1 X136.94 Y77.37 E217.807
G1 X135.96 Y76.93 E217.941
G1 X134.96 Y76.51 E218.076
G1 X133.96 Y76.11 E218.21
G1 X132.95 Y75.74 E218.344
G1 X131.93 Y75.4 E218.479
G1 X130.9 Y75.08 E218.613
G1 X129.86 Y74.78 E218.748
G1 X128.82 Y74.51 E218.882
G1 X127.77 Y74.27 E219.016
G1 X126.72 Y74.05 E219.151
G1 X125.66 Y73.85 E219.285
G1 X124.59 Y73.68 E219.42
G1 X123.52 Y73.54 E219.554
G1 X122.45 Y73.42 E219.688
G1 X121.38 Y73.33 E219.823
G1 X120.3 Y73.27 E219.957
G1 X119.23 Y73.23 E220.091
G1 X118.15 Y73.22 E220.226
G1 X117.07 Y73.23 E220.36
G1 X116 Y73.27 E220.494
G1 X114.92 Y73.33 E220.629
G1 X113.85 Y73.42 E220.763
G1 X112.78 Y73.54 E220.898
G1 X111.71 Y73.68 E221.032
G1 X110.64 Y73.85 E221.166
G1 X109.58 Y74.05 E221.301
G1 X108.53 Y74.27 E221.435
G1 X107.48 Y74.51 E221.569
G1 X106.44 Y74.78 E221.704
G1 X105.4 Y75.08 E221.838
G1 X104.37 Y75.4 E221.973
G1 X103.35 Y75.74 E222.107
G1 X102.34 Y76.11 E222.242
G1 X101.34 Y76.51 E222.376
G1 X100.34 Y76.93 E222.51
G1 X99.36 Y77.37 E222.645
G1 X98.39 Y77.83 E222.779
G1 X97.43 Y78.32 E222.913
G1 X96.48 Y78.83 E223.048
G1 X95.55 Y79.37 E223.182
G1 X94.63 Y79.93 E223.317
G1 X93.72 Y80.51 E223.451
G1 X92.82 Y81.11 E223.585
G1 X91.94 Y81.73 E223.72
G1 X91.08 Y82.37 E223.854
G1 X90.23 Y83.04 E223.988
G1 X89.4 Y83.72 E224.123
G1 X88.58 Y84.43 E224.257
G1 X87.79 Y85.15 E224.392
G1 X87.01 Y85.9 E224.526
G1 X86.25 Y86.66 E224.66
G1 X85.5 Y87.44 E224.795
G1 X84.78 Y88.23 E224.929
G1 X84.07 Y89.05 E225.064
G1 X83.39 Y89.88 E225.198
G1 X82.72 Y90.73 E225.332
G1 X82.08 Y91.59 E225.466
G1 X81.46 Y92.47 E225.601
G1 X80.86 Y93.37 E225.735
G1 X80.28 Y94.27 E225.869
G1 X79.72 Y95.2 E226.004
G1 X79.18 Y96.13 E226.138
G1 X78.67 Y97.08 E226.273
G1 X78.18 Y98.04 E226.407
G1 X77.72 Y99.01 E226.542
G1 X77.28 Y99.99 E226.676
G1 X76.86 Y100.99 E226.81
G1 X76.46 Y101.99 E226.945
G1 X76.09 Y103 E227.079
G1 X75.75 Y104.02 E227.214
G1 X75.43 Y105.05 E227.348
G1 X75.13 Y106.09 E227.482
G1 X74.86 Y107.13 E227.617
G1 X74.62 Y108.18 E227.751
G1 X74.4 Y109.23 E227.885
G1 X74.2 Y110.29 E228.02
G1 X74.03 Y111.36 E228.154
G1 X73.89 Y112.43 E228.288
G1 X73.77 Y113.5 E228.423
G1 X73.68 Y114.57 E228.557
G1 X73.62 Y115.65 E228.692
G1 X73.58 Y116.72 E228.826
G1 X73.55 Y119.2 E229.135
G1 X73.55 Y119.3
G1 E227.135 F1800
G1 Z0.8
G1 X65.02 Y120.24 F9000
; TYPE:BOTTOM-FILL
G1 Z0.3
G1 E229.135 F1800
G1 X64.68 Y120.58 E229.195 F1080
G1 Y121.99 F9000
G1 X66.44 Y120.24 E229.504 F1080
G1 X67.85 F9000
G1 X64.68 Y123.41 E230.063 F1080
G1 E228.063 F1800
G1 Z0.8
G1 X77.02 Y89.86 F9000
G1 Z0.3
G1 E230.063 F1800
G1 X90.21 Y76.67 E232.389 F1080
G1 E230.389 F1800
G1 Z0.8
G1 X93.9 Y74.39 F9000
G1 Z0.3
G1 E232.389 F1800
G1 X74.74 Y93.55 E235.769 F1080
G1 X73.23 Y96.47 F9000
G1 X96.82 Y72.88 E239.93 F1080
G1 X99.36 Y71.76 F9000
G1 X72.11 Y99.01 E244.737 F1080
G1 E242.737 F1800
G1 Z0.8
G1 X91.98 Y80.55 F9000
G1 Z0.3
G1 E244.737 F1800
G1 X101.64 Y70.9 E246.44 F1080
G1 X103.74 Y70.21 F9000
G1 X95.82 Y78.13 E247.837 F1080
G1 X98.74 Y76.62 F9000
G1 X105.7 Y69.66 E249.066 F1080
G1 X107.56 Y69.22 F9000
G1 X101.24 Y75.53 E250.18 F1080
G1 X103.49 Y74.7 F9000
G1 X109.33 Y68.87 E251.21 F1080
G1 X111.01 Y68.59 F9000
G1 X105.55 Y74.06 E252.174 F1080
G1 X107.47 Y73.55 F9000
G1 X112.64 Y68.38 E253.085 F1080
G1 X114.2 Y68.24 F9000
G1 X109.29 Y73.15 E253.951 F1080
G1 X111.01 Y72.84 F9000
G1 X115.71 Y68.14 E254.781 F1080
G1 X117.18 Y68.08 F9000
G1 X112.66 Y72.61 E255.579 F1080
G1 X114.23 Y72.45 F9000
G1 X118.6 Y68.08 E256.35 F1080
G1 X119.98 Y68.11 F9000
G1 X115.75 Y72.34 E257.096 F1080
G1 X117.22 Y72.29 F9000
G1 X121.33 Y68.18 E257.821 F1080
G1 X122.64 Y68.28 F9000
G1 X118.64 Y72.28 E258.527 F1080
G1 X120.02 Y72.32 F9000
G1 X123.92 Y68.41 E259.215 F1080
G1 X125.17 Y68.58 F9000
G1 X121.36 Y72.39 E259.888 F1080
G1 X122.66 Y72.5 F9000
G1 X126.4 Y68.77 E260.547 F1080
G1 X127.59 Y68.98 F9000
G1 X123.93 Y72.65 E261.193 F1080
G1 X125.17 Y72.82 F9000
G1 X128.77 Y69.22 E261.828 F1080
G1 X129.91 Y69.49 F9000
G1 X126.38 Y73.03 E262.452 F1080
G1 X127.56 Y73.26 F9000
G1 X131.04 Y69.78 E263.066 F1080
G1 X132.14 Y70.09 F9000
G1 X128.71 Y73.52 E263.672 F1080
G1 X129.84 Y73.8 F9000
G1 X133.23 Y70.42 E264.269 F1080
G1 X134.29 Y70.77 F9000
G1 X130.95 Y74.11 E264.859 F1080
G1 X132.03 Y74.44 F9000
G1 X135.33 Y71.14 E265.441 F1080
G1 X136.36 Y71.53 F9000
G1 X133.09 Y74.8 E266.018 F1080
G1 X134.13 Y75.17 F9000
G1 X137.36 Y71.94 E266.588 F1080
G1 X138.35 Y72.37 F9000
G1 X135.15 Y75.57 E267.153 F1080
G1 X136.15 Y75.99 F9000
G1 X139.32 Y72.81 E267.713 F1080
G1 X140.28 Y73.27 F9000
G1 X137.12 Y76.42 E268.269 F1080
G1 X138.09 Y76.87 F9000
G1 X141.21 Y73.75 E268.821 F1080
G1 X142.13 Y74.24 F9000
G1 X139.03 Y77.35 E269.368 F1080
G1 X139.95 Y77.84 F9000
G1 X143.04 Y74.75 E269.913 F1080
G1 X143.93 Y75.28 F9000
G1 X140.86 Y78.35 E270.454 F1080
G1 X141.75 Y78.87 F9000
G1 X144.8 Y75.82 E270.993 F1080
G1 X145.65 Y76.38 F9000
G1 X142.62 Y79.41 E271.528 F1080
G1 X143.47 Y79.97 F9000
G1 X146.5 Y76.95 E272.062 F1080
G1 X147.32 Y77.54 F9000
G1 X144.31 Y80.55 E272.593 F1080
G1 X145.13 Y81.14 F9000
G1 X148.14 Y78.14 E273.122 F1080
G1 X148.93 Y78.75 F9000
G1 X145.94 Y81.75 E273.65 F1080
G1 X146.73 Y82.37 F9000
G1 X149.72 Y79.38 E274.177 F1080
G1 X150.49 Y80.03 F9000
G1 X147.51 Y83.01 E274.702 F1080
G1 X148.27 Y83.66 F9000
G1 X151.24 Y80.69 E275.227 F1080
G1 X151.98 Y81.36 F9000
G1 X149.01 Y84.33 E275.751 F1080
G1 X149.74 Y85.02 F9000
G1 X152.71 Y82.05 E276.275 F1080
G1 X153.42 Y82.75 F9000
G1 X150.45 Y85.72 E276.799 F1080
G1 X151.15 Y86.44 F9000
G1 X154.12 Y83.47 E277.324 F1080
G1 X154.8 Y84.2 F9000
G1 X151.83 Y87.17 E277.848 F1080
G1 X152.49 Y87.92 F9000
G1 X155.47 Y84.94 E278.373 F1080
G1 X156.13 Y85.7 F9000
G1 X153.14 Y88.69 E278.899 F1080
G1 X153.78 Y89.47 F9000
G1 X156.77 Y86.48 E279.426 F1080
G1 X157.39 Y87.26 F9000
G1 X154.4 Y90.26 E279.955 F1080
G1 X155 Y91.07 F9000
G1 X158.01 Y88.07 E280.485 F1080
G1 X158.6 Y88.89 F9000
G1 X155.59 Y91.9 E281.017 F1080
G1 X156.15 Y92.75 F9000
G1 X159.18 Y89.72 E281.551 F1080
G1 X159.75 Y90.57 F9000
G1 X156.71 Y93.61 E282.087 F1080
G1 X157.25 Y94.48 F9000
G1 X160.3 Y91.43 E282.626 F1080
G1 X160.84 Y92.31 F9000
G1 X157.77 Y95.38 E283.168 F1080
G1 X158.27 Y96.29 F9000
G1 X161.36 Y93.2 E283.713 F1080
G1 X161.87 Y94.11 F9000
G1 X158.75 Y97.22 E284.262 F1080
G1 X159.22 Y98.17 F9000
G1 X162.35 Y95.03 E284.815 F1080
G1 X162.83 Y95.97 F9000
G1 X159.67 Y99.13 E285.373 F1080
G1 X160.1 Y100.12 F9000
G1 X163.28 Y96.93 E285.935 F1080
G1 X163.72 Y97.91 F9000
G1 X160.51 Y101.12 E286.502 F1080
G1 X160.9 Y102.15 F9000
G1 X164.14 Y98.9 E287.075 F1080
G1 X164.54 Y99.91 F9000
G1 X161.26 Y103.19 E287.653 F1080
G1 X161.61 Y104.26 F9000
G1 X164.93 Y100.94 E288.239 F1080
G1 X165.29 Y101.99 F9000
G1 X161.93 Y105.35 E288.831 F1080
G1 X162.24 Y106.46 F9000
G1 X165.64 Y103.06 E289.431 F1080
G1 X165.96 Y104.15 F9000
G1 X162.51 Y107.6 E290.04 F1080
G1 X162.77 Y108.76 F9000
G1 X166.27 Y105.26 E290.657 F1080
G1 X166.55 Y106.4 F9000
G1 X162.99 Y109.95 E291.284 F1080
G1 X163.19 Y111.17 F9000
G1 X166.81 Y107.55 E291.922 F1080
G1 X167.04 Y108.73 F9000
G1 X163.35 Y112.42 E292.572 F1080
G1 X163.49 Y113.7 F9000
G1 X167.25 Y109.94 E293.236 F1080
G1 X167.43 Y111.17 F9000
G1 X163.58 Y115.02 E293.914 F1080
G1 X163.65 Y116.37 F9000
G1 X167.58 Y112.43 E294.608 F1080
G1 X167.7 Y113.72 F9000
G1 X163.67 Y117.76 E295.32 F1080
G1 X163.67 Y119.17 F9000
G1 X167.8 Y115.05 E296.048 F1080
G1 X167.85 Y116.41 F9000
G1 X163.67 Y120.58 E296.784 F1080
G1 Y122 F9000
G1 X167.86 Y117.81 E297.523 F1080
G1 X167.87 Y119.22 F9000
G1 X163.67 Y123.41 E298.263 F1080
G1 Y124.83 F9000
G1 X167.87 Y120.63 E299.003 F1080
G1 X167.87 Y122.05 F9000
G1 X163.67 Y126.24 E299.743 F1080
G1 X164.66 Y126.67 F9000
G1 X167.87 Y123.46 E300.309 F1080
G1 X167.87 Y124.87 F9000
G1 X166.07 Y126.67 E300.627 F1080
G1 X167.49 Y126.67 F9000
G1 X167.87 Y126.28 E300.695 F1080
G1 E298.695 F1800
G1 Z0.8
G1 X167.5 F9000
G1 X162.75 Y110.58
G1 X158.23 Y97.23
G1 X151.52 Y88.1
G1 X140.59 Y78.65
G1 X126.43 Y73.27
G1 X111.41 Y73.02
G1 X97.56 Y77.68
G1 X86.16 Y85.86
G1 X80.9 Y91.63
G1 Z0.3
G1 E300.695 F1800
G1 X71.25 Y101.29 E302.397 F1080
G1 X70.56 Y103.39 F9000
G1 X78.48 Y95.47 E303.795 F1080
G1 X76.97 Y98.39 F9000
G1 X70.01 Y105.35 E305.023 F1080
G1 X69.57 Y107.21 F9000
G1 X75.88 Y100.89 E306.137 F1080
G1 X75.05 Y103.14 F9000
G1 X69.21 Y108.98 E307.167 F1080
G1 X68.94 Y110.66 F9000
G1 X74.41 Y105.2 E308.132 F1080
G1 X73.9 Y107.12 F9000
G1 X68.73 Y112.29 E309.042 F1080
G1 X68.58 Y113.85 F9000
G1 X73.5 Y108.94 E309.909 F1080
G1 X73.19 Y110.66 F9000
G1 X68.49 Y115.36 E310.739 F1080
G1 X68.43 Y116.83 F9000
G1 X72.96 Y112.31 E311.537 F1080
G1 X72.8 Y113.88 F9000
G1 X68.42 Y118.26 E312.309 F1080
G1 X68.4 Y119.69 F9000
G1 X72.69 Y115.4 E313.065 F1080
G1 X72.64 Y116.87 F9000
G1 X64.68 Y124.82 E314.468 F1080
G1 Y126.23 F9000
G1 X72.62 Y118.3 E315.867 F1080
G1 X72.6 Y119.73 F9000
G1 X64.68 Y127.65 E317.264 F1080
G1 Y129.06 F9000
G1 X73.51 Y120.24 E318.82 F1080
G1 X74.92 F9000
G1 X64.68 Y130.48 E320.626 F1080
G1 Y131.89 F9000
G1 X76.34 Y120.24 E322.681 F1080
G1 X76.36 Y121.63 F9000
G1 X64.68 Y133.31 E324.741 F1080
G1 Y134.72 F9000
G1 X76.36 Y123.04 E326.802 F1080
G1 Y124.45 F9000
G1 X64.68 Y136.13 E328.862 F1080
G1 Y137.55 F9000
G1 X76.36 Y125.87 E330.922 F1080
G1 Y127.28 F9000
G1 X64.68 Y138.96 E332.983 F1080
G1 Y140.38 F9000
G1 X76.36 Y128.7 E335.043 F1080
G1 Y130.11 F9000
G1 X64.68 Y141.79 E337.103 F1080
G1 Y143.21 F9000
G1 X76.36 Y131.52 E339.163 F1080
G1 Y132.94 F9000
G1 X64.68 Y144.62 E341.224 F1080
G1 Y146.03 F9000
G1 X76.36 Y134.35 E343.284 F1080
G1 Y135.77 F9000
G1 X64.68 Y147.45 E345.344 F1080
G1 Y148.86 F9000
G1 X76.36 Y137.18 E347.405 F1080
G1 Y138.6 F9000
G1 X64.68 Y150.28 E349.465 F1080
G1 Y151.69 F9000
G1 X76.36 Y140.01 E351.525 F1080
G1 Y141.42 F9000
G1 X64.68 Y153.1 E353.585 F1080
G1 Y154.52 F9000
G1 X76.36 Y142.84 E355.646 F1080
G1 Y144.25 F9000
G1 X64.68 Y155.93 E357.706 F1080
G1 Y157.35 F9000
G1 X76.36 Y145.67 E359.767 F1080
G1 Y147.08 F9000
G1 X64.68 Y158.76 E361.827 F1080
G1 Y160.18 F9000
G1 X76.36 Y148.5 E363.887 F1080
G1 Y149.91 F9000
G1 X64.68 Y161.59 E365.948 F1080
G1 Y163.01 F9000
G1 X76.36 Y151.32 E368.008 F1080
G1 Y152.74 F9000
G1 X64.68 Y164.42 E370.069 F1080
G1 Y165.83 F9000
G1 X76.36 Y154.15 E372.129 F1080
G1 Y155.57 F9000
G1 X64.68 Y167.25 E374.19 F1080
G1 Y168.66 F9000
G1 X76.36 Y156.98 E376.25 F1080
G1 Y158.39 F9000
G1 X64.68 Y170.08 E378.31 F1080
G1 Y171.49 F9000
G1 X76.36 Y159.81 E380.371 F1080
G1 Y161.22 F9000
G1 X64.68 Y172.9 E382.431 F1080
G1 Y174.32 F9000
G1 X76.36 Y162.64 E384.492 F1080
G1 Y164.05 F9000
G1 X64.68 Y175.73 E386.552 F1080
G1 Y177.15 F9000
G1 X76.36 Y165.47 E388.613 F1080
G1 Y166.88 F9000
G1 X64.68 Y178.56 E390.673 F1080
G1 Y179.98 F9000
G1 X76.36 Y168.29 E392.733 F1080
G1 Y169.71 F9000
G1 X64.68 Y181.39 E394.794 F1080
G1 Y182.8 F9000
G1 X76.36 Y171.12 E396.854 F1080
G1 Y172.54 F9000
G1 X64.68 Y184.22 E398.915 F1080
G1 Y185.63 F9000
G1 X76.36 Y173.95 E400.975 F1080
G1 Y175.37 F9000
G1 X64.68 Y187.05 E403.036 F1080
G1 Y188.46 F9000
G1 X76.36 Y176.78 E405.096 F1080
G1 Y178.19 F9000
G1 X64.68 Y189.88 E407.156 F1080
G1 X65.66 Y190.31 F9000
G1 X76.36 Y179.61 E409.045 F1080
G1 Y181.02 F9000
G1 X67.07 Y190.31 E410.683 F1080
G1 X68.49 F9000
G1 X76.36 Y182.44 E412.073 F1080
G1 Y183.85 F9000
G1 X69.9 Y190.31 E413.212 F1080
G1 X71.32 F9000
G1 X76.36 Y185.26 E414.103 F1080
G1 Y186.68 F9000
G1 X72.73 Y190.31 E414.743 F1080
G1 X74.15 F9000
G1 X76.36 Y188.09 E415.135 F1080
G1 Y189.51 F9000
G1 X75.56 Y190.31 E415.277 F1080
; Layer Change GCode
; LAYER:1
; LAYER_HEIGHT:0.3
; TYPE:FILL
G1 E413.277 F1800
G1 Z0.8
G1 Z1.1 F9000
G1 X75.44 Y182.42
G1 X75.33 Y174.53
G1 X75.21 Y166.64
G1 X75.09 Y158.75
G1 X74.98 Y150.86
G1 X74.86 Y142.97
G1 X74.74 Y135.08
G1 X74.63 Y127.19
G1 X74.51 Y119.3
; TYPE:WALL-INNER
G1 Z0.6
G1 E415.277 F1800
G1 X77.81 E415.688 F3600
G1 Y124.13 E416.291
G1 Y128.96 E416.893
G1 Y133.79 E417.496
G1 Y138.62 E418.098
G1 Y143.45 E418.7
G1 Y148.28 E419.303
G1 Y153.11 E419.905
G1 Y157.94 E420.508
G1 Y162.77 E421.11
G1 Y167.6 E421.713
G1 Y172.43 E422.315
G1 Y177.26 E422.917
G1 Y182.09 E423.52
G1 Y186.92 E424.122
G1 Y191.75 E424.725
G1 X72.96 E425.33
G1 X68.1 Y191.76 E425.935
G1 X63.25 E426.541
G1 Y186.93 E427.143
G1 Y182.1 E427.746
G1 Y177.27 E428.348
G1 Y172.44 E428.951
G1 Y167.61 E429.553
G1 Y162.78 E430.156
G1 X63.24 Y157.94 E430.758
G1 Y153.11 E431.361
G1 Y148.28 E431.963
G1 Y143.45 E432.566
G1 Y138.62 E433.168
G1 Y133.79 E433.771
G1 Y128.96 E434.373
G1 Y124.13 E434.976
G1 Y119.3 E435.578
G1 X66.49 E435.984
G1 X66.52 Y116.65 E436.314
G1 X66.6 Y114.8 E436.545
G1 X66.73 Y113.09 E436.759
G1 X66.93 Y111.29 E436.985
G1 X67.16 Y109.61 E437.197
G1 X67.49 Y107.81 E437.425
G1 X67.84 Y106.17 E437.634
G1 X68.28 Y104.4 E437.862
G1 X68.61 Y103.25 E438.01
G1 X69.11 Y101.62 E438.223
G1 X69.72 Y99.9 E438.451
G1 X70.32 Y98.33 E438.662
G1 X71.04 Y96.66 E438.888
G1 X71.77 Y95.09 E439.104
G1 X72.58 Y93.51 E439.325
G1 X73.44 Y91.97 E439.545
G1 X74.35 Y90.46 E439.765
G1 X75.29 Y89 E439.981
G1 X76.33 Y87.51 E440.208
G1 X77.37 Y86.12 E440.425
G1 X78.48 Y84.75 E440.645
G1 X79.62 Y83.41 E440.864
G1 X80.85 Y82.09 E441.089
G1 X82.05 Y80.87 E441.303
G1 X83.37 Y79.64 E441.527
G1 X84.65 Y78.5 E441.741
G1 X86.05 Y77.35 E441.967
G1 X87.43 Y76.29 E442.184
G1 X88.87 Y75.27 E442.404
G1 X90.33 Y74.3 E442.623
G1 X91.84 Y73.37 E442.844
G1 X93.35 Y72.5 E443.062
G1 X94.96 Y71.67 E443.288
G1 X95.99 Y71.16 E443.43
G1 X97.58 Y70.44 E443.649
G1 X99.25 Y69.75 E443.874
G1 X100.85 Y69.14 E444.088
G1 X102.59 Y68.57 E444.316
G1 X104.21 Y68.08 E444.527
G1 X105.94 Y67.63 E444.75
G1 X107.66 Y67.24 E444.97
G1 X109.42 Y66.91 E445.193
G1 X110.55 Y66.73 E445.336
G1 X112.29 Y66.49 E445.556
G1 X114.07 Y66.33 E445.778
G1 X115.81 Y66.21 E445.996
G1 X117.58 Y66.17 E446.217
G1 X119.32 Y66.17 E446.433
G1 X121.14 Y66.25 E446.66
G1 X122.84 Y66.37 E446.873
G1 X124.64 Y66.57 E447.1
G1 X126.34 Y66.81 E447.313
G1 X128.13 Y67.14 E447.54
G1 X129.79 Y67.49 E447.751
G1 X131.55 Y67.93 E447.979
G1 X132.7 Y68.26 E448.127
G1 X134.33 Y68.76 E448.34
G1 X136.04 Y69.36 E448.566
G1 X137.62 Y69.97 E448.778
G1 X139.29 Y70.69 E449.005
G1 X140.86 Y71.42 E449.22
G1 X142.48 Y72.25 E449.447
G1 X143.95 Y73.07 E449.657
G1 X145.51 Y74.01 E449.884
G1 X146.95 Y74.94 E450.098
G1 X148.44 Y75.98 E450.325
G1 X149.83 Y77.02 E450.541
G1 X151.2 Y78.13 E450.761
G1 X152.54 Y79.27 E450.98
G1 X153.86 Y80.5 E451.205
G1 X155.08 Y81.7 E451.419
G1 X156.31 Y83.02 E451.644
G1 X157.45 Y84.3 E451.858
G1 X158.59 Y85.7 E452.083
G1 X159.66 Y87.08 E452.301
G1 X160.68 Y88.52 E452.52
G1 X161.65 Y89.98 E452.739
G1 X162.58 Y91.49 E452.96
G1 X163.45 Y93 E453.178
G1 X164.29 Y94.62 E453.405
G1 X164.79 Y95.64 E453.546
G1 X165.51 Y97.23 E453.765
G1 X166.21 Y98.91 E453.992
G1 X166.81 Y100.5 E454.204
G1 X167.38 Y102.24 E454.432
G1 X167.87 Y103.86 E454.643
G1 X168.32 Y105.59 E454.866
G1 X168.72 Y107.32 E455.088
G1 X169.05 Y109.08 E455.312
G1 X169.22 Y110.2 E455.452
G1 X169.46 Y111.94 E455.672
G1 X169.62 Y113.7 E455.892
G1 X169.74 Y115.46 E456.112
G1 X169.78 Y117.23 E456.333
G1 X169.78 Y120.69 E456.765
G1 Y124.15 E457.196
G1 Y127.62 E457.628
G1 X169.73 Y127.89 E457.663
G1 X169.67 Y128.07 E457.687
G1 X169.54 Y128.33 E457.723
G1 X169.47 Y128.43 E457.739
G1 X169.34 Y128.57 E457.762
G1 X169.24 Y128.65 E457.778
G1 X169.13 Y128.73 E457.795
G1 X169.02 Y128.78 E457.81
G1 X168.91 Y128.81 E457.825
G1 X165.81 Y128.81 E458.211
G1 X162.72 Y128.82 E458.597
G1 X162.59 Y128.8 E458.612
G1 X162.53 Y128.78 E458.621
G1 X162.37 Y128.7 E458.643
G1 X162.29 Y128.64 E458.655
G1 X162.12 Y128.48 E458.685
G1 X162.04 Y128.38 E458.701
G1 X161.95 Y128.23 E458.722
G1 X161.85 Y128.01 E458.753
G1 X161.81 Y127.87 E458.771
G1 X161.76 Y127.59 E458.806
G1 X161.76 Y122.69 E459.417
G1 Y117.79 E460.028
G1 X161.75 Y116.74 E460.159
G1 X161.68 Y115.14 E460.359
G1 X161.56 Y113.59 E460.552
G1 X161.37 Y111.99 E460.753
G1 X161.14 Y110.46 E460.947
G1 X160.84 Y108.88 E461.147
G1 X160.49 Y107.36 E461.341
G1 X160.08 Y105.81 E461.542
G1 X159.63 Y104.32 E461.735
G1 X159.1 Y102.81 E461.936
G1 X158.54 Y101.35 E462.13
G1 X157.9 Y99.88 E462.33
G1 X157.24 Y98.47 E462.524
G1 X156.5 Y97.05 E462.725
G1 X155.74 Y95.69 E462.919
G1 X154.93 Y94.37 E463.112
G1 X154.04 Y93.03 E463.313
G1 X153.1 Y91.72 E463.513
G1 X152.15 Y90.49 E463.707
G1 X151.12 Y89.26 E463.907
G1 X150.08 Y88.1 E464.101
G1 X148.97 Y86.95 E464.302
G1 X147.85 Y85.86 E464.496
G1 X146.65 Y84.79 E464.696
G1 X145.46 Y83.8 E464.89
G1 X144.19 Y82.82 E465.09
G1 X142.92 Y81.91 E465.284
G1 X141.58 Y81.02 E465.485
G1 X140.26 Y80.21 E465.678
G1 X138.86 Y79.42 E465.879
G1 X137.48 Y78.71 E466.073
G1 X136.02 Y78.02 E466.273
G1 X134.59 Y77.41 E466.467
G1 X133.1 Y76.83 E466.668
G1 X131.63 Y76.32 E466.862
G1 X130.09 Y75.86 E467.062
G1 X128.59 Y75.46 E467.256
G1 X127.02 Y75.1 E467.456
G1 X125.49 Y74.81 E467.65
G1 X123.9 Y74.57 E467.851
G1 X122.36 Y74.39 E468.044
G1 X120.76 Y74.27 E468.245
G1 X119.2 Y74.2 E468.439
G1 X117.6 Y74.2 E468.639
G1 X116.04 Y74.24 E468.833
G1 X114.44 Y74.35 E469.034
G1 X112.89 Y74.51 E469.227
G1 X111.3 Y74.73 E469.428
G1 X109.77 Y75 E469.622
G1 X108.2 Y75.34 E469.822
G1 X106.69 Y75.72 E470.016
G1 X105.15 Y76.17 E470.216
G1 X103.67 Y76.66 E470.41
G1 X102.17 Y77.23 E470.611
G1 X100.73 Y77.82 E470.805
G1 X99.27 Y78.49 E471.005
G1 X97.88 Y79.19 E471.199
G1 X96.48 Y79.96 E471.399
G1 X95.14 Y80.75 E471.593
G1 X93.79 Y81.63 E471.794
G1 X92.52 Y82.52 E471.988
G1 X91.23 Y83.49 E472.188
G1 X90.03 Y84.47 E472.382
G1 X88.82 Y85.53 E472.582
G1 X87.69 Y86.59 E472.776
G1 X86.56 Y87.74 E472.977
G1 X85.51 Y88.88 E473.17
G1 X84.47 Y90.11 E473.371
G1 X83.5 Y91.32 E473.565
G1 X82.55 Y92.62 E473.765
G1 X81.67 Y93.9 E473.959
G1 X80.82 Y95.26 E474.159
G1 X80.04 Y96.61 E474.353
G1 X79.28 Y98.03 E474.554
G1 X78.6 Y99.42 E474.748
G1 X77.95 Y100.89 E474.948
G1 X77.37 Y102.34 E475.142
G1 X76.83 Y103.85 E475.342
G1 X76.36 Y105.33 E475.536
G1 X75.93 Y106.88 E475.737
G1 X75.57 Y108.39 E475.931
G1 X75.25 Y109.97 E476.131
G1 X75 Y111.5 E476.325
G1 X74.8 Y113.09 E476.525
G1 X74.65 Y114.64 E476.719
G1 X74.57 Y116.25 E476.92
G1 X74.51 Y119.2 E477.288
G1 X74.51 Y119.3
G1 X75.53 Y118.3 F9000
; TYPE:WALL-OUTER
G1 X78.81 E477.697 F3000
G1 Y123.21 E478.31
G1 Y128.12 E478.923
G1 Y133.03 E479.535
G1 Y137.95 E480.148
G1 Y142.86 E480.76
G1 Y147.77 E481.373
G1 Y152.68 E481.985
G1 Y157.59 E482.598
G1 Y162.5 E483.211
G1 Y167.41 E483.823
G1 Y172.32 E484.436
G1 Y177.24 E485.048
G1 Y182.15 E485.661
G1 Y187.06 E486.273
G1 Y191.97 E486.886
G1 X78.78 Y192.2 E486.915
G1 X78.69 Y192.4 E486.942
G1 X78.59 Y192.54 E486.964
G1 X78.46 Y192.64 E486.983
G1 X78.37 Y192.69 E486.997
G1 X78.25 Y192.73 E487.013
G1 X78.11 Y192.75 E487.03
G1 X74.34 Y192.75 E487.5
G1 X70.57 Y192.76 E487.971
G1 X66.8 E488.441
G1 X63.02 E488.912
G1 X62.86 Y192.74 E488.932
G1 X62.72 Y192.7 E488.951
G1 X62.6 Y192.64 E488.967
G1 X62.46 Y192.53 E488.99
G1 X62.39 Y192.45 E489.003
G1 X62.29 Y192.25 E489.032
G1 X62.25 Y192.08 E489.052
G1 X62.25 Y187.17 E489.666
G1 Y182.25 E490.279
G1 Y177.33 E490.893
G1 Y172.41 E491.506
G1 Y167.49 E492.12
G1 Y162.57 E492.733
G1 X62.24 Y157.65 E493.347
G1 Y152.73 E493.96
G1 Y147.81 E494.574
G1 Y142.89 E495.187
G1 Y137.98 E495.801
G1 Y133.06 E496.414
G1 Y128.14 E497.028
G1 Y123.22 E497.641
G1 Y118.3 E498.255
G1 X65.5 E498.662
G1 X65.52 Y116.61 E498.873
G1 X65.6 Y114.78 E499.102
G1 X65.73 Y113 E499.323
G1 X65.93 Y111.2 E499.55
G1 X66.18 Y109.46 E499.769
G1 X66.5 Y107.65 E499.998
G1 X66.87 Y105.93 E500.218
G1 X67.31 Y104.15 E500.447
G1 X67.64 Y103 E500.596
G1 X68.16 Y101.31 E500.816
G1 X68.77 Y99.57 E501.046
G1 X69.4 Y97.94 E501.264
G1 X70.13 Y96.26 E501.493
G1 X70.87 Y94.66 E501.712
G1 X71.71 Y93.03 E501.941
G1 X72.57 Y91.47 E502.163
G1 X73.51 Y89.92 E502.39
G1 X74.46 Y88.44 E502.609
G1 X75.52 Y86.92 E502.84
G1 X76.58 Y85.51 E503.06
G1 X77.72 Y84.1 E503.286
G1 X78.87 Y82.76 E503.506
G1 X80.12 Y81.41 E503.737
G1 X81.36 Y80.15 E503.956
G1 X82.68 Y78.91 E504.183
G1 X84 Y77.74 E504.402
G1 X85.43 Y76.57 E504.633
G1 X86.83 Y75.49 E504.853
G1 X88.31 Y74.44 E505.08
G1 X89.79 Y73.45 E505.301
G1 X91.34 Y72.5 E505.528
G1 X92.88 Y71.62 E505.75
G1 X94.51 Y70.77 E505.978
G1 X95.57 Y70.25 E506.126
G1 X97.19 Y69.52 E506.348
G1 X98.87 Y68.82 E506.574
G1 X100.53 Y68.2 E506.796
G1 X102.25 Y67.62 E507.023
G1 X103.96 Y67.11 E507.244
G1 X105.72 Y66.65 E507.471
G1 X107.45 Y66.26 E507.693
G1 X109.24 Y65.92 E507.92
G1 X110.42 Y65.74 E508.069
G1 X112.18 Y65.5 E508.29
G1 X114 Y65.33 E508.519
G1 X115.75 Y65.22 E508.737
G1 X117.59 Y65.17 E508.967
G1 X119.34 Y65.17 E509.185
G1 X121.18 Y65.25 E509.415
G1 X122.94 Y65.38 E509.635
G1 X124.76 Y65.58 E509.864
G1 X126.5 Y65.83 E510.083
G1 X128.31 Y66.15 E510.312
G1 X130.03 Y66.52 E510.531
G1 X131.82 Y66.97 E510.761
G1 X132.95 Y67.29 E510.908
G1 X134.65 Y67.81 E511.129
G1 X136.38 Y68.42 E511.359
G1 X138.01 Y69.05 E511.576
G1 X139.71 Y69.78 E511.807
G1 X141.29 Y70.52 E512.024
G1 X142.93 Y71.36 E512.255
G1 X144.46 Y72.21 E512.473
G1 X146.03 Y73.16 E512.702
G1 X147.51 Y74.11 E512.921
G1 X149.03 Y75.17 E513.152
G1 X150.44 Y76.23 E513.372
G1 X151.85 Y77.37 E513.598
G1 X153.19 Y78.52 E513.818
G1 X154.54 Y79.77 E514.049
G1 X155.8 Y81.01 E514.269
G1 X157.04 Y82.33 E514.495
G1 X158.21 Y83.65 E514.715
G1 X159.38 Y85.08 E514.945
G1 X160.46 Y86.48 E515.165
G1 X161.51 Y87.96 E515.392
G1 X162.5 Y89.44 E515.614
G1 X163.45 Y90.99 E515.84
G1 X164.33 Y92.53 E516.062
G1 X165.17 Y94.14 E516.289
G1 X165.7 Y95.22 E516.438
G1 X166.43 Y96.84 E516.66
G1 X167.13 Y98.52 E516.886
G1 X167.75 Y100.18 E517.108
G1 X168.33 Y101.9 E517.335
G1 X168.84 Y103.61 E517.557
G1 X169.3 Y105.37 E517.783
G1 X169.69 Y107.1 E518.005
G1 X170.03 Y108.89 E518.232
G1 X170.21 Y110.07 E518.381
G1 X170.45 Y111.83 E518.603
G1 X170.62 Y113.64 E518.829
G1 X170.73 Y115.39 E519.049
G1 X170.78 Y117.23 E519.278
G1 X170.78 Y120.71 E519.712
G1 Y124.19 E520.146
G1 X170.79 Y127.68 E520.581
G1 X170.77 Y127.77 E520.592
G1 X170.7 Y128.14 E520.64
G1 X170.6 Y128.46 E520.682
G1 X170.4 Y128.85 E520.736
G1 X170.25 Y129.07 E520.769
G1 X170.03 Y129.3 E520.809
G1 X169.83 Y129.47 E520.842
G1 X169.62 Y129.6 E520.873
G1 X169.39 Y129.71 E520.904
G1 X169.15 Y129.78 E520.935
G1 X169 Y129.81 E520.955
G1 X165.82 Y129.81 E521.351
G1 X162.65 Y129.82 E521.746
G1 X162.38 Y129.78 E521.78
G1 X162.2 Y129.73 E521.804
G1 X162.1 Y129.68 E521.817
G1 X161.85 Y129.55 E521.852
G1 X161.65 Y129.41 E521.883
G1 X161.37 Y129.14 E521.931
G1 X161.21 Y128.94 E521.963
G1 X161.07 Y128.7 E521.998
G1 X160.91 Y128.35 E522.046
G1 X160.83 Y128.1 E522.08
G1 X160.76 Y127.66 E522.134
G1 X160.76 Y122.73 E522.749
G1 Y117.8 E523.365
G1 X160.75 Y116.77 E523.493
G1 X160.68 Y115.2 E523.689
G1 X160.56 Y113.69 E523.878
G1 X160.38 Y112.13 E524.074
G1 X160.15 Y110.63 E524.263
G1 X159.86 Y109.08 E524.459
G1 X159.52 Y107.6 E524.649
G1 X159.12 Y106.09 E524.845
G1 X158.68 Y104.63 E525.034
G1 X158.16 Y103.15 E525.23
G1 X157.61 Y101.73 E525.419
G1 X156.99 Y100.29 E525.615
G1 X156.35 Y98.92 E525.804
G1 X155.62 Y97.52 E526
G1 X154.88 Y96.2 E526.19
G1 X154.08 Y94.9 E526.379
G1 X153.22 Y93.59 E526.575
G1 X152.3 Y92.32 E526.771
G1 X151.37 Y91.12 E526.96
G1 X150.36 Y89.91 E527.156
G1 X149.35 Y88.78 E527.345
G1 X148.26 Y87.65 E527.542
G1 X147.17 Y86.6 E527.731
G1 X146 Y85.55 E527.927
G1 X144.83 Y84.58 E528.116
G1 X143.59 Y83.62 E528.312
G1 X142.36 Y82.73 E528.501
G1 X141.04 Y81.87 E528.697
G1 X139.75 Y81.07 E528.886
G1 X138.38 Y80.3 E529.082
G1 X137.03 Y79.6 E529.272
G1 X135.61 Y78.94 E529.468
G1 X134.22 Y78.34 E529.657
G1 X132.75 Y77.77 E529.853
G1 X131.32 Y77.27 E530.042
G1 X129.81 Y76.82 E530.238
G1 X128.35 Y76.43 E530.428
G1 X126.81 Y76.08 E530.624
G1 X125.32 Y75.8 E530.813
G1 X123.77 Y75.56 E531.009
G1 X122.26 Y75.39 E531.198
G1 X120.7 Y75.27 E531.394
G1 X119.18 Y75.2 E531.583
G1 X117.61 Y75.2 E531.779
G1 X116.09 Y75.24 E531.969
G1 X114.52 Y75.35 E532.165
G1 X113.01 Y75.5 E532.354
G1 X111.46 Y75.72 E532.55
G1 X109.96 Y75.98 E532.739
G1 X108.43 Y76.32 E532.935
G1 X106.96 Y76.69 E533.124
G1 X105.45 Y77.13 E533.32
G1 X104.01 Y77.6 E533.51
G1 X102.54 Y78.16 E533.706
G1 X101.13 Y78.74 E533.895
G1 X99.71 Y79.39 E534.091
G1 X98.35 Y80.07 E534.28
G1 X96.97 Y80.83 E534.476
G1 X95.67 Y81.6 E534.665
G1 X94.35 Y82.46 E534.861
G1 X93.1 Y83.33 E535.051
G1 X91.85 Y84.28 E535.247
G1 X90.67 Y85.23 E535.436
G1 X89.49 Y86.27 E535.632
G1 X88.39 Y87.31 E535.821
G1 X87.28 Y88.43 E536.017
G1 X86.26 Y89.54 E536.206
G1 X85.24 Y90.74 E536.403
G1 X84.29 Y91.93 E536.592
G1 X83.36 Y93.2 E536.788
G1 X82.51 Y94.45 E536.977
G1 X81.67 Y95.78 E537.173
G1 X80.91 Y97.09 E537.362
G1 X80.17 Y98.48 E537.558
G1 X79.51 Y99.84 E537.748
G1 X78.87 Y101.28 E537.944
G1 X78.31 Y102.69 E538.133
G1 X77.78 Y104.17 E538.329
G1 X77.32 Y105.62 E538.518
G1 X76.9 Y107.13 E538.714
G1 X76.54 Y108.61 E538.903
G1 X76.24 Y110.15 E539.099
G1 X75.99 Y111.64 E539.289
G1 X75.79 Y113.2 E539.485
G1 X75.65 Y114.71 E539.674
G1 X75.57 Y116.28 E539.87
G1 X75.53 Y118.2 E540.109
G1 X75.53 Y118.3
G1 X78.53
G1 X74.51 Y119.3 F9000
G1 E538.109 F1800
G1 Z1.1
G1 X73.36 Y127.16 F9000
G1 X72.22 Y135.02
G1 X71.07 Y142.88
G1 X69.92 Y150.75
G1 X68.78 Y158.61
G1 X67.63 Y166.47
G1 X66.48 Y174.33
G1 X65.34 Y182.19
G1 X64.19 Y190.05
; TYPE:FILL
G1 Z0.6
G1 E540.109 F1800
G1 X64.95 Y190.82 E540.244 F3600
G1 X66.37 Y190.82 F9000
G1 X64.19 Y188.64 E540.628 F3600
G1 X64.19 Y187.22 F9000
G1 X67.78 Y190.82 E541.261 F3600
G1 X69.19 Y190.81 F9000
G1 X66.69 Y188.31 E541.703 F3600
G1 X64.19 Y185.81 E542.144
G1 X64.19 Y184.4 F9000
G1 X67.4 Y187.61 E542.71 F3600
G1 X70.61 Y190.81 E543.276
G1 X72.02 Y190.81 F9000
G1 X69.41 Y188.2 E543.736 F3600
G1 X66.8 Y185.59 E544.197
G1 X64.19 Y182.98 E544.657
G1 X64.19 Y181.57 F9000
G1 X67.27 Y184.65 E545.201 F3600
G1 X70.35 Y187.73 E545.744
G1 X73.43 Y190.81 E546.288
G1 X74.85 Y190.81 F9000
G1 X72.18 Y188.15 E546.758 F3600
G1 X69.52 Y185.48 E547.228
G1 X66.85 Y182.82 E547.698
G1 X64.19 Y180.15 E548.168
G1 X64.19 Y178.74 F9000
G1 X67.21 Y181.76 E548.701 F3600
G1 X70.22 Y184.77 E549.233
G1 X73.24 Y187.79 E549.765
G1 X76.26 Y190.81 E550.298
G1 X76.87 Y190.01 F9000
G1 X73.7 Y186.84 E550.857 F3600
G1 X70.53 Y183.67 E551.416
G1 X67.36 Y180.49 E551.975
G1 X64.19 Y177.32 E552.535
G1 X64.19 Y175.91 F9000
G1 X67.36 Y179.08 E553.094 F3600
G1 X70.53 Y182.25 E553.653
G1 X73.7 Y185.42 E554.213
G1 X76.87 Y188.59 E554.772
G1 X76.87 Y187.18 F9000
G1 X73.7 Y184.01 E555.331 F3600
G1 X70.53 Y180.84 E555.89
G1 X67.36 Y177.67 E556.45
G1 X64.19 Y174.5 E557.009
G1 X64.19 Y173.08 F9000
G1 X67.36 Y176.25 E557.568 F3600
G1 X70.53 Y179.42 E558.128
G1 X73.7 Y182.59 E558.687
G1 X76.87 Y185.76 E559.246
G1 X76.87 Y184.35 F9000
G1 X73.7 Y181.18 E559.805 F3600
G1 X70.53 Y178.01 E560.365
G1 X67.36 Y174.84 E560.924
G1 X64.19 Y171.67 E561.483
G1 X64.19 Y170.25 F9000
G1 X67.36 Y173.42 E562.043 F3600
G1 X70.53 Y176.59 E562.602
G1 X73.7 Y179.76 E563.161
G1 X76.87 Y182.94 E563.72
G1 X76.87 Y181.52 F9000
G1 X73.7 Y178.35 E564.28 F3600
G1 X70.53 Y175.18 E564.839
G1 X67.36 Y172.01 E565.398
G1 X64.19 Y168.84 E565.958
G1 X64.19 Y167.42 F9000
G1 X67.36 Y170.59 E566.517 F3600
G1 X70.53 Y173.77 E567.076
G1 X73.7 Y176.94 E567.635
G1 X76.87 Y180.11 E568.195
G1 X76.87 Y178.69 F9000
G1 X73.7 Y175.52 E568.754 F3600
G1 X70.53 Y172.35 E569.313
G1 X67.36 Y169.18 E569.873
G1 X64.19 Y166.01 E570.432
G1 X64.19 Y164.59 F9000
G1 X67.36 Y167.77 E570.991 F3600
G1 X70.53 Y170.94 E571.551
G1 X73.7 Y174.11 E572.11
G1 X76.87 Y177.28 E572.669
G1 X76.87 Y175.86 F9000
G1 X73.7 Y172.69 E573.229 F3600
G1 X70.53 Y169.52 E573.788
G1 X67.36 Y166.35 E574.347
G1 X64.19 Y163.18 E574.907
G1 X64.19 Y161.77 F9000
G1 X67.36 Y164.94 E575.466 F3600
G1 X70.53 Y168.11 E576.025
G1 X73.7 Y171.28 E576.585
G1 X76.87 Y174.45 E577.144
G1 X76.87 Y173.04 F9000
G1 X73.7 Y169.86 E577.703 F3600
G1 X70.53 Y166.69 E578.263
G1 X67.36 Y163.52 E578.822
G1 X64.18 Y160.35 E579.381
G1 X64.18 Y158.94 F9000
G1 X67.36 Y162.11 E579.941 F3600
G1 X70.53 Y165.28 E580.5
G1 X73.7 Y168.45 E581.06
G1 X76.87 Y171.62 E581.619
G1 X76.87 Y170.21 F9000
G1 X73.7 Y167.04 E582.178 F3600
G1 X70.53 Y163.86 E582.738
G1 X67.36 Y160.69 E583.297
G1 X64.18 Y157.52 E583.856
G1 X64.18 Y156.11 F9000
G1 X67.36 Y159.28 E584.416 F3600
G1 X70.53 Y162.45 E584.975
G1 X73.7 Y165.62 E585.534
G1 X76.87 Y168.79 E586.094
G1 X76.87 Y167.38 F9000
G1 X73.7 Y164.21 E586.653 F3600
G1 X70.53 Y161.04 E587.213
G1 X67.36 Y157.86 E587.772
G1 X64.18 Y154.69 E588.331
G1 X64.18 Y153.28 F9000
G1 X67.36 Y156.45 E588.891 F3600
G1 X70.53 Y159.62 E589.45
G1 X73.7 Y162.79 E590.01
G1 X76.87 Y165.97 E590.569
G1 X76.87 Y164.55 F9000
G1 X73.7 Y161.38 E591.128 F3600
G1 X70.53 Y158.21 E591.688
G1 X67.36 Y155.04 E592.247
G1 X64.18 Y151.87 E592.806
G1 X64.18 Y150.45 F9000
G1 X67.36 Y153.62 E593.366 F3600
G1 X70.53 Y156.79 E593.925
G1 X73.7 Y159.96 E594.485
G1 X76.87 Y163.14 E595.044
G1 X76.87 Y161.72 F9000
G1 X73.7 Y158.55 E595.603 F3600
G1 X70.53 Y155.38 E596.163
G1 X67.35 Y152.21 E596.722
G1 X64.18 Y149.04 E597.282
G1 X64.18 Y147.62 F9000
G1 X67.35 Y150.79 E597.841 F3600
G1 X70.53 Y153.96 E598.401
G1 X73.7 Y157.14 E598.96
G1 X76.87 Y160.31 E599.519
G1 X76.87 Y158.89 F9000
G1 X73.7 Y155.72 E600.079 F3600
G1 X70.53 Y152.55 E600.638
G1 X67.35 Y149.38 E601.198
G1 X64.18 Y146.21 E601.757
G1 X64.18 Y144.79 F9000
G1 X67.35 Y147.96 E602.316 F3600
G1 X70.53 Y151.14 E602.876
G1 X73.7 Y154.31 E603.435
G1 X76.87 Y157.48 E603.995
G1 X76.87 Y156.07 F9000
G1 X73.7 Y152.89 E604.554 F3600
G1 X70.53 Y149.72 E605.114
G1 X67.35 Y146.55 E605.673
G1 X64.18 Y143.38 E606.233
G1 X64.18 Y141.96 F9000
G1 X67.35 Y145.14 E606.792 F3600
G1 X70.53 Y148.31 E607.351
G1 X73.7 Y151.48 E607.911
G1 X76.87 Y154.65 E608.47
G1 X76.87 Y153.24 F9000
G1 X73.7 Y150.07 E609.03 F3600
G1 X70.53 Y146.89 E609.589
G1 X67.35 Y143.72 E610.149
G1 X64.18 Y140.55 E610.708
G1 X64.18 Y139.14 F9000
G1 X67.35 Y142.31 E611.268 F3600
G1 X70.53 Y145.48 E611.827
G1 X73.7 Y148.65 E612.387
G1 X76.87 Y151.82 E612.946
G1 X76.87 Y150.41 F9000
G1 X73.7 Y147.24 E613.506 F3600
G1 X70.53 Y144.06 E614.065
G1 X67.35 Y140.89 E614.625
G1 X64.18 Y137.72 E615.184
G1 X64.18 Y136.31 F9000
G1 X67.35 Y139.48 E615.744 F3600
G1 X70.53 Y142.65 E616.303
G1 X73.7 Y145.82 E616.863
G1 X76.87 Y148.99 E617.422
G1 X76.87 Y147.58 F9000
G1 X73.7 Y144.41 E617.982 F3600
G1 X70.53 Y141.24 E618.541
G1 X67.35 Y138.06 E619.101
G1 X64.18 Y134.89 E619.66
G1 X64.18 Y133.48 F9000
G1 X67.35 Y136.65 E620.22 F3600
G1 X70.53 Y139.82 E620.779
G1 X73.7 Y142.99 E621.339
G1 X76.87 Y146.17 E621.898
G1 X76.87 Y144.75 F9000
G1 X73.7 Y141.58 E622.458 F3600
G1 X70.53 Y138.41 E623.017
G1 X67.35 Y135.24 E623.577
G1 X64.18 Y132.06 E624.136
G1 X64.18 Y130.65 F9000
G1 X67.35 Y133.82 E624.696 F3600
G1 X70.53 Y136.99 E625.255
G1 X73.7 Y140.17 E625.815
G1 X76.87 Y143.34 E626.374
G1 X76.87 Y141.92 F9000
G1 X73.7 Y138.75 E626.934 F3600
G1 X70.53 Y135.58 E627.493
G1 X67.35 Y132.41 E628.053
G1 X64.18 Y129.24 E628.612
G1 Y127.82 F9000
G1 X67.35 Y130.99 E629.172 F3600
G1 X70.52 Y134.16 E629.731
G1 X73.7 Y137.34 E630.291
G1 X76.87 Y140.51 E630.85
G1 X76.87 Y139.09 F9000
G1 X73.7 Y135.92 E631.41 F3600
G1 X70.52 Y132.75 E631.97
G1 X67.35 Y129.58 E632.529
G1 X64.18 Y126.41 E633.089
G1 Y124.99 F9000
G1 X67.35 Y128.16 E633.648 F3600
G1 X70.52 Y131.34 E634.208
G1 X73.7 Y134.51 E634.767
G1 X76.87 Y137.68 E635.327
G1 X76.87 Y136.27 F9000
G1 X73.7 Y133.09 E635.886 F3600
G1 X70.52 Y129.92 E636.446
G1 X67.35 Y126.75 E637.006
G1 X64.18 Y123.58 E637.565
G1 X64.18 Y122.16 F9000
G1 X67.35 Y125.33 E638.125 F3600
G1 X70.52 Y128.51 E638.684
G1 X73.7 Y131.68 E639.244
G1 X76.87 Y134.85 E639.803
G1 X76.87 Y133.44 F9000
G1 X73.7 Y130.27 E640.363 F3600
G1 X70.52 Y127.09 E640.923
G1 X67.35 Y123.92 E641.482
G1 X64.18 Y120.75 E642.042
G1 X65.08 Y120.24 F9000
G1 X68.03 Y123.19 E642.561 F3600
G1 X70.98 Y126.13 E643.081
G1 X73.92 Y129.08 E643.601
G1 X76.87 Y132.02 E644.12
G1 X76.87 Y130.61 F9000
G1 X73.41 Y127.15 E644.73 F3600
G1 X69.96 Y123.7 E645.34
G1 X66.5 Y120.24 E645.95
G1 X67.43 Y119.75 F9000
G1 X70.58 Y122.9 E646.505 F3600
G1 X73.72 Y126.05 E647.06
G1 X76.87 Y129.2 E647.615
G1 X76.87 Y127.78 F9000
G1 X73.73 Y124.64 E648.169 F3600
G1 X70.59 Y121.5 E648.723
G1 X67.44 Y118.36 E649.277
G1 X67.46 Y116.96 F9000
G1 X70.6 Y120.09 E649.831 F3600
G1 X73.73 Y123.23 E650.384
G1 X76.87 Y126.37 E650.937
G1 X76.87 Y124.95 F9000
G1 X73.75 Y121.83 E651.487 F3600
G1 X70.63 Y118.71 E652.038
G1 X67.51 Y115.59 E652.588
G1 X67.58 Y114.25 F9000
G1 X70.68 Y117.35 E653.134 F3600
G1 X73.77 Y120.44 E653.68
G1 X76.87 Y123.54 E654.226
G1 X76.87 Y122.12 F9000
G1 X74.98 Y120.24 E654.559 F3600
G1 X76.4 F9000
G1 X76.87 Y120.71 E654.642 F3600
G1 X73.58 Y118.83 F9000
G1 X70.63 Y115.89 E655.161 F3600
G1 X67.69 Y112.94 E655.681
G1 X67.83 Y111.67 F9000
G1 X70.72 Y114.56 E656.19 F3600
G1 X73.61 Y117.45 E656.7
G1 X73.64 Y116.06 F9000
G1 X70.82 Y113.24 E657.197 F3600
G1 X68 Y110.42 E657.695
G1 X68.19 Y109.2 F9000
G1 X70.95 Y111.96 E658.181 F3600
G1 X73.71 Y114.72 E658.667
G1 X73.82 Y113.42 F9000
G1 X71.11 Y110.71 E659.145 F3600
G1 X68.41 Y108.01 E659.623
G1 X68.66 Y106.84 F9000
G1 X71.31 Y109.49 E660.091 F3600
G1 X73.97 Y112.15 E660.56
G1 X74.14 Y110.91 F9000
G1 X71.53 Y108.3 E661.02 F3600
G1 X68.93 Y105.69 E661.48
G1 X69.21 Y104.57 F9000
G1 X71.78 Y107.13 E661.932 F3600
G1 X74.35 Y109.7 E662.385
G1 X74.58 Y108.52 F9000
G1 X72.05 Y105.99 E662.831 F3600
G1 X69.52 Y103.46 E663.277
G1 X69.86 Y102.38 F9000
G1 X72.35 Y104.88 E663.717 F3600
G1 X74.85 Y107.37 E664.157
G1 X75.13 Y106.24 F9000
G1 X72.67 Y103.78 E664.591 F3600
G1 X70.21 Y101.32 E665.025
G1 X70.58 Y100.28 F9000
G1 X73.01 Y102.71 E665.454 F3600
G1 X75.44 Y105.13 E665.882
G1 X75.78 Y104.06 F9000
G1 X73.37 Y101.66 E666.306 F3600
G1 X70.97 Y99.26 E666.73
G1 X71.38 Y98.25 F9000
G1 X73.76 Y100.63 E667.15 F3600
G1 X76.14 Y103.01 E667.569
G1 X76.51 Y101.96 F9000
G1 X74.16 Y99.61 E667.984 F3600
G1 X71.8 Y97.26 E668.399
G1 X72.25 Y96.29 F9000
G1 X74.58 Y98.62 E668.811 F3600
G1 X76.91 Y100.96 E669.222
G1 X77.33 Y99.96 F9000
G1 X75.02 Y97.65 E669.631 F3600
G1 X72.7 Y95.33 E670.039
G1 X73.18 Y94.4 F9000
G1 X75.48 Y96.69 E670.443 F3600
G1 X77.77 Y98.98 E670.847
G1 X78.23 Y98.03 F9000
G1 X75.95 Y95.75 E671.249 F3600
G1 X73.68 Y93.48 E671.651
G1 X74.18 Y92.56 F9000
G1 X76.45 Y94.83 E672.051 F3600
G1 X78.71 Y97.1 E672.45
G1 X79.2 Y96.17 F9000
G1 X76.95 Y93.92 E672.847 F3600
G1 X74.71 Y91.68 E673.243
G1 X75.24 Y90.8 F9000
G1 X77.48 Y93.04 E673.638 F3600
G1 X79.72 Y95.28 E674.033
G1 X80.25 Y94.39 F9000
G1 X78.02 Y92.17 E674.426 F3600
G1 X75.8 Y89.94 E674.819
G1 X76.37 Y89.1 F9000
G1 X78.58 Y91.31 E675.209 F3600
G1 X80.8 Y93.52 E675.6
G1 X81.37 Y92.68 F9000
G1 X79.16 Y90.47 E675.989 F3600
G1 X76.95 Y88.26 E676.379
G1 X77.55 Y87.45 F9000
G1 X79.75 Y89.65 E676.767 F3600
G1 X81.95 Y91.85 E677.154
G1 X82.54 Y91.03 F9000
G1 X80.35 Y88.84 E677.541 F3600
G1 X78.16 Y86.64 E677.928
G1 X78.79 Y85.86 F9000
G1 X80.97 Y88.05 E678.314 F3600
G1 X83.16 Y90.23 E678.7
G1 X83.79 Y89.45 F9000
G1 X81.61 Y87.27 E679.085 F3600
G1 X79.43 Y85.08 E679.469
G1 X80.08 Y84.32 F9000
G1 X82.26 Y86.5 E679.854 F3600
G1 X84.44 Y88.68 E680.238
G1 X85.1 Y87.93 F9000
G1 X82.93 Y85.76 E680.622 F3600
G1 X80.75 Y83.58 E681.006
G1 X81.43 Y82.85 F9000
G1 X83.61 Y85.02 E681.389 F3600
G1 X85.78 Y87.19 E681.773
G1 X86.48 Y86.48 F9000
G1 X84.3 Y84.3 E682.156 F3600
G1 X82.13 Y82.13 E682.54
G1 X82.84 Y81.42 F9000
G1 X85.01 Y83.6 E682.923 F3600
G1 X87.19 Y85.77 E683.307
G1 X87.92 Y85.09 F9000
G1 X85.74 Y82.91 E683.69 F3600
G1 X83.57 Y80.74 E684.074
G1 X84.3 Y80.06 F9000
G1 X86.48 Y82.24 E684.458 F3600
G1 X88.66 Y84.42 E684.842
G1 X89.41 Y83.76 F9000
G1 X87.23 Y81.58 E685.227 F3600
G1 X85.06 Y79.4 E685.611
G1 X85.83 Y78.75 F9000
G1 X88.01 Y80.94 E685.996 F3600
G1 X90.19 Y83.12 E686.381
G1 X90.98 Y82.5 F9000
G1 X88.79 Y80.31 E686.768 F3600
G1 X86.6 Y78.12 E687.154
G1 X87.4 Y77.5 F9000
G1 X89.59 Y79.69 E687.541 F3600
G1 X91.79 Y81.89 E687.928
G1 X92.61 Y81.3 F9000
G1 X90.41 Y79.1 E688.317 F3600
G1 X88.21 Y76.89 E688.706
G1 X89.03 Y76.3 F9000
G1 X91.24 Y78.52 E689.096 F3600
G1 X93.45 Y80.73 E689.486
G1 X94.31 Y80.17 F9000
G1 X92.09 Y77.95 E689.877 F3600
G1 X89.87 Y75.73 E690.269
G1 X90.72 Y75.16 F9000
G1 X92.95 Y77.4 E690.663 F3600
G1 X95.19 Y79.63 E691.057
G1 X96.08 Y79.11 F9000
G1 X93.83 Y76.86 E691.453 F3600
G1 X91.59 Y74.62 E691.848
G1 X92.47 Y74.09 F9000
G1 X94.73 Y76.35 E692.247 F3600
G1 X96.99 Y78.6 E692.645
G1 X97.92 Y78.12 F9000
G1 X95.64 Y75.85 E693.045 F3600
G1 X93.37 Y73.57 E693.446
G1 X94.29 Y73.08 F9000
G1 X96.57 Y75.36 E693.849 F3600
G1 X98.86 Y77.65 E694.252
G1 X99.83 Y77.2 F9000
G1 X97.52 Y74.89 E694.659 F3600
G1 X95.22 Y72.59 E695.065
G1 X96.16 Y72.12 F9000
G1 X98.49 Y74.44 E695.475 F3600
G1 X100.81 Y76.77 E695.885
G1 X101.81 Y76.36 F9000
G1 X99.47 Y74.01 E696.298 F3600
G1 X97.13 Y71.67 E696.711
G1 X98.1 Y71.23 F9000
G1 X100.47 Y73.6 E697.128 F3600
G1 X102.84 Y75.97 E697.546
G1 X103.89 Y75.6 F9000
G1 X101.5 Y73.21 E697.968 F3600
G1 X99.11 Y70.82 E698.389
G1 X100.12 Y70.42 F9000
G1 X102.54 Y72.84 E698.815 F3600
G1 X104.95 Y75.25 E699.241
G1 X106.04 Y74.93 F9000
G1 X103.6 Y72.48 E699.673 F3600
G1 X101.15 Y70.04 E700.105
G1 X102.21 Y69.68 F9000
G1 X104.68 Y72.16 E700.542 F3600
G1 X107.16 Y74.63 E700.979
G1 X108.3 Y74.36 F9000
G1 X105.79 Y71.85 E701.421 F3600
G1 X103.28 Y69.34 E701.864
G1 X104.37 Y69.01 F9000
G1 X106.91 Y71.56 E702.313 F3600
G1 X109.46 Y74.11 E702.763
G1 X110.66 Y73.89 F9000
G1 X108.07 Y71.3 E703.219 F3600
G1 X105.49 Y68.72 E703.675
G1 X106.62 Y68.44 F9000
G1 X109.25 Y71.07 E704.14 F3600
G1 X111.88 Y73.7 E704.604
G1 X113.14 Y73.54 F9000
G1 X110.45 Y70.86 E705.077 F3600
G1 X107.77 Y68.17 E705.55
G1 X108.96 Y67.95 F9000
G1 X111.69 Y70.68 E706.031 F3600
G1 X114.42 Y73.41 E706.513
G1 X115.74 Y73.32 F9000
G1 X112.95 Y70.53 E707.005 F3600
G1 X110.17 Y67.74 E707.497
G1 X111.4 Y67.56 F9000
G1 X114.26 Y70.41 E708 F3600
G1 X117.11 Y73.27 E708.504
G1 X118.51 Y73.26 F9000
G1 X115.59 Y70.33 E709.02 F3600
G1 X112.66 Y67.4 E709.537
G1 X113.95 Y67.28 F9000
G1 X116.96 Y70.29 E710.067 F3600
G1 X119.96 Y73.29 E710.598
G1 X121.47 Y73.38 F9000
G1 X118.37 Y70.29 E711.144 F3600
G1 X115.27 Y67.19 E711.69
G1 X116.63 Y67.13 F9000
G1 X119.83 Y70.33 E712.254 F3600
G1 X123.02 Y73.52 E712.817
G1 X124.65 Y73.73 F9000
G1 X121.33 Y70.42 E713.402 F3600
G1 X118.02 Y67.11 E713.986
G1 X119.45 Y67.12 F9000
G1 X122.89 Y70.57 E714.594 F3600
G1 X126.34 Y74.02 E715.202
G1 X128.13 Y74.39 F9000
G1 X125.73 Y71.99 E715.626 F3600
G1 X123.33 Y69.58 E716.05
G1 X120.92 Y67.18 E716.474
G1 X122.44 Y67.29 F9000
G1 X124.97 Y69.81 E716.92 F3600
G1 X127.5 Y72.34 E717.365
G1 X130.02 Y74.87 E717.811
G1 X132.04 Y75.47 F9000
G1 X129.37 Y72.8 E718.283 F3600
G1 X126.69 Y70.12 E718.755
G1 X124.02 Y67.45 E719.226
G1 X125.65 Y67.66 F9000
G1 X128.52 Y70.53 E719.732 F3600
G1 X131.38 Y73.4 E720.238
G1 X134.25 Y76.27 E720.744
G1 X136.7 Y77.3 F9000
G1 X133.58 Y74.18 E721.294 F3600
G1 X130.46 Y71.07 E721.844
G1 X127.35 Y67.95 E722.394
G1 X129.12 Y68.31 F9000
G1 X132.59 Y71.78 E723.007 F3600
G1 X136.06 Y75.25 E723.619
G1 X139.54 Y78.73 E724.232
G1 E722.232 F1800
G1 Z1.1
G1 X143.17 Y80.95 F9000
G1 Z0.6
G1 E724.232 F1800
G1 X140.13 Y77.9 E724.769 F3600
G1 X137.08 Y74.85 E725.307
G1 X134.03 Y71.81 E725.844
G1 X130.98 Y68.76 E726.382
G1 E724.382 F1800
G1 Z1.1
G1 X137.17 Y75.36 F9000
G1 X143.36 Y81.96
G1 X153.4 Y91.12
G1 X157.13 Y98.69
G1 X160.87 Y106.25
G1 X162.27 Y116.76
G1 X162.7 Y127.35
G1 Z0.6
G1 E726.382 F1800
G1 X163.23 Y127.88 E726.475 F3600
G1 X164.64 Y127.87 F9000
G1 X162.7 Y125.93 E726.817 F3600
G1 X162.7 Y124.52 F9000
G1 X166.05 Y127.87 E727.409 F3600
G1 X167.47 Y127.87 F9000
G1 X165.08 Y125.49 E727.829 F3600
G1 X162.7 Y123.1 E728.249
G1 X162.7 Y121.69 F9000
G1 X165.74 Y124.73 E728.785 F3600
G1 X168.77 Y127.76 E729.32
G1 X168.84 Y126.42 F9000
G1 X165.77 Y123.35 E729.862 F3600
G1 X162.7 Y120.27 E730.404
G1 X162.7 Y118.86 F9000
G1 X165.77 Y121.93 E730.946 F3600
G1 X168.84 Y125 E731.488
G1 X168.84 Y123.59 F9000
G1 X165.77 Y120.51 E732.03 F3600
G1 X162.7 Y117.44 E732.572
G1 X162.65 Y115.99 F9000
G1 X165.75 Y119.08 E733.118 F3600
G1 X168.84 Y122.17 E733.663
G1 X168.84 Y120.76 F9000
G1 X165.7 Y117.62 E734.217 F3600
G1 X162.57 Y114.48 E734.77
G1 X162.42 Y112.93 F9000
G1 X165.63 Y116.13 E735.337 F3600
G1 X168.84 Y119.34 E735.903
G1 X168.84 Y117.93 F9000
G1 X165.53 Y114.62 E736.487 F3600
G1 X162.22 Y111.3 E737.071
G1 X161.93 Y109.61 F9000
G1 X165.38 Y113.05 E737.679 F3600
G1 X168.82 Y116.5 E738.287
G1 X168.77 Y115.03 F9000
G1 X166.36 Y112.62 E738.71 F3600
G1 X163.96 Y110.22 E739.134
G1 X161.56 Y107.82 E739.558
G1 X161.08 Y105.93 F9000
G1 X163.61 Y108.45 E740.003 F3600
G1 X166.13 Y110.98 E740.449
G1 X168.66 Y113.5 E740.895
G1 X168.51 Y111.94 F9000
G1 X165.83 Y109.26 E741.367 F3600
G1 X163.15 Y106.58 E741.839
G1 X160.48 Y103.91 E742.311
G1 X159.68 Y101.69 F9000
G1 X162.55 Y104.56 E742.818 F3600
G1 X165.42 Y107.43 E743.324
G1 X168.29 Y110.3 E743.83
G1 X168 Y108.6 F9000
G1 X164.88 Y105.48 E744.38 F3600
G1 X161.76 Y102.37 E744.93
G1 X158.65 Y99.25 E745.479
G1 X157.23 Y96.41 F9000
G1 X160.7 Y99.88 E746.092 F3600
G1 X164.17 Y103.36 E746.704
G1 X167.64 Y106.83 E747.316
G1 X167.19 Y104.96 F9000
G1 X164.14 Y101.91 E747.853 F3600
G1 X161.09 Y98.87 E748.39
G1 X158.05 Y95.82 E748.928
G1 X155 Y92.78 E749.465
G1 E747.465 F1800
G1 Z1.1
G1 X160.82 Y97.88 F9000
G1 X166.63 Y102.99
G1 Z0.6
G1 E749.465 F1800
G1 X163.26 Y99.62 E750.059 F3600
G1 X159.9 Y96.26 E750.653
G1 X156.53 Y92.89 E751.247
G1 X153.16 Y89.52 E751.84
G1 X149.79 Y86.15 E752.434
G1 X146.43 Y82.79 E753.028
G1 X143.06 Y79.42 E753.622
G1 X139.69 Y76.05 E754.216
G1 X136.33 Y72.69 E754.81
G1 X132.96 Y69.32 E755.404
G1 X135.07 Y70.02 F9000
G1 X138.5 Y73.45 E756.009 F3600
G1 X141.93 Y76.88 E756.614
G1 X145.36 Y80.31 E757.219
G1 X148.79 Y83.74 E757.824
G1 X152.22 Y87.17 E758.429
G1 X155.65 Y90.6 E759.034
G1 X159.08 Y94.03 E759.639
G1 X162.51 Y97.46 E760.244
G1 X165.94 Y100.89 E760.849
G1 X165.06 Y98.59 F9000
G1 X161.59 Y95.13 E761.461 F3600
G1 X158.13 Y91.66 E762.072
G1 X154.66 Y88.2 E762.683
G1 X151.2 Y84.73 E763.294
G1 X147.73 Y81.27 E763.905
G1 X144.27 Y77.8 E764.516
G1 X140.81 Y74.34 E765.127
G1 X137.34 Y70.87 E765.738
G1 X139.89 Y72 F9000
G1 X143.32 Y75.44 E766.345 F3600
G1 X146.76 Y78.88 E766.951
G1 X150.2 Y82.32 E767.557
G1 X153.64 Y85.75 E768.164
G1 X157.07 Y89.19 E768.77
G1 X160.51 Y92.63 E769.376
G1 X163.95 Y96.07 E769.983
G1 X162.45 Y93.15 F9000
G1 X159.17 Y89.88 E770.56 F3600
G1 X155.9 Y86.6 E771.138
G1 X152.63 Y83.33 E771.715
G1 X149.35 Y80.06 E772.292
G1 X146.08 Y76.78 E772.87
G1 X142.81 Y73.51 E773.447
G1 E771.447 F1800
G1 Z1.1
G1 X146.44 Y75.72 F9000
G1 Z0.6
G1 E773.447 F1800
G1 X149.87 Y79.16 E774.054 F3600
G1 X153.31 Y82.6 E774.661
G1 X156.75 Y86.04 E775.267
G1 X160.19 Y89.48 E775.874
; Layer Change GCode
; LAYER:2
; LAYER_HEIGHT:0.3
; TYPE:FILL
G1 E773.874 F1800
G1 Z1.1
G1 X160.19 Y89.48 Z1.4 F9000
G1 X151.19 Y85.79
G1 X142.18 Y82.09
G1 X135.2 Y77.36
G1 X127.86 Y75.75
G1 X120.53 Y74.14
G1 X112.75 Y75.13
G1 X104.96 Y76.12
G1 X97.83 Y80.05
G1 X90.69 Y83.98
G1 X80.91 Y95.28
G1 X76.34 Y104.72
G1 X74.04 Y116.2
G1 X75.17 Y119.3
; TYPE:WALL-INNER
G1 Z0.9
G1 E775.874 F1800
G1 X78.11 E776.24 F3600
G1 X78.11 Y124.15 E776.845
G1 Y128.99 E777.449
G1 Y133.84 E778.054
G1 Y138.69 E778.658
G1 Y143.54 E779.263
G1 X78.1 Y148.38 E779.867
G1 Y153.23 E780.472
G1 Y158.08 E781.076
G1 Y162.92 E781.681
G1 Y167.77 E782.286
G1 Y172.62 E782.89
G1 Y177.46 E783.495
G1 Y182.31 E784.099
G1 Y187.16 E784.704
G1 Y192.01 E785.308
G1 X78.08 Y192.03 E785.312
G1 X78.06 Y192.05 E785.316
G1 X74.3 E785.785
G1 X70.54 E786.254
G1 X66.77 E786.724
G1 X63.01 E787.193
G1 X62.98 Y192.04 E787.197
G1 X62.97 Y192.04 E787.199
G1 X62.96 Y192.02 E787.201
G1 X62.95 Y192 E787.205
G1 X62.95 Y187.15 E787.809
G1 Y182.3 E788.414
G1 Y177.46 E789.018
G1 Y172.61 E789.622
G1 Y167.76 E790.227
G1 Y162.92 E790.831
G1 Y158.07 E791.436
G1 Y153.22 E792.04
G1 X62.94 Y148.38 E792.645
G1 Y143.53 E793.249
G1 Y138.69 E793.854
G1 Y133.84 E794.458
G1 Y128.99 E795.063
G1 Y124.15 E795.667
G1 Y119.3 E796.272
G1 X65.84 E796.633
G1 X65.87 Y116.59 E796.971
G1 X65.91 Y115.44 E797.116
G1 X65.98 Y114.21 E797.268
G1 X66.07 Y113.06 E797.412
G1 X66.2 Y111.84 E797.565
G1 X66.34 Y110.7 E797.709
G1 X66.53 Y109.49 E797.862
G1 X66.72 Y108.35 E798.006
G1 X66.95 Y107.18 E798.155
G1 X67.21 Y105.98 E798.307
G1 X67.49 Y104.86 E798.452
G1 X67.79 Y103.71 E798.6
G1 X68.13 Y102.57 E798.749
G1 X68.5 Y101.4 E798.901
G1 X68.87 Y100.3 E799.046
G1 X69.3 Y99.16 E799.198
G1 X69.72 Y98.08 E799.342
G1 X70.2 Y96.95 E799.495
G1 X70.68 Y95.87 E799.643
G1 X71.19 Y94.79 E799.792
G1 X71.71 Y93.76 E799.936
G1 X72.29 Y92.68 E800.089
G1 X72.87 Y91.64 E800.237
G1 X73.46 Y90.65 E800.382
G1 X74.11 Y89.61 E800.534
G1 X74.75 Y88.64 E800.679
G1 X75.44 Y87.63 E800.832
G1 X76.12 Y86.69 E800.976
G1 X76.86 Y85.72 E801.128
G1 X77.6 Y84.79 E801.277
G1 X78.34 Y83.9 E801.421
G1 X79.12 Y83 E801.569
G1 X79.92 Y82.12 E801.718
G1 X80.75 Y81.26 E801.866
G1 X81.61 Y80.4 E802.019
G1 X82.47 Y79.57 E802.168
G1 X83.34 Y78.78 E802.314
G1 X84.25 Y77.99 E802.464
G1 X85.15 Y77.24 E802.611
G1 X86.08 Y76.5 E802.759
G1 X87.03 Y75.78 E802.908
G1 X87.98 Y75.09 E803.054
G1 X88.99 Y74.4 E803.207
G1 X89.96 Y73.76 E803.351
G1 X90.98 Y73.12 E803.502
G1 X92 Y72.52 E803.65
G1 X93.04 Y71.93 E803.798
G1 X94.11 Y71.36 E803.949
G1 X95.14 Y70.84 E804.093
G1 X96.23 Y70.33 E804.243
G1 X97.31 Y69.84 E804.392
G1 X98.43 Y69.37 E804.543
G1 X99.51 Y68.95 E804.687
G1 X100.65 Y68.52 E804.84
G1 X101.76 Y68.14 E804.986
G1 X102.91 Y67.78 E805.136
G1 X104.05 Y67.45 E805.284
G1 X105.2 Y67.14 E805.433
G1 X106.33 Y66.86 E805.578
G1 X107.51 Y66.6 E805.729
G1 X108.68 Y66.37 E805.878
G1 X109.84 Y66.18 E806.024
G1 X111.05 Y65.99 E806.176
G1 X112.21 Y65.85 E806.322
G1 X113.4 Y65.73 E806.471
G1 X114.56 Y65.63 E806.617
G1 X115.79 Y65.56 E806.77
G1 X116.95 Y65.52 E806.915
G1 X118.15 Y65.51 E807.065
G1 X119.35 Y65.52 E807.215
G1 X120.51 Y65.56 E807.36
G1 X121.74 Y65.63 E807.513
G1 X122.9 Y65.73 E807.659
G1 X124.09 Y65.85 E807.808
G1 X125.25 Y65.99 E807.954
G1 X126.46 Y66.18 E808.106
G1 X127.62 Y66.37 E808.252
G1 X128.79 Y66.6 E808.401
G1 X129.97 Y66.86 E808.552
G1 X131.1 Y67.14 E808.697
G1 X132.25 Y67.45 E808.846
G1 X133.39 Y67.78 E808.994
G1 X134.54 Y68.14 E809.144
G1 X135.65 Y68.52 E809.29
G1 X136.79 Y68.95 E809.443
G1 X137.87 Y69.37 E809.587
G1 X138.99 Y69.84 E809.738
G1 X140.07 Y70.33 E809.887
G1 X141.16 Y70.84 E810.037
G1 X142.19 Y71.36 E810.181
G1 X143.26 Y71.93 E810.332
G1 X144.3 Y72.52 E810.48
G1 X145.32 Y73.12 E810.628
G1 X146.34 Y73.76 E810.779
G1 X147.31 Y74.4 E810.923
G1 X148.32 Y75.09 E811.076
G1 X149.27 Y75.78 E811.222
G1 X150.22 Y76.5 E811.371
G1 X151.15 Y77.24 E811.519
G1 X152.05 Y77.99 E811.665
G1 X152.96 Y78.78 E811.815
G1 X153.83 Y79.57 E811.962
G1 X154.69 Y80.4 E812.111
G1 X155.55 Y81.26 E812.263
G1 X156.38 Y82.12 E812.412
G1 X157.18 Y83 E812.561
G1 X157.96 Y83.9 E812.709
G1 X158.7 Y84.79 E812.853
G1 X159.44 Y85.72 E813.002
G1 X160.16 Y86.67 E813.15
G1 X160.86 Y87.63 E813.298
G1 X161.55 Y88.64 E813.451
G1 X162.19 Y89.61 E813.595
G1 X162.82 Y90.62 E813.744
G1 X163.43 Y91.64 E813.892
G1 X164.01 Y92.68 E814.041
G1 X164.59 Y93.76 E814.194
G1 X165.11 Y94.79 E814.338
G1 X165.62 Y95.87 E814.486
G1 X166.1 Y96.95 E814.635
G1 X166.58 Y98.08 E814.788
G1 X167 Y99.16 E814.932
G1 X167.43 Y100.3 E815.084
G1 X167.8 Y101.4 E815.228
G1 X168.17 Y102.57 E815.381
G1 X168.51 Y103.71 E815.53
G1 X168.81 Y104.86 E815.678
G1 X169.09 Y105.98 E815.823
G1 X169.34 Y107.14 E815.971
G1 X169.57 Y108.31 E816.119
G1 X169.77 Y109.49 E816.268
G1 X169.96 Y110.7 E816.421
G1 X170.1 Y111.84 E816.565
G1 X170.22 Y113.03 E816.713
G1 X170.32 Y114.21 E816.862
G1 X170.39 Y115.44 E817.014
G1 X170.43 Y116.59 E817.159
G1 X170.44 Y117.8 E817.309
G1 Y122.71 E817.922
G1 X170.43 Y127.62 E818.534
G1 X170.39 Y127.94 E818.574
G1 X170.32 Y128.23 E818.611
G1 X170.17 Y128.58 E818.659
G1 X170.07 Y128.77 E818.686
G1 X169.92 Y128.97 E818.718
G1 X169.74 Y129.16 E818.749
G1 X169.62 Y129.27 E818.771
G1 X169.43 Y129.4 E818.799
G1 X169.1 Y129.56 E818.845
G1 X169.05 Y129.57 E818.851
G1 X168.8 Y129.62 E818.883
G1 X165.79 Y129.62 E819.258
G1 X162.78 E819.633
G1 X162.66 Y129.61 E819.649
G1 X162.47 Y129.56 E819.673
G1 X162.17 Y129.43 E819.713
G1 X162.02 Y129.34 E819.736
G1 X161.88 Y129.23 E819.758
G1 X161.75 Y129.11 E819.779
G1 X161.57 Y128.89 E819.816
G1 X161.38 Y128.59 E819.859
G1 X161.3 Y128.42 E819.883
G1 X161.2 Y128.13 E819.922
G1 X161.16 Y127.96 E819.943
G1 X161.12 Y127.62 E819.986
G1 X161.11 Y123.59 E820.488
G1 Y119.56 E820.991
G1 X161.1 Y116.77 E821.339
G1 X161.06 Y115.72 E821.47
G1 X161 Y114.69 E821.599
G1 X160.91 Y113.65 E821.729
G1 X160.8 Y112.62 E821.858
G1 X160.66 Y111.59 E821.987
G1 X160.5 Y110.57 E822.117
G1 X160.31 Y109.55 E822.246
G1 X160.1 Y108.53 E822.376
G1 X159.86 Y107.52 E822.505
G1 X159.6 Y106.51 E822.635
G1 X159.32 Y105.52 E822.764
G1 X159.01 Y104.52 E822.894
G1 X158.67 Y103.54 E823.023
G1 X158.32 Y102.57 E823.153
G1 X157.94 Y101.6 E823.282
G1 X157.53 Y100.64 E823.412
G1 X157.11 Y99.7 E823.541
G1 X156.66 Y98.76 E823.671
G1 X156.19 Y97.84 E823.8
G1 X155.7 Y96.92 E823.93
G1 X155.18 Y96.02 E824.059
G1 X154.74 Y95.29 E824.166
G1 X154.19 Y94.42 E824.295
G1 X153.51 Y93.4 E824.447
G1 X152.91 Y92.55 E824.577
G1 X152.28 Y91.72 E824.707
G1 X151.64 Y90.9 E824.836
G1 X150.98 Y90.1 E824.966
G1 X150.31 Y89.31 E825.095
G1 X149.61 Y88.54 E825.224
G1 X148.89 Y87.79 E825.354
G1 X148.16 Y87.06 E825.483
G1 X147.41 Y86.34 E825.613
G1 X146.64 Y85.64 E825.743
G1 X145.85 Y84.97 E825.872
G1 X145.05 Y84.31 E826.001
G1 X144.23 Y83.67 E826.131
G1 X143.4 Y83.04 E826.26
G1 X142.55 Y82.45 E826.39
G1 X141.69 Y81.87 E826.519
G1 X140.82 Y81.31 E826.649
G1 X139.93 Y80.77 E826.778
G1 X139.03 Y80.25 E826.908
G1 X138.11 Y79.76 E827.037
G1 X137.19 Y79.29 E827.167
G1 X136.25 Y78.84 E827.296
G1 X135.3 Y78.41 E827.426
G1 X134.17 Y77.94 E827.58
G1 X132.42 Y77.28 E827.813
G1 X131.43 Y76.94 E827.944
G1 X130.43 Y76.63 E828.073
G1 X129.44 Y76.35 E828.203
G1 X128.43 Y76.09 E828.332
G1 X127.42 Y75.85 E828.461
G1 X126.4 Y75.64 E828.591
G1 X125.38 Y75.45 E828.721
G1 X124.36 Y75.29 E828.85
G1 X123.33 Y75.15 E828.98
G1 X122.3 Y75.04 E829.109
G1 X121.26 Y74.95 E829.238
G1 X120.23 Y74.89 E829.368
G1 X119.19 Y74.85 E829.497
G1 X118.15 Y74.84 E829.627
G1 X117.11 Y74.85 E829.756
G1 X116.07 Y74.89 E829.886
G1 X115.04 Y74.95 E830.015
G1 X114 Y75.04 E830.145
G1 X112.97 Y75.15 E830.274
G1 X111.94 Y75.29 E830.404
G1 X110.92 Y75.45 E830.533
G1 X109.9 Y75.64 E830.663
G1 X108.88 Y75.85 E830.792
G1 X107.87 Y76.09 E830.922
G1 X106.86 Y76.35 E831.051
G1 X105.87 Y76.63 E831.18
G1 X104.87 Y76.94 E831.31
G1 X103.89 Y77.28 E831.44
G1 X102.92 Y77.63 E831.569
G1 X101.95 Y78.01 E831.699
G1 X100.99 Y78.42 E831.828
G1 X100.05 Y78.84 E831.958
G1 X99.11 Y79.29 E832.087
G1 X98.19 Y79.76 E832.217
G1 X97.27 Y80.25 E832.346
G1 X96.37 Y80.77 E832.476
G1 X95.48 Y81.31 E832.605
G1 X94.61 Y81.87 E832.734
G1 X93.75 Y82.45 E832.864
G1 X92.9 Y83.04 E832.993
G1 X92.07 Y83.67 E833.123
G1 X91.25 Y84.31 E833.253
G1 X90.45 Y84.97 E833.382
G1 X89.66 Y85.64 E833.511
G1 X88.89 Y86.34 E833.641
G1 X88.14 Y87.06 E833.77
G1 X87.41 Y87.79 E833.9
G1 X86.69 Y88.54 E834.029
G1 X85.99 Y89.31 E834.159
G1 X85.32 Y90.1 E834.288
G1 X84.66 Y90.9 E834.418
G1 X84.02 Y91.72 E834.547
G1 X83.39 Y92.55 E834.677
G1 X82.8 Y93.4 E834.806
G1 X82.22 Y94.26 E834.936
G1 X81.66 Y95.13 E835.065
G1 X81.12 Y96.02 E835.195
G1 X80.6 Y96.92 E835.324
G1 X80.11 Y97.84 E835.454
G1 X79.64 Y98.76 E835.583
G1 X79.19 Y99.7 E835.713
G1 X78.76 Y100.65 E835.842
G1 X78.29 Y101.78 E835.996
G1 X77.63 Y103.53 E836.229
G1 X77.29 Y104.52 E836.36
G1 X76.98 Y105.52 E836.49
G1 X76.7 Y106.51 E836.619
G1 X76.44 Y107.52 E836.748
G1 X76.2 Y108.53 E836.878
G1 X75.99 Y109.55 E837.007
G1 X75.8 Y110.57 E837.137
G1 X75.64 Y111.59 E837.266
G1 X75.5 Y112.62 E837.396
G1 X75.39 Y113.65 E837.525
G1 X75.3 Y114.69 E837.655
G1 X75.24 Y115.72 E837.784
G1 X75.2 Y116.76 E837.914
G1 X75.17 Y119.2 E838.218
G1 X75.17 Y119.3
G1 X76.18 Y118.3 F9000
; TYPE:WALL-OUTER
G1 X79.11 E838.583 F3000
G1 X79.11 Y123.22 E839.196
G1 Y128.14 E839.81
G1 Y133.06 E840.424
G1 Y137.98 E841.038
G1 Y142.91 E841.651
G1 X79.1 Y147.83 E842.265
G1 Y152.75 E842.879
G1 Y157.67 E843.493
G1 Y162.59 E844.107
G1 Y167.51 E844.72
G1 Y172.43 E845.334
G1 Y177.35 E845.948
G1 Y182.27 E846.562
G1 Y187.19 E847.175
G1 Y192.12 E847.789
G1 X79.06 Y192.3 E847.813
G1 X78.97 Y192.51 E847.841
G1 X78.81 Y192.73 E847.875
G1 X78.74 Y192.79 E847.887
G1 X78.52 Y192.95 E847.921
G1 X78.41 Y192.99 E847.935
G1 X78.28 Y193.03 E847.953
G1 X78.12 Y193.05 E847.972
G1 X74.32 E848.446
G1 X70.53 E848.92
G1 X66.73 E849.393
G1 X62.93 E849.867
G1 X62.74 Y193.02 E849.892
G1 X62.55 Y192.95 E849.917
G1 X62.37 Y192.84 E849.943
G1 X62.24 Y192.74 E849.963
G1 X62.11 Y192.57 E849.99
G1 X62.01 Y192.37 E850.017
G1 X61.95 Y192.12 E850.05
G1 X61.95 Y187.2 E850.664
G1 Y182.28 E851.277
G1 Y177.36 E851.891
G1 Y172.43 E852.505
G1 Y167.51 E853.119
G1 Y162.59 E853.733
G1 Y157.67 E854.347
G1 Y152.75 E854.96
G1 X61.94 Y147.83 E855.574
G1 Y142.91 E856.188
G1 Y137.99 E856.802
G1 Y133.06 E857.416
G1 Y128.14 E858.029
G1 Y123.22 E858.643
G1 Y118.3 E859.257
G1 X64.85 E859.62
G1 X64.87 Y116.59 E859.833
G1 X64.92 Y115.37 E859.986
G1 X64.98 Y114.17 E860.136
G1 X65.08 Y112.96 E860.287
G1 X65.2 Y111.75 E860.438
G1 X65.35 Y110.55 E860.59
G1 X65.53 Y109.35 E860.741
G1 X65.74 Y108.15 E860.892
G1 X65.98 Y106.95 E861.045
G1 X66.23 Y105.78 E861.195
G1 X66.52 Y104.6 E861.346
G1 X66.83 Y103.43 E861.497
G1 X67.18 Y102.26 E861.649
G1 X67.55 Y101.1 E861.802
G1 X67.93 Y99.96 E861.952
G1 X68.35 Y98.82 E862.103
G1 X68.8 Y97.69 E862.254
G1 X69.27 Y96.57 E862.405
G1 X69.77 Y95.47 E862.557
G1 X70.29 Y94.37 E862.708
G1 X70.84 Y93.28 E862.861
G1 X71.4 Y92.22 E863.011
G1 X72 Y91.16 E863.162
G1 X72.61 Y90.12 E863.313
G1 X73.26 Y89.09 E863.465
G1 X73.92 Y88.07 E863.616
G1 X74.61 Y87.07 E863.767
G1 X75.32 Y86.09 E863.919
G1 X76.05 Y85.12 E864.07
G1 X76.81 Y84.17 E864.221
G1 X77.58 Y83.24 E864.373
G1 X78.38 Y82.33 E864.524
G1 X79.2 Y81.43 E864.675
G1 X80.04 Y80.55 E864.826
G1 X80.9 Y79.69 E864.979
G1 X81.78 Y78.85 E865.131
G1 X82.67 Y78.04 E865.28
G1 X83.58 Y77.24 E865.432
G1 X84.52 Y76.46 E865.584
G1 X85.46 Y75.71 E865.734
G1 X86.43 Y74.98 E865.886
G1 X87.41 Y74.27 E866.037
G1 X88.41 Y73.58 E866.188
G1 X89.43 Y72.91 E866.34
G1 X90.46 Y72.27 E866.491
G1 X91.5 Y71.65 E866.642
G1 X92.57 Y71.05 E866.795
G1 X93.63 Y70.49 E866.945
G1 X94.71 Y69.94 E867.096
G1 X95.82 Y69.42 E867.249
G1 X96.91 Y68.92 E867.399
G1 X98.04 Y68.45 E867.551
G1 X99.16 Y68.01 E867.701
G1 X100.3 Y67.59 E867.853
G1 X101.45 Y67.2 E868.004
G1 X102.61 Y66.83 E868.157
G1 X103.78 Y66.48 E868.308
G1 X104.94 Y66.17 E868.458
G1 X106.13 Y65.88 E868.61
G1 X107.3 Y65.62 E868.761
G1 X108.5 Y65.39 E868.913
G1 X109.69 Y65.19 E869.063
G1 X110.9 Y65.01 E869.216
G1 X112.1 Y64.85 E869.367
G1 X113.3 Y64.73 E869.518
G1 X114.51 Y64.63 E869.668
G1 X115.72 Y64.57 E869.82
G1 X116.94 Y64.52 E869.972
G1 X118.15 Y64.51 E870.123
G1 X119.36 Y64.52 E870.274
G1 X120.58 Y64.57 E870.426
G1 X121.79 Y64.63 E870.578
G1 X123 Y64.73 E870.728
G1 X124.2 Y64.85 E870.879
G1 X125.4 Y65 E871.03
G1 X126.61 Y65.19 E871.183
G1 X127.8 Y65.39 E871.333
G1 X129 Y65.63 E871.485
G1 X130.17 Y65.88 E871.635
G1 X131.36 Y66.17 E871.788
G1 X132.52 Y66.48 E871.938
G1 X133.69 Y66.83 E872.089
G1 X134.85 Y67.2 E872.242
G1 X136 Y67.59 E872.393
G1 X137.14 Y68.01 E872.545
G1 X138.26 Y68.45 E872.694
G1 X139.39 Y68.92 E872.847
G1 X140.48 Y69.42 E872.997
G1 X141.59 Y69.94 E873.15
G1 X142.67 Y70.49 E873.301
G1 X143.73 Y71.05 E873.451
G1 X144.8 Y71.65 E873.604
G1 X145.83 Y72.26 E873.754
G1 X146.87 Y72.91 E873.906
G1 X147.88 Y73.57 E874.056
G1 X148.88 Y74.26 E874.208
G1 X149.87 Y74.98 E874.36
G1 X150.83 Y75.7 E874.51
G1 X151.78 Y76.46 E874.661
G1 X152.71 Y77.23 E874.813
G1 X153.62 Y78.03 E874.964
G1 X154.52 Y78.85 E875.115
G1 X155.4 Y79.69 E875.267
G1 X156.26 Y80.55 E875.419
G1 X157.1 Y81.43 E875.571
G1 X157.91 Y82.32 E875.721
G1 X158.71 Y83.23 E875.872
G1 X159.49 Y84.16 E876.023
G1 X160.24 Y85.11 E876.175
G1 X160.97 Y86.08 E876.326
G1 X161.68 Y87.06 E876.477
G1 X162.37 Y88.06 E876.629
G1 X163.04 Y89.08 E876.78
G1 X163.68 Y90.11 E876.931
G1 X164.3 Y91.15 E877.082
G1 X164.9 Y92.22 E877.235
G1 X165.46 Y93.28 E877.385
G1 X166.01 Y94.36 E877.536
G1 X166.53 Y95.47 E877.689
G1 X167.03 Y96.56 E877.839
G1 X167.5 Y97.69 E877.992
G1 X167.94 Y98.81 E878.142
G1 X168.36 Y99.95 E878.293
G1 X168.75 Y101.1 E878.444
G1 X169.12 Y102.25 E878.596
G1 X169.47 Y103.43 E878.748
G1 X169.78 Y104.59 E878.898
G1 X170.07 Y105.78 E879.051
G1 X170.33 Y106.95 E879.201
G1 X170.56 Y108.14 E879.352
G1 X170.76 Y109.34 E879.503
G1 X170.94 Y110.55 E879.656
G1 X171.1 Y111.74 E879.806
G1 X171.22 Y112.95 E879.957
G1 X171.32 Y114.16 E880.109
G1 X171.38 Y115.37 E880.26
G1 X171.43 Y116.58 E880.411
G1 X171.44 Y117.8 E880.563
G1 Y122.74 E881.179
G1 X171.43 Y127.68 E881.795
G1 X171.37 Y128.14 E881.853
G1 X171.27 Y128.54 E881.905
G1 X171.08 Y129.01 E881.968
G1 X170.91 Y129.31 E882.011
G1 X170.69 Y129.61 E882.058
G1 X170.44 Y129.88 E882.103
G1 X170.23 Y130.06 E882.138
G1 X169.93 Y130.27 E882.183
G1 X169.45 Y130.5 E882.25
G1 X169.28 Y130.55 E882.272
G1 X168.88 Y130.62 E882.322
G1 X165.8 Y130.62 E882.707
G1 X162.72 E883.091
G1 X162.49 Y130.59 E883.12
G1 X162.15 Y130.51 E883.164
G1 X161.71 Y130.32 E883.224
G1 X161.45 Y130.16 E883.262
G1 X161.23 Y130 E883.296
G1 X161.02 Y129.8 E883.332
G1 X160.76 Y129.48 E883.384
G1 X160.5 Y129.06 E883.445
G1 X160.38 Y128.8 E883.481
G1 X160.24 Y128.41 E883.532
G1 X160.18 Y128.14 E883.567
G1 X160.12 Y127.68 E883.625
G1 X160.11 Y123.62 E884.131
G1 Y119.57 E884.637
G1 X160.1 Y116.79 E884.983
G1 X160.06 Y115.77 E885.11
G1 X160 Y114.76 E885.236
G1 X159.91 Y113.75 E885.363
G1 X159.8 Y112.74 E885.489
G1 X159.67 Y111.74 E885.616
G1 X159.51 Y110.74 E885.742
G1 X159.33 Y109.74 E885.869
G1 X159.12 Y108.75 E885.995
G1 X158.89 Y107.76 E886.122
G1 X158.63 Y106.78 E886.248
G1 X158.36 Y105.8 E886.374
G1 X158.06 Y104.83 E886.501
G1 X157.73 Y103.87 E886.627
G1 X157.38 Y102.92 E886.754
G1 X157.01 Y101.98 E886.88
G1 X156.62 Y101.04 E887.007
G1 X156.2 Y100.12 E887.133
G1 X155.76 Y99.2 E887.26
G1 X155.3 Y98.3 E887.386
G1 X154.82 Y97.41 E887.513
G1 X154.32 Y96.53 E887.639
G1 X153.89 Y95.82 E887.743
G1 X153.35 Y94.96 E887.869
G1 X152.68 Y93.97 E888.018
G1 X152.1 Y93.14 E888.145
G1 X151.49 Y92.32 E888.272
G1 X150.86 Y91.53 E888.398
G1 X150.22 Y90.74 E888.525
G1 X149.56 Y89.98 E888.651
G1 X148.88 Y89.23 E888.777
G1 X148.18 Y88.49 E888.904
G1 X147.46 Y87.77 E889.03
G1 X146.72 Y87.07 E889.157
G1 X145.97 Y86.39 E889.283
G1 X145.21 Y85.73 E889.41
G1 X144.42 Y85.09 E889.536
G1 X143.63 Y84.46 E889.663
G1 X142.81 Y83.85 E889.789
G1 X141.99 Y83.27 E889.916
G1 X141.14 Y82.7 E890.042
G1 X140.29 Y82.16 E890.169
G1 X139.42 Y81.63 E890.295
G1 X138.54 Y81.13 E890.422
G1 X137.65 Y80.65 E890.548
G1 X136.75 Y80.19 E890.674
G1 X135.83 Y79.75 E890.801
G1 X134.91 Y79.33 E890.928
G1 X133.8 Y78.87 E891.077
G1 X132.08 Y78.22 E891.306
G1 X131.12 Y77.89 E891.433
G1 X130.15 Y77.59 E891.56
G1 X129.17 Y77.32 E891.686
G1 X128.19 Y77.06 E891.813
G1 X127.2 Y76.83 E891.939
G1 X126.21 Y76.62 E892.066
G1 X125.21 Y76.44 E892.192
G1 X124.21 Y76.28 E892.319
G1 X123.21 Y76.15 E892.445
G1 X122.2 Y76.04 E892.571
G1 X121.19 Y75.95 E892.698
G1 X120.18 Y75.89 E892.824
G1 X119.16 Y75.85 E892.951
G1 X118.15 Y75.84 E893.077
G1 X117.14 Y75.85 E893.204
G1 X116.12 Y75.89 E893.33
G1 X115.11 Y75.95 E893.457
G1 X114.1 Y76.04 E893.583
G1 X113.09 Y76.15 E893.71
G1 X112.09 Y76.28 E893.836
G1 X111.09 Y76.44 E893.963
G1 X110.09 Y76.62 E894.089
G1 X109.1 Y76.83 E894.216
G1 X108.11 Y77.06 E894.342
G1 X107.13 Y77.32 E894.468
G1 X106.15 Y77.59 E894.595
G1 X105.18 Y77.89 E894.721
G1 X104.22 Y78.22 E894.848
G1 X103.27 Y78.57 E894.974
G1 X102.33 Y78.94 E895.101
G1 X101.39 Y79.33 E895.227
G1 X100.47 Y79.75 E895.354
G1 X99.55 Y80.19 E895.48
G1 X98.65 Y80.65 E895.607
G1 X97.76 Y81.13 E895.733
G1 X96.88 Y81.63 E895.86
G1 X96.01 Y82.16 E895.986
G1 X95.16 Y82.7 E896.113
G1 X94.31 Y83.27 E896.239
G1 X93.49 Y83.85 E896.365
G1 X92.67 Y84.46 E896.492
G1 X91.88 Y85.09 E896.618
G1 X91.09 Y85.73 E896.745
G1 X90.33 Y86.39 E896.871
G1 X89.58 Y87.07 E896.998
G1 X88.84 Y87.77 E897.124
G1 X88.12 Y88.49 E897.251
G1 X87.42 Y89.23 E897.377
G1 X86.74 Y89.98 E897.504
G1 X86.08 Y90.74 E897.63
G1 X85.44 Y91.53 E897.757
G1 X84.81 Y92.32 E897.883
G1 X84.2 Y93.14 E898.01
G1 X83.62 Y93.96 E898.136
G1 X83.05 Y94.81 E898.262
G1 X82.51 Y95.66 E898.389
G1 X81.98 Y96.53 E898.515
G1 X81.48 Y97.41 E898.642
G1 X81 Y98.3 E898.768
G1 X80.54 Y99.2 E898.895
G1 X80.1 Y100.12 E899.021
G1 X79.68 Y101.04 E899.148
G1 X79.22 Y102.15 E899.298
G1 X78.57 Y103.87 E899.527
G1 X78.24 Y104.83 E899.654
G1 X77.94 Y105.8 E899.78
G1 X77.67 Y106.78 E899.907
G1 X77.41 Y107.76 E900.033
G1 X77.18 Y108.75 E900.159
G1 X76.97 Y109.74 E900.286
G1 X76.79 Y110.74 E900.413
G1 X76.63 Y111.74 E900.539
G1 X76.5 Y112.74 E900.665
G1 X76.39 Y113.75 E900.792
G1 X76.3 Y114.76 E900.918
G1 X76.24 Y115.77 E901.045
G1 X76.2 Y116.79 E901.171
G1 X76.19 Y118.2 E901.348
G1 X76.18 Y118.3
G1 X79.11
G1 Y118.38
G1 X75.17 Y119.3 F9000
G1 E899.348 F1800
G1 Z1.4
G1 X65.02 Y120.24 F9000
; TYPE:FILL
G1 Z0.9
G1 E901.348 F1800
G1 X63.88 Y121.38 E901.549 F3600
G1 Y122.79 F9000
G1 X66.44 Y120.24 E902 F3600
G1 E900 F1800
G1 Z1.4
G1 X69.1 Y111.91 F9000
G1 X71.77 Y103.59
G1 X74.44 Y95.26
G1 X77.11 Y86.94
G1 Z0.9
G1 E902 F1800
G1 X80.5 Y83.55 E902.598 F3600
G1 X83.9 Y80.15 E903.197
G1 X87.29 Y76.76 E903.795
G1 E901.795 F1800
G1 Z1.4
G1 X91.64 Y73.82 F9000
G1 Z0.9
G1 E903.795 F1800
G1 X88.15 Y77.32 E904.411 F3600
G1 X84.65 Y80.81 E905.027
G1 X81.16 Y84.3 E905.643
G1 X77.67 Y87.8 E906.26
G1 X74.17 Y91.29 E906.876
G1 X72.41 Y94.47 F9000
G1 X75.61 Y91.27 E907.44 F3600
G1 X78.81 Y88.07 E908.005
G1 X82.01 Y84.86 E908.57
G1 X85.21 Y81.66 E909.135
G1 X88.42 Y78.46 E909.7
G1 X91.62 Y75.26 E910.265
G1 X94.82 Y72.06 E910.829
G1 X97.51 Y70.78 F9000
G1 X94.21 Y74.08 E911.411 F3600
G1 X90.91 Y77.38 E911.993
G1 X87.62 Y80.67 E912.574
G1 X84.32 Y83.97 E913.156
G1 X81.02 Y87.27 E913.737
G1 X77.72 Y90.57 E914.319
G1 X74.43 Y93.86 E914.901
G1 X71.13 Y97.16 E915.482
G1 X70.15 Y99.56 F9000
G1 X73.45 Y96.25 E916.065 F3600
G1 X76.76 Y92.94 E916.649
G1 X80.07 Y89.64 E917.232
G1 X83.37 Y86.33 E917.815
G1 X86.68 Y83.02 E918.398
G1 X89.99 Y79.72 E918.981
G1 X93.29 Y76.41 E919.565
G1 X96.6 Y73.11 E920.148
G1 X99.91 Y69.8 E920.731
G1 X102.1 Y69.02 F9000
G1 X98.83 Y72.29 E921.308 F3600
G1 X95.55 Y75.57 E921.886
G1 X92.28 Y78.84 E922.463
G1 X89.01 Y82.11 E923.04
G1 X85.74 Y85.38 E923.617
G1 X82.46 Y88.66 E924.195
G1 X79.19 Y91.93 E924.772
G1 X75.92 Y95.2 E925.349
G1 X72.64 Y98.47 E925.926
G1 X69.37 Y101.75 E926.504
G1 X68.75 Y103.78 F9000
G1 X71.97 Y100.57 E927.071 F3600
G1 X75.18 Y97.35 E927.638
G1 X78.4 Y94.13 E928.206
G1 X81.62 Y90.92 E928.773
G1 X84.83 Y87.7 E929.341
G1 X88.05 Y84.48 E929.908
G1 X91.27 Y81.27 E930.475
G1 X94.48 Y78.05 E931.043
G1 X97.7 Y74.83 E931.61
G1 X100.92 Y71.62 E932.178
G1 X104.13 Y68.4 E932.745
G1 E930.745 F1800
G1 Z1.4
G1 X97.95 Y75.05 F9000
G1 X91.77 Y81.71
G1 X85.58 Y88.37
G1 Z0.9
G1 E932.745 F1800
G1 X82.12 Y91.83 E933.356 F3600
G1 X78.65 Y95.3 E933.968
G1 X75.18 Y98.77 E934.579
G1 X71.71 Y102.23 E935.191
G1 X68.25 Y105.7 E935.802
G1 X67.84 Y107.52 F9000
G1 X71.15 Y104.21 E936.387 F3600
G1 X74.46 Y100.9 E936.971
G1 X77.78 Y97.59 E937.555
G1 X81.09 Y94.27 E938.139
G1 E936.139 F1800
G1 Z1.4
G1 X88.72 Y85.23 F9000
G1 Z0.9
G1 E938.139 F1800
G1 X92.18 Y81.77 E938.751 F3600
G1 X95.65 Y78.3 E939.362
G1 X99.12 Y74.83 E939.974
G1 X102.58 Y71.37 E940.585
G1 X106.05 Y67.9 E941.197
G1 X107.87 Y67.49 F9000
G1 X104.56 Y70.8 E941.781 F3600
G1 X101.25 Y74.11 E942.366
G1 X97.93 Y77.43 E942.95
G1 X94.62 Y80.74 E943.534
G1 X97.95 Y78.82 F9000
G1 X100.87 Y75.91 E944.048 F3600
G1 X103.78 Y73 E944.562
G1 X106.69 Y70.08 E945.076
G1 X109.61 Y67.17 E945.59
G1 X111.28 Y66.91 F9000
G1 X108.62 Y69.57 E946.059 F3600
G1 X105.97 Y72.22 E946.527
G1 X103.31 Y74.88 E946.996
G1 X100.65 Y77.54 E947.464
G1 X103.01 Y76.6 F9000
G1 X106.3 Y73.31 E948.045 F3600
G1 X109.59 Y70.01 E948.625
G1 X112.88 Y66.72 E949.206
G1 X114.43 Y66.59 F9000
G1 X111.34 Y69.68 E949.752 F3600
G1 X108.24 Y72.78 E950.298
G1 X105.15 Y75.87 E950.844
G1 X107.12 Y75.31 F9000
G1 X110.06 Y72.37 E951.362 F3600
G1 X113 Y69.44 E951.88
G1 X115.94 Y66.5 E952.398
G1 X117.39 Y66.46 F9000
G1 X114.58 Y69.26 E952.893 F3600
G1 X111.78 Y72.07 E953.388
G1 X108.98 Y74.87 E953.883
G1 X110.73 Y74.53 F9000
G1 X113.42 Y71.84 E954.357 F3600
G1 X116.11 Y69.15 E954.832
G1 X118.81 Y66.46 E955.307
G1 X120.18 Y66.49 F9000
G1 X117.59 Y69.09 E955.765 F3600
G1 X114.99 Y71.68 E956.223
G1 X112.39 Y74.28 E956.681
G1 X113.99 Y74.1 F9000
G1 X116.5 Y71.59 E957.124 F3600
G1 X119.02 Y69.07 E957.567
G1 X121.53 Y66.56 E958.01
G1 X122.84 Y66.66 F9000
G1 X120.4 Y69.1 E958.441 F3600
G1 X117.96 Y71.54 E958.871
G1 X115.52 Y73.98 E959.301
G1 X117 Y73.91 F9000
G1 X119.38 Y71.54 E959.719 F3600
G1 X121.75 Y69.17 E960.138
G1 X124.12 Y66.8 E960.556
G1 X125.37 Y66.96 F9000
G1 X121.9 Y70.43 E961.168 F3600
G1 X118.43 Y73.9 E961.78
G1 X119.81 Y73.93 F9000
G1 X123.2 Y70.54 E962.379 F3600
G1 X126.6 Y67.15 E962.977
G1 X127.79 Y67.37 F9000
G1 X124.48 Y70.69 E963.562 F3600
G1 X121.16 Y74.01 E964.148
G1 X122.46 Y74.11 F9000
G1 X125.72 Y70.86 E964.722 F3600
G1 X128.97 Y67.61 E965.296
G1 X130.12 Y67.87 F9000
G1 X126.93 Y71.06 E965.859 F3600
G1 X123.73 Y74.26 E966.423
G1 X124.97 Y74.44 F9000
G1 X128.11 Y71.29 E966.977 F3600
G1 X131.25 Y68.15 E967.531
G1 X132.36 Y68.46 F9000
G1 X129.27 Y71.55 E968.077 F3600
G1 X126.17 Y74.64 E968.623
G1 X127.35 Y74.88 F9000
G1 X130.4 Y71.83 E969.16 F3600
G1 X133.45 Y68.78 E969.697
G1 X134.52 Y69.13 F9000
G1 X131.51 Y72.14 E970.228 F3600
G1 X128.51 Y75.14 E970.758
G1 X129.63 Y75.43 F9000
G1 X132.6 Y72.46 E971.281 F3600
G1 X135.57 Y69.5 E971.804
G1 X136.6 Y69.88 F9000
G1 X133.66 Y72.81 E972.321 F3600
G1 X130.73 Y75.74 E972.839
G1 X131.81 Y76.08 F9000
G1 X134.71 Y73.18 E973.35 F3600
G1 X137.61 Y70.28 E973.862
G1 X138.6 Y70.7 F9000
G1 X135.73 Y73.57 E974.368 F3600
G1 X132.86 Y76.44 E974.875
G1 X133.89 Y76.83 F9000
G1 X136.73 Y73.98 E975.377 F3600
G1 X139.58 Y71.14 E975.879
G1 X140.54 Y71.59 F9000
G1 X137.72 Y74.41 E976.376 F3600
G1 X134.9 Y77.23 E976.873
G1 X135.9 Y77.65 F9000
G1 X138.69 Y74.86 E977.366 F3600
G1 X141.49 Y72.06 E977.859
G1 X142.41 Y72.55 F9000
G1 X139.64 Y75.32 E978.348 F3600
G1 X136.87 Y78.09 E978.837
G1 X137.82 Y78.56 F9000
G1 X140.57 Y75.8 E979.323 F3600
G1 X143.33 Y73.05 E979.809
G1 X144.22 Y73.57 F9000
G1 X141.49 Y76.3 E980.291 F3600
G1 X138.75 Y79.04 E980.774
G1 X139.67 Y79.54 F9000
G1 X142.39 Y76.82 E981.253 F3600
G1 X145.11 Y74.1 E981.733
G1 X145.97 Y74.64 F9000
G1 X143.27 Y77.35 E982.21 F3600
G1 X140.56 Y80.06 E982.688
G1 X141.44 Y80.59 F9000
G1 X144.13 Y77.9 E983.163 F3600
G1 X146.83 Y75.21 E983.638
G1 X147.67 Y75.78 F9000
G1 X144.98 Y78.46 E984.111 F3600
G1 X142.3 Y81.14 E984.584
G1 X143.15 Y81.71 F9000
G1 X145.82 Y79.04 E985.055 F3600
G1 X148.49 Y76.37 E985.526
G1 X149.3 Y76.98 F9000
G1 X146.64 Y79.64 E985.995 F3600
G1 X143.97 Y82.3 E986.465
G1 X144.79 Y82.9 F9000
G1 X147.44 Y80.25 E986.933 F3600
G1 X150.09 Y77.6 E987.401
G1 X150.87 Y78.23 F9000
G1 X148.22 Y80.88 E987.868 F3600
G1 X145.58 Y83.52 E988.335
G1 X146.35 Y84.16 F9000
G1 X149 Y81.52 E988.801 F3600
G1 X151.64 Y78.88 E989.267
G1 X152.39 Y79.54 F9000
G1 X149.75 Y82.18 E989.733 F3600
G1 X147.11 Y84.82 E990.198
G1 X147.86 Y85.48 F9000
G1 X150.5 Y82.85 E990.663 F3600
G1 X153.13 Y80.21 E991.128
G1 X153.86 Y80.9 F9000
G1 X151.22 Y83.54 E991.593 F3600
G1 X148.59 Y86.17 E992.058
G1 X149.3 Y86.87 F9000
G1 X151.94 Y84.24 E992.522 F3600
G1 X154.57 Y81.6 E992.987
G1 X155.27 Y82.32 F9000
G1 X152.63 Y84.96 E993.452 F3600
G1 X150 Y87.59 E993.916
G1 X150.68 Y88.32 F9000
G1 X153.31 Y85.69 E994.382 F3600
G1 X155.95 Y83.05 E994.847
G1 X156.62 Y83.79 F9000
G1 X153.98 Y86.43 E995.313 F3600
G1 X151.34 Y89.07 E995.778
G1 X151.99 Y89.84 F9000
G1 X154.64 Y87.2 E996.245 F3600
G1 X157.28 Y84.55 E996.712
G1 X157.92 Y85.32 F9000
G1 X155.27 Y87.97 E997.18 F3600
G1 X152.62 Y90.62 E997.647
G1 X153.24 Y91.42 F9000
G1 X155.89 Y88.76 E998.116 F3600
G1 X158.55 Y86.11 E998.585
G1 X159.17 Y86.91 F9000
G1 X156.5 Y89.57 E999.055 F3600
G1 X153.84 Y92.24 E999.525
G1 X154.42 Y93.07 F9000
G1 X157.09 Y90.4 E999.996 F3600
G1 X159.77 Y87.72 E1000.468
G1 X160.35 Y88.55 F9000
G1 X157.67 Y91.23 E1000.942 F3600
G1 X154.98 Y93.92 E1001.415
G1 X155.52 Y94.79 F9000
G1 X158.22 Y92.09 E1001.891 F3600
G1 X160.92 Y89.39 E1002.368
G1 X161.48 Y90.25 F9000
G1 X158.77 Y92.96 E1002.846 F3600
G1 X156.06 Y95.67 E1003.324
G1 X156.57 Y96.57 F9000
G1 X159.3 Y93.85 E1003.804 F3600
G1 X162.02 Y91.12 E1004.285
G1 X162.55 Y92.01 F9000
G1 X159.81 Y94.75 E1004.768 F3600
G1 X157.07 Y97.49 E1005.252
G1 X157.54 Y98.43 F9000
G1 X160.3 Y95.67 E1005.739 F3600
G1 X163.06 Y92.91 E1006.225
G1 X163.56 Y93.83 F9000
G1 X160.78 Y96.61 E1006.716 F3600
G1 X158 Y99.39 E1007.206
G1 X158.44 Y100.36 F9000
G1 X161.24 Y97.56 E1007.7 F3600
G1 X164.04 Y94.76 E1008.194
G1 X164.5 Y95.71 F9000
G1 X161.68 Y98.54 E1008.692 F3600
G1 X158.85 Y101.36 E1009.19
G1 X159.25 Y102.38 F9000
G1 X162.1 Y99.53 E1009.693 F3600
G1 X164.95 Y96.68 E1010.196
G1 X165.38 Y97.66 F9000
G1 X162.5 Y100.54 E1010.704 F3600
G1 X159.62 Y103.42 E1011.211
G1 X159.98 Y104.48 F9000
G1 X162.89 Y101.57 E1011.725 F3600
G1 X165.8 Y98.66 E1012.238
G1 X166.19 Y99.68 F9000
G1 X163.25 Y102.62 E1012.757 F3600
G1 X160.31 Y105.57 E1013.277
G1 X160.61 Y106.67 F9000
G1 X163.59 Y103.69 E1013.802 F3600
G1 X166.57 Y100.71 E1014.328
G1 X166.93 Y101.77 F9000
G1 X163.91 Y104.79 E1014.861 F3600
G1 X160.89 Y107.81 E1015.393
G1 X161.15 Y108.97 F9000
G1 X164.21 Y105.91 E1015.933 F3600
G1 X167.27 Y102.84 E1016.473
G1 X167.59 Y103.94 F9000
G1 X164.48 Y107.04 E1017.022 F3600
G1 X161.38 Y110.15 E1017.57
G1 X161.57 Y111.37 F9000
G1 X164.73 Y108.21 E1018.127 F3600
G1 X167.89 Y105.05 E1018.684
G1 X168.17 Y106.19 F9000
G1 X164.95 Y109.4 E1019.251 F3600
G1 X161.74 Y112.62 E1019.818
G1 X161.87 Y113.9 F9000
G1 X165.15 Y110.62 E1020.396 F3600
G1 X168.42 Y107.35 E1020.974
G1 X168.66 Y108.53 F9000
G1 X165.31 Y111.87 E1021.564 F3600
G1 X161.97 Y115.22 E1022.153
G1 X162.03 Y116.57 F9000
G1 X165.44 Y113.15 E1022.756 F3600
G1 X168.86 Y109.74 E1023.358
G1 X169.04 Y110.97 F9000
G1 X165.54 Y114.47 E1023.976 F3600
G1 X162.04 Y117.98 E1024.593
G1 X162.04 Y119.39 F9000
G1 X164.43 Y117 E1025.014 F3600
G1 X166.81 Y114.62 E1025.435
G1 X169.19 Y112.23 E1025.855
G1 X169.32 Y113.52 F9000
G1 X166.89 Y115.95 E1026.283 F3600
G1 X164.47 Y118.37 E1026.711
G1 X162.04 Y120.8 E1027.138
G1 X162.05 Y122.21 F9000
G1 X164.5 Y119.76 E1027.571 F3600
G1 X166.96 Y117.3 E1028.004
G1 X169.41 Y114.85 E1028.437
G1 X169.47 Y116.2 F9000
G1 X167 Y118.67 E1028.874 F3600
G1 X164.52 Y121.15 E1029.31
G1 X162.05 Y123.62 E1029.746
G1 X162.05 Y125.03 F9000
G1 X164.53 Y122.55 E1030.184 F3600
G1 X167.02 Y120.07 E1030.622
G1 X169.5 Y117.59 E1031.06
G1 X169.5 Y119 F9000
G1 X167.02 Y121.48 E1031.498 F3600
G1 X164.53 Y123.96 E1031.935
G1 X162.05 Y126.45 E1032.373
G1 X162.09 Y127.82 F9000
G1 X164.56 Y125.35 E1032.808 F3600
G1 X167.03 Y122.88 E1033.244
G1 X169.5 Y120.42 E1033.679
G1 X169.5 Y121.83 F9000
G1 X166.1 Y125.23 E1034.278 F3600
G1 X162.7 Y128.63 E1034.878
G1 X164.07 Y128.68 F9000
G1 X166.78 Y125.96 E1035.357 F3600
G1 X169.49 Y123.25 E1035.835
G1 X169.49 Y124.66 F9000
G1 X165.48 Y128.67 E1036.543 F3600
G1 X166.9 Y128.67 F9000
G1 X169.49 Y126.08 E1037.001 F3600
G1 X169.49 Y127.49 F9000
G1 X168.32 Y128.67 E1037.208 F3600
G1 E1035.208 F1800
G1 Z1.4
G1 X164.67 Y119.6 F9000
G1 X161.02 Y110.54
G1 X156.05 Y96.63
G1 X150.21 Y89.88
G1 X144.37 Y83.12
G1 X133.04 Y76.82
G1 X118.65 Y74.12
G1 X110.91 Y75.38
G1 X103.18 Y76.64
G1 X96.36 Y80.8
G1 X89.55 Y84.96
G1 X84.36 Y91.28
G1 X79.17 Y97.6
G1 Z0.9
G1 E1037.208 F1800
G1 X76.26 Y100.52 E1037.722 F3600
G1 X73.35 Y103.43 E1038.236
G1 X70.43 Y106.34 E1038.75
G1 X67.52 Y109.26 E1039.264
G1 X67.26 Y110.93 F9000
G1 X69.92 Y108.27 E1039.732 F3600
G1 X72.58 Y105.62 E1040.201
G1 X75.23 Y102.96 E1040.67
G1 X77.89 Y100.3 E1041.138
G1 X76.96 Y102.65 F9000
G1 X73.66 Y105.94 E1041.719 F3600
G1 X70.37 Y109.24 E1042.3
G1 X67.07 Y112.53 E1042.882
G1 X66.94 Y114.08 F9000
G1 X70.03 Y110.99 E1043.428 F3600
G1 X73.13 Y107.89 E1043.974
G1 X76.22 Y104.8 E1044.52
G1 X75.66 Y106.77 F9000
G1 X72.72 Y109.71 E1045.038 F3600
G1 X69.79 Y112.65 E1045.556
G1 X66.85 Y115.59 E1046.074
G1 X66.81 Y117.04 F9000
G1 X69.61 Y114.24 E1046.569 F3600
G1 X72.42 Y111.43 E1047.064
G1 X75.22 Y108.63 E1047.559
G1 X74.88 Y110.38 F9000
G1 X72.18 Y113.08 E1048.034 F3600
G1 X69.49 Y115.77 E1048.51
G1 X66.79 Y118.47 E1048.986
G1 X66.78 Y119.9 F9000
G1 X69.39 Y117.28 E1049.448 F3600
G1 X72.01 Y114.66 E1049.909
G1 X74.63 Y112.04 E1050.371
G1 X74.45 Y113.64 F9000
G1 X70.93 Y117.16 E1050.993 F3600
G1 X67.4 Y120.69 E1051.614
G1 X63.88 Y124.21 E1052.235
G1 X63.88 Y125.62 F9000
G1 X67.37 Y122.14 E1052.85 F3600
G1 X70.85 Y118.66 E1053.464
G1 X74.33 Y115.17 E1054.078
G1 X74.26 Y116.65 F9000
G1 X70.8 Y120.11 E1054.689 F3600
G1 X67.34 Y123.58 E1055.299
G1 X63.88 Y127.04 E1055.91
G1 X63.88 Y128.45 F9000
G1 X67.34 Y125 E1056.519 F3600
G1 X70.79 Y121.54 E1057.128
G1 X74.25 Y118.09 E1057.738
G1 X74.23 Y119.52 F9000
G1 X70.78 Y122.97 E1058.346 F3600
G1 X67.33 Y126.42 E1058.955
G1 X63.88 Y129.87 E1059.563
G1 X63.88 Y131.28 F9000
G1 X66.64 Y128.52 E1060.05 F3600
G1 X69.4 Y125.76 E1060.537
G1 X72.16 Y123 E1061.023
G1 X74.92 Y120.24 E1061.51
G1 X76.34 Y120.24 F9000
G1 X73.22 Y123.35 E1062.059 F3600
G1 X70.11 Y126.47 E1062.608
G1 X67 Y129.58 E1063.158
G1 X63.88 Y132.69 E1063.707
G1 X63.88 Y134.11 F9000
G1 X67.2 Y130.79 E1064.293 F3600
G1 X70.52 Y127.47 E1064.878
G1 X73.85 Y124.14 E1065.464
G1 X77.17 Y120.82 E1066.05
G1 X77.17 Y122.24 F9000
G1 X73.85 Y125.56 E1066.636 F3600
G1 X70.52 Y128.88 E1067.222
G1 X67.2 Y132.2 E1067.807
G1 X63.88 Y135.52 E1068.393
G1 X63.88 Y136.93 F9000
G1 X67.2 Y133.61 E1068.979 F3600
G1 X70.52 Y130.29 E1069.565
G1 X73.85 Y126.97 E1070.15
G1 X77.17 Y123.65 E1070.736
G1 X77.17 Y125.07 F9000
G1 X73.84 Y128.39 E1071.322 F3600
G1 X70.52 Y131.71 E1071.907
G1 X67.2 Y135.03 E1072.493
G1 X63.88 Y138.35 E1073.079
G1 X63.88 Y139.76 F9000
G1 X67.2 Y136.44 E1073.665 F3600
G1 X70.52 Y133.12 E1074.25
G1 X73.84 Y129.8 E1074.836
G1 X77.17 Y126.48 E1075.422
G1 X77.17 Y127.9 F9000
G1 X73.84 Y131.22 E1076.007 F3600
G1 X70.52 Y134.54 E1076.593
G1 X67.2 Y137.86 E1077.179
G1 X63.88 Y141.18 E1077.765
G1 X63.88 Y142.59 F9000
G1 X67.2 Y139.27 E1078.35 F3600
G1 X70.52 Y135.95 E1078.936
G1 X73.84 Y132.63 E1079.522
G1 X77.17 Y129.31 E1080.107
G1 X77.17 Y130.72 F9000
G1 X73.84 Y134.04 E1080.693 F3600
G1 X70.52 Y137.36 E1081.279
G1 X67.2 Y140.68 E1081.864
G1 X63.88 Y144.01 E1082.45
G1 X63.88 Y145.42 F9000
G1 X67.2 Y142.1 E1083.036 F3600
G1 X70.52 Y138.78 E1083.621
G1 X73.84 Y135.46 E1084.207
G1 X77.17 Y132.14 E1084.793
G1 X77.17 Y133.55 F9000
G1 X73.84 Y136.87 E1085.378 F3600
G1 X70.52 Y140.19 E1085.964
G1 X67.2 Y143.51 E1086.55
G1 X63.88 Y146.83 E1087.135
G1 X63.88 Y148.25 F9000
G1 X67.2 Y144.93 E1087.721 F3600
G1 X70.52 Y141.61 E1088.307
G1 X73.84 Y138.29 E1088.892
G1 X77.17 Y134.97 E1089.478
G1 X77.17 Y136.38 F9000
G1 X73.84 Y139.7 E1090.064 F3600
G1 X70.52 Y143.02 E1090.649
G1 X67.2 Y146.34 E1091.235
G1 X63.88 Y149.66 E1091.82
G1 X63.88 Y151.08 F9000
G1 X67.2 Y147.76 E1092.406 F3600
G1 X70.52 Y144.44 E1092.992
G1 X73.84 Y141.12 E1093.577
G1 X77.17 Y137.8 E1094.163
G1 X77.17 Y139.21 F9000
G1 X73.84 Y142.53 E1094.749 F3600
G1 X70.52 Y145.85 E1095.334
G1 X67.2 Y149.17 E1095.92
G1 X63.88 Y152.49 E1096.506
G1 X63.88 Y153.9 F9000
G1 X67.2 Y150.58 E1097.091 F3600
G1 X70.52 Y147.26 E1097.677
G1 X73.84 Y143.94 E1098.262
G1 X77.17 Y140.62 E1098.848
G1 X77.17 Y142.04 F9000
G1 X73.84 Y145.36 E1099.434 F3600
G1 X70.52 Y148.68 E1100.019
G1 X67.2 Y152 E1100.605
G1 X63.88 Y155.32 E1101.191
G1 X63.89 Y156.73 F9000
G1 X67.2 Y153.41 E1101.776 F3600
G1 X70.52 Y150.09 E1102.362
G1 X73.84 Y146.77 E1102.947
G1 X77.16 Y143.45 E1103.533
G1 X77.16 Y144.87 F9000
G1 X73.84 Y148.19 E1104.118 F3600
G1 X70.52 Y151.51 E1104.704
G1 X67.2 Y154.83 E1105.29
G1 X63.89 Y158.15 E1105.875
G1 X63.89 Y159.56 F9000
G1 X67.2 Y156.24 E1106.461 F3600
G1 X70.52 Y152.92 E1107.046
G1 X73.84 Y149.6 E1107.632
G1 X77.16 Y146.28 E1108.217
G1 X77.16 Y147.7 F9000
G1 X73.84 Y151.01 E1108.803 F3600
G1 X70.52 Y154.33 E1109.389
G1 X67.2 Y157.65 E1109.974
G1 X63.89 Y160.97 E1110.56
G1 X63.89 Y162.39 F9000
G1 X67.21 Y159.07 E1111.145 F3600
G1 X70.53 Y155.75 E1111.731
G1 X73.84 Y152.43 E1112.316
G1 X77.16 Y149.11 E1112.902
G1 X77.16 Y150.52 F9000
G1 X73.84 Y153.84 E1113.487 F3600
G1 X70.53 Y157.16 E1114.073
G1 X67.21 Y160.48 E1114.658
G1 X63.89 Y163.8 E1115.244
G1 X63.89 Y165.22 F9000
G1 X67.21 Y161.9 E1115.829 F3600
G1 X70.52 Y158.58 E1116.415
G1 X73.84 Y155.26 E1117
G1 X77.16 Y151.94 E1117.586
G1 X77.16 Y153.35 F9000
G1 X73.84 Y156.67 E1118.171 F3600
G1 X70.52 Y159.99 E1118.757
G1 X67.21 Y163.31 E1119.342
G1 X63.89 Y166.63 E1119.928
G1 X63.89 Y168.04 F9000
G1 X67.21 Y164.72 E1120.513 F3600
G1 X70.52 Y161.41 E1121.099
G1 X73.84 Y158.09 E1121.684
G1 X77.16 Y154.77 E1122.27
G1 X77.16 Y156.18 F9000
G1 X73.84 Y159.5 E1122.855 F3600
G1 X70.53 Y162.82 E1123.441
G1 X67.21 Y166.14 E1124.026
G1 X63.89 Y169.46 E1124.611
G1 X63.89 Y170.87 F9000
G1 X67.21 Y167.55 E1125.197 F3600
G1 X70.53 Y164.23 E1125.782
G1 X73.84 Y160.91 E1126.368
G1 X77.16 Y157.6 E1126.953
G1 X77.16 Y159.01 F9000
G1 X73.84 Y162.33 E1127.539 F3600
G1 X70.53 Y165.65 E1128.124
G1 X67.21 Y168.97 E1128.71
G1 X63.89 Y172.29 E1129.295
G1 X63.89 Y173.7 F9000
G1 X67.21 Y170.38 E1129.881 F3600
G1 X70.53 Y167.06 E1130.466
G1 X73.84 Y163.74 E1131.051
G1 X77.16 Y160.42 E1131.637
G1 X77.16 Y161.84 F9000
G1 X73.84 Y165.16 E1132.222 F3600
G1 X70.53 Y168.48 E1132.808
G1 X67.21 Y171.8 E1133.393
G1 X63.89 Y175.11 E1133.978
G1 X63.89 Y176.53 F9000
G1 X67.21 Y173.21 E1134.564 F3600
G1 X70.53 Y169.89 E1135.149
G1 X73.84 Y166.57 E1135.735
G1 X77.16 Y163.25 E1136.32
G1 X77.16 Y164.67 F9000
G1 X73.84 Y167.99 E1136.906 F3600
G1 X70.53 Y171.3 E1137.491
G1 X67.21 Y174.62 E1138.076
G1 X63.89 Y177.94 E1138.662
G1 X63.89 Y179.36 F9000
G1 X67.21 Y176.04 E1139.247 F3600
G1 X70.53 Y172.72 E1139.833
G1 X73.84 Y169.4 E1140.418
G1 X77.16 Y166.08 E1141.003
G1 X77.16 Y167.5 F9000
G1 X73.84 Y170.81 E1141.589 F3600
G1 X70.53 Y174.13 E1142.174
G1 X67.21 Y177.45 E1142.76
G1 X63.89 Y180.77 E1143.345
G1 X63.89 Y182.18 F9000
G1 X67.21 Y178.87 E1143.931 F3600
G1 X70.53 Y175.55 E1144.516
G1 X73.84 Y172.23 E1145.101
G1 X77.16 Y168.91 E1145.687
G1 X77.16 Y170.33 F9000
G1 X73.84 Y173.64 E1146.272 F3600
G1 X70.53 Y176.96 E1146.857
G1 X67.21 Y180.28 E1147.443
G1 X63.89 Y183.6 E1148.028
G1 X63.89 Y185.01 F9000
G1 X67.21 Y181.69 E1148.613 F3600
G1 X70.53 Y178.38 E1149.199
G1 X73.84 Y175.06 E1149.784
G1 X77.16 Y171.74 E1150.369
G1 X77.16 Y173.15 F9000
G1 X73.84 Y176.47 E1150.955 F3600
G1 X70.53 Y179.79 E1151.54
G1 X67.21 Y183.11 E1152.125
G1 X63.89 Y186.43 E1152.711
G1 X63.89 Y187.84 F9000
G1 X67.21 Y184.52 E1153.296 F3600
G1 X70.53 Y181.2 E1153.881
G1 X73.84 Y177.89 E1154.467
G1 X77.16 Y174.57 E1155.052
G1 X77.16 Y175.98 F9000
G1 X73.84 Y179.3 E1155.637 F3600
G1 X70.53 Y182.62 E1156.223
G1 X67.21 Y185.94 E1156.808
G1 X63.89 Y189.26 E1157.393
G1 X63.89 Y190.67 F9000
G1 X67.21 Y187.35 E1157.979 F3600
G1 X70.53 Y184.03 E1158.564
G1 X73.84 Y180.71 E1159.149
