; Generated with MatterSlice 2.22.04
; filamentDiameter = 1.75
; extrusionWidth = 0.4
; firstLayerExtrusionWidth = 0.4
; layerThickness = 0.3
; firstLayerThickness = 0.3
; automatic settings before start_gcode
G21 ; set units to millimeters
M107 ; fan off
M140 S50 ; start heating the bed
M104 T0 S210 ; start heating T0
M190 S50 ; wait for bed temperature to be reached
T0 ; set the active extruder to 0
; settings from start_gcode
G28 X0 Y0 Z0 ; home all axes
G1 Z5 F5000 ; lift nozzle
M109 S210 ; set the extruder temp and wait
G28 X0 Y0 Z0 ; Home Z again in case there was filament on nozzle
G29 ; probe the bed
; automatic settings after start_gcode
T0 ; set the active extruder to 0
G90 ; use absolute coordinates
G92 E0 ; reset the expected extruder position
M82 ; use absolute distance for extrusion
; Layer count: 85
; Layer Change GCode
; LAYER:0
; LAYER_HEIGHT:0.3
; TYPE:FILL
M400
M107
G0 F9000 X50.539 Y64.114 Z0.8
G0 X169.207 Y64.114
G0 X169.207 Y60.657
; TYPE:SKIRT
G1 Z0.3
G1 F1800 E0
G1 F1080 X170.865 Y60.792 E0.08299
G1 X172.521 Y61.022 E0.1664
G1 X174.158 Y61.344 E0.24964
G1 X175.778 Y61.757 E0.33305
G1 X177.374 Y62.263 E0.41658
G1 X178.933 Y62.854 E0.49976
G1 X180.459 Y63.532 E0.58306
G1 X181.945 Y64.295 E0.6664
G1 X183.388 Y65.142 E0.74988
G1 X184.778 Y66.066 E0.83315
G1 X186.114 Y67.066 E0.91641
G1 X187.395 Y68.142 E0.99987
G1 X188.611 Y69.287 E1.0832
G1 X189.763 Y70.499 E1.16662
G1 X190.843 Y71.773 E1.24995
G1 X191.851 Y73.104 E1.33325
G1 X192.784 Y74.493 E1.41673
G1 X193.637 Y75.932 E1.50018
G1 X194.406 Y77.414 E1.58348
G1 X195.091 Y78.935 E1.66671
G1 X195.69 Y80.494 E1.75003
G1 X196.202 Y82.084 E1.83336
G1 X196.623 Y83.702 E1.91677
G1 X196.953 Y85.34 E2.00014
G1 X197.191 Y86.995 E2.08355
G1 X197.335 Y88.658 E2.16683
G1 X197.387 Y90.329 E2.25024
G1 X197.343 Y92 E2.33363
G1 X197.207 Y93.665 E2.41698
G1 X196.977 Y95.321 E2.50039
G1 X196.655 Y96.958 E2.58362
G1 X196.242 Y98.578 E2.66703
G1 X195.736 Y100.174 E2.75056
G1 X195.145 Y101.733 E2.83374
G1 X194.467 Y103.259 E2.91705
G1 X193.704 Y104.745 E3.00039
G1 X192.857 Y106.188 E3.08387
G1 X191.933 Y107.578 E3.16714
G1 X190.933 Y108.914 E3.2504
G1 X189.857 Y110.195 E3.33386
G1 X188.77 Y111.35 E3.41299
G1 X97.517 Y202.605 E9.85145
G1 X96.415 Y203.647 E9.92712
G1 X95.145 Y204.724 E10.01019
G1 X93.816 Y205.728 E10.09329
G1 X92.429 Y206.662 E10.17671
G1 X90.988 Y207.516 E10.26028
G1 X89.506 Y208.285 E10.34358
G1 X87.985 Y208.97 E10.4268
G1 X86.426 Y209.569 E10.51013
G1 X84.836 Y210.081 E10.59346
G1 X83.218 Y210.502 E10.67687
G1 X81.58 Y210.832 E10.76024
G1 X79.925 Y211.07 E10.84365
G1 X78.262 Y211.214 E10.92693
G1 X76.591 Y211.266 E11.01034
G1 X74.92 Y211.222 E11.09373
G1 X73.255 Y211.086 E11.17708
G1 X71.599 Y210.856 E11.26049
G1 X69.962 Y210.534 E11.34372
G1 X68.342 Y210.121 E11.42713
G1 X66.746 Y209.615 E11.51066
G1 X65.187 Y209.024 E11.59384
G1 X63.661 Y208.346 E11.67715
G1 X62.175 Y207.583 E11.76049
G1 X60.73 Y206.735 E11.84408
G1 X59.342 Y205.81 E11.92729
G1 X58.007 Y204.813 E12.01042
G1 X56.725 Y203.736 E12.09395
G1 X55.509 Y202.591 E12.17728
G1 X54.357 Y201.379 E12.26071
G1 X53.275 Y200.103 E12.34417
G1 X52.271 Y198.774 E12.42727
G1 X51.337 Y197.387 E12.51069
G1 X50.483 Y195.946 E12.59426
G1 X49.714 Y194.464 E12.67756
G1 X49.029 Y192.943 E12.76078
G1 X48.43 Y191.384 E12.84411
G1 X47.918 Y189.794 E12.92744
G1 X47.497 Y188.176 E13.01085
G1 X47.167 Y186.538 E13.09422
G1 X46.929 Y184.883 E13.17763
G1 X46.785 Y183.22 E13.26091
G1 X46.736 Y181.634 E13.34008
G1 X46.735 Y77.569 E18.5319
G1 X46.781 Y76.4 E18.59027
G1 X46.935 Y75.077 E18.65672
G1 X47.192 Y73.763 E18.72351
G1 X47.551 Y72.472 E18.79037
G1 X48.009 Y71.217 E18.85702
G1 X48.568 Y69.99 E18.92429
G1 X49.222 Y68.816 E18.99133
G1 X49.962 Y67.7 E19.05814
G1 X50.794 Y66.638 E19.12544
G1 X51.7 Y65.655 E19.19214
G1 X52.678 Y64.743 E19.25886
G1 X53.733 Y63.906 E19.32604
G1 X54.842 Y63.16 E19.39272
G1 X56.008 Y62.5 E19.45957
G1 X57.235 Y61.929 E19.52709
G1 X58.489 Y61.465 E19.59379
G1 X59.774 Y61.096 E19.66049
G1 X61.095 Y60.829 E19.72773
G1 X62.422 Y60.668 E19.79442
G1 X63.643 Y60.615 E19.8554
G1 X167.692 Y60.614 E25.04642
G1 X169.207 Y60.657 E25.12204
G0 F9000 X169.185 Y61.056
G1 F1080 X170.821 Y61.19 E25.20393
G1 X172.455 Y61.417 E25.28623
G1 X174.07 Y61.735 E25.36835
G1 X175.668 Y62.142 E25.45062
G1 X177.242 Y62.641 E25.533
G1 X178.781 Y63.224 E25.61511
G1 X180.286 Y63.893 E25.69728
G1 X181.752 Y64.646 E25.7795
G1 X183.176 Y65.481 E25.86185
G1 X184.547 Y66.393 E25.94401
G1 X185.866 Y67.38 E26.02619
G1 X187.129 Y68.441 E26.10849
G1 X188.329 Y69.57 E26.19069
G1 X189.466 Y70.767 E26.27305
G1 X190.531 Y72.023 E26.35521
G1 X191.525 Y73.336 E26.43737
G1 X192.445 Y74.706 E26.5197
G1 X193.287 Y76.126 E26.60206
G1 X194.045 Y77.588 E26.68422
G1 X194.721 Y79.089 E26.76635
G1 X195.313 Y80.627 E26.84857
G1 X195.818 Y82.196 E26.9308
G1 X196.233 Y83.792 E27.01308
G1 X196.559 Y85.408 E27.09532
G1 X196.794 Y87.04 E27.17758
G1 X196.936 Y88.681 E27.25976
G1 X196.986 Y90.33 E27.34207
G1 X196.943 Y91.979 E27.42436
G1 X196.809 Y93.621 E27.50656
G1 X196.582 Y95.255 E27.58886
G1 X196.264 Y96.87 E27.67098
G1 X195.857 Y98.468 E27.75325
G1 X195.358 Y100.042 E27.83563
G1 X194.775 Y101.581 E27.91773
G1 X194.106 Y103.086 E27.9999
G1 X193.353 Y104.552 E28.08213
G1 X192.518 Y105.976 E28.16448
G1 X191.606 Y107.347 E28.24663
G1 X190.619 Y108.666 E28.32882
G1 X189.558 Y109.929 E28.41112
G1 X188.483 Y111.071 E28.48936
G1 X97.238 Y202.318 E34.92726
G1 X96.148 Y203.349 E35.00211
G1 X94.895 Y204.411 E35.08406
G1 X93.584 Y205.403 E35.16608
G1 X92.215 Y206.323 E35.24837
G1 X90.794 Y207.166 E35.3308
G1 X89.332 Y207.924 E35.41296
G1 X87.831 Y208.6 E35.49509
G1 X86.293 Y209.192 E35.57731
G1 X84.724 Y209.697 E35.65954
G1 X83.128 Y210.112 E35.74181
G1 X81.512 Y210.438 E35.82406
G1 X79.88 Y210.673 E35.90632
G1 X78.239 Y210.815 E35.9885
G1 X76.59 Y210.865 E36.0708
G1 X74.941 Y210.822 E36.1531
G1 X73.299 Y210.688 E36.23529
G1 X71.665 Y210.461 E36.3176
G1 X70.05 Y210.143 E36.39971
G1 X68.452 Y209.736 E36.48198
G1 X66.878 Y209.237 E36.56436
G1 X65.339 Y208.654 E36.64647
G1 X63.834 Y207.985 E36.72864
G1 X62.368 Y207.232 E36.81086
G1 X60.942 Y206.396 E36.89333
G1 X59.573 Y205.484 E36.9754
G1 X58.256 Y204.499 E37.05745
G1 X56.991 Y203.437 E37.13985
G1 X55.791 Y202.308 E37.22205
G1 X54.654 Y201.111 E37.30441
G1 X53.588 Y199.853 E37.38668
G1 X52.596 Y198.542 E37.4687
G1 X51.676 Y197.173 E37.55099
G1 X50.833 Y195.752 E37.63342
G1 X50.075 Y194.29 E37.71558
G1 X49.399 Y192.789 E37.79771
G1 X48.807 Y191.251 E37.87993
G1 X48.302 Y189.682 E37.96216
G1 X47.887 Y188.086 E38.04443
G1 X47.561 Y186.47 E38.12668
G1 X47.326 Y184.838 E38.20894
G1 X47.184 Y183.197 E38.29112
G1 X47.136 Y181.628 E38.36943
G1 X47.135 Y77.577 E43.56056
G1 X47.18 Y76.431 E43.61777
G1 X47.33 Y75.139 E43.68266
G1 X47.581 Y73.856 E43.74789
G1 X47.933 Y72.594 E43.81325
G1 X48.38 Y71.369 E43.87831
G1 X48.925 Y70.171 E43.94397
G1 X49.564 Y69.025 E44.00943
G1 X50.287 Y67.934 E44.07473
G1 X51.099 Y66.897 E44.14044
G1 X51.983 Y65.937 E44.20555
G1 X52.939 Y65.047 E44.27071
G1 X53.969 Y64.229 E44.33633
G1 X55.053 Y63.501 E44.40148
G1 X56.192 Y62.856 E44.46678
G1 X57.389 Y62.299 E44.53265
G1 X58.614 Y61.845 E44.59783
G1 X59.869 Y61.485 E44.66296
G1 X61.159 Y61.224 E44.72863
G1 X62.455 Y61.067 E44.79376
G1 X63.651 Y61.015 E44.85348
G1 X167.686 Y61.014 E50.04381
G1 X169.185 Y61.056 E50.11862
G1 F1800 E47.11862
G1 Z0.8
G0 F9000 X168.444 Y69.641
G0 X163.317 Y101.942
G0 X162.759 Y108.183
G0 X160.49 Y113.517
G0 X157.992 Y117.187
G0 X148.934 Y126.155
G0 X77.393 Y203.578
G0 X76.984 Y203.57
G0 X76.575 Y204.463
; TYPE:WALL-OUTER
G1 Z0.3
G1 F1800 E50.11862
G1 F1080 X75.28 Y204.429 E50.18325
G1 X74.007 Y204.325 E50.24698
G1 X72.722 Y204.146 E50.3117
G1 X71.463 Y203.899 E50.37571
G1 X70.212 Y203.58 E50.44012
G1 X68.975 Y203.188 E50.50486
G1 X67.777 Y202.734 E50.56878
G1 X66.592 Y202.207 E50.63348
G1 X65.455 Y201.623 E50.69725
G1 X64.333 Y200.965 E50.76214
G1 X63.27 Y200.257 E50.82586
G1 X62.235 Y199.484 E50.89031
G1 X61.247 Y198.653 E50.95472
G1 X60.303 Y197.765 E51.01938
G1 X59.415 Y196.83 E51.08371
G1 X58.589 Y195.855 E51.14746
G1 X57.805 Y194.818 E51.21232
G1 X57.085 Y193.748 E51.27666
G1 X56.434 Y192.649 E51.34039
G1 X55.835 Y191.495 E51.40526
G1 X55.31 Y190.329 E51.46906
G1 X54.843 Y189.115 E51.53395
G1 X54.452 Y187.9 E51.59763
G1 X54.124 Y186.641 E51.66254
G1 X53.869 Y185.376 E51.72692
G1 X53.686 Y184.101 E51.79118
G1 X53.576 Y182.828 E51.85492
G1 X53.536 Y181.533 E51.91956
G1 X53.535 Y77.707 E57.09946
G1 X53.565 Y76.934 E57.13806
G1 X53.66 Y76.116 E57.17914
G1 X53.812 Y75.339 E57.21864
G1 X54.033 Y74.546 E57.25971
G1 X54.31 Y73.788 E57.29997
G1 X54.641 Y73.061 E57.33983
G1 X55.036 Y72.354 E57.38023
G1 X55.486 Y71.674 E57.42091
G1 X55.978 Y71.047 E57.46067
G1 X56.526 Y70.451 E57.50107
G1 X57.11 Y69.907 E57.54089
G1 X57.747 Y69.401 E57.58147
G1 X58.42 Y68.949 E57.62192
G1 X59.13 Y68.547 E57.66262
G1 X59.846 Y68.214 E57.70202
G1 X60.618 Y67.928 E57.74309
G1 X61.384 Y67.708 E57.78285
G1 X62.174 Y67.549 E57.82306
G1 X62.984 Y67.451 E57.86376
G1 X63.796 Y67.415 E57.90431
G1 X167.593 Y67.414 E63.08277
G1 X168.839 Y67.449 E63.14495
G1 X170.113 Y67.553 E63.20873
G1 X171.398 Y67.732 E63.27345
G1 X172.656 Y67.979 E63.33741
G1 X173.908 Y68.298 E63.40187
G1 X175.145 Y68.69 E63.46661
G1 X176.343 Y69.144 E63.53053
G1 X177.528 Y69.671 E63.59523
G1 X178.665 Y70.255 E63.659
G1 X179.777 Y70.907 E63.72331
G1 X180.859 Y71.627 E63.78815
G1 X181.882 Y72.392 E63.85188
G1 X182.87 Y73.222 E63.91626
G1 X183.817 Y74.113 E63.98113
G1 X184.705 Y75.048 E64.04546
G1 X185.538 Y76.031 E64.10974
G1 X186.31 Y77.051 E64.17356
G1 X187.035 Y78.13 E64.23842
G1 X187.686 Y79.229 E64.30215
G1 X188.285 Y80.383 E64.36701
G1 X188.81 Y81.549 E64.43081
G1 X189.277 Y82.763 E64.4957
G1 X189.668 Y83.978 E64.55938
G1 X189.996 Y85.237 E64.62429
G1 X190.249 Y86.49 E64.68806
G1 X190.434 Y87.777 E64.75293
G1 X190.544 Y89.05 E64.81668
G1 X190.584 Y90.339 E64.88102
G1 X190.55 Y91.64 E64.94595
G1 X190.446 Y92.913 E65.00967
G1 X190.269 Y94.19 E65.07399
G1 X190.02 Y95.456 E65.13836
G1 X189.702 Y96.705 E65.20266
G1 X189.31 Y97.942 E65.2674
G1 X188.856 Y99.14 E65.33132
G1 X188.329 Y100.326 E65.39606
G1 X187.744 Y101.465 E65.45995
G1 X187.092 Y102.577 E65.52426
G1 X186.372 Y103.659 E65.5891
G1 X185.607 Y104.682 E65.65283
G1 X184.777 Y105.67 E65.7172
G1 X183.886 Y106.617 E65.78207
G1 X92.778 Y197.728 E72.21034
G1 X91.881 Y198.576 E72.27193
G1 X90.897 Y199.41 E72.33628
G1 X89.86 Y200.194 E72.40114
G1 X88.791 Y200.913 E72.46541
G1 X87.691 Y201.565 E72.5292
G1 X86.537 Y202.164 E72.59407
G1 X85.371 Y202.689 E72.65787
G1 X84.157 Y203.156 E72.72276
G1 X82.942 Y203.547 E72.78644
G1 X81.683 Y203.875 E72.85135
G1 X80.423 Y204.129 E72.91547
G1 X79.144 Y204.313 E72.97994
G1 X77.87 Y204.423 E73.04374
G1 X76.614 Y204.461 E73.10643
G0 X76.575 Y204.463
G0 X75.28 Y204.429
G0 X74.007 Y204.325
G0 X73.583 Y204.266
G0 F9000 X76.574 Y204.063
; TYPE:WALL-INNER
G1 F1080 X75.304 Y204.029 E73.16981
G1 X74.041 Y203.926 E73.23303
G1 X72.8 Y203.754 E73.29554
G1 X71.534 Y203.505 E73.35991
G1 X70.326 Y203.197 E73.4221
G1 X69.114 Y202.813 E73.48553
G1 X67.924 Y202.362 E73.54902
G1 X66.775 Y201.851 E73.61176
G1 X65.65 Y201.273 E73.67486
G1 X64.536 Y200.62 E73.73928
G1 X63.501 Y199.93 E73.80134
G1 X62.475 Y199.164 E73.86522
G1 X61.514 Y198.356 E73.92786
G1 X60.588 Y197.485 E73.99129
G1 X59.722 Y196.573 E74.05403
G1 X58.899 Y195.603 E74.1175
G1 X58.132 Y194.587 E74.18101
G1 X57.424 Y193.535 E74.24427
G1 X56.784 Y192.454 E74.30694
G1 X56.19 Y191.311 E74.37121
G1 X55.677 Y190.171 E74.43358
G1 X55.222 Y188.988 E74.49681
G1 X54.836 Y187.789 E74.55965
G1 X54.513 Y186.549 E74.62358
G1 X54.265 Y185.316 E74.68633
G1 X54.085 Y184.064 E74.74943
G1 X53.975 Y182.799 E74.81278
G1 X53.936 Y181.515 E74.87687
G1 X53.935 Y77.723 E80.05508
G1 X53.965 Y76.951 E80.09362
G1 X54.054 Y76.187 E80.13199
G1 X54.204 Y75.422 E80.17089
G1 X54.41 Y74.681 E80.20926
G1 X54.68 Y73.942 E80.24851
G1 X55 Y73.238 E80.28709
G1 X55.378 Y72.56 E80.32582
G1 X55.805 Y71.916 E80.36437
G1 X56.287 Y71.302 E80.40331
G1 X56.804 Y70.739 E80.44145
G1 X57.377 Y70.205 E80.48052
G1 X57.984 Y69.724 E80.51916
G1 X58.631 Y69.289 E80.55806
G1 X59.307 Y68.906 E80.59682
G1 X60.005 Y68.581 E80.63523
G1 X60.734 Y68.312 E80.674
G1 X61.488 Y68.095 E80.71314
G1 X62.237 Y67.944 E80.75126
G1 X63.023 Y67.849 E80.79076
G1 X63.79 Y67.815 E80.82907
G1 X167.582 Y67.814 E86.00727
G1 X168.817 Y67.849 E86.06891
G1 X170.079 Y67.952 E86.13208
G1 X171.32 Y68.124 E86.19459
G1 X172.586 Y68.373 E86.25896
G1 X173.794 Y68.681 E86.32115
G1 X175.006 Y69.065 E86.38458
G1 X176.196 Y69.516 E86.44807
G1 X177.345 Y70.027 E86.51081
G1 X178.47 Y70.605 E86.57391
G1 X179.576 Y71.253 E86.63786
G1 X180.638 Y71.96 E86.70151
G1 X181.634 Y72.705 E86.76357
G1 X182.606 Y73.522 E86.82691
G1 X183.532 Y74.393 E86.89034
G1 X184.398 Y75.305 E86.95308
G1 X185.233 Y76.29 E87.01751
G1 X185.978 Y77.274 E87.07908
G1 X186.696 Y78.343 E87.14333
G1 X187.336 Y79.424 E87.206
G1 X187.93 Y80.567 E87.27027
G1 X188.443 Y81.707 E87.33263
G1 X188.898 Y82.89 E87.39587
G1 X189.284 Y84.089 E87.45871
G1 X189.607 Y85.329 E87.52264
G1 X189.855 Y86.562 E87.58539
G1 X190.035 Y87.814 E87.64849
G1 X190.145 Y89.079 E87.71184
G1 X190.184 Y90.346 E87.77508
G1 X190.15 Y91.616 E87.83846
G1 X190.047 Y92.879 E87.90168
G1 X189.876 Y94.113 E87.96384
G1 X189.626 Y95.386 E88.02856
G1 X189.318 Y96.594 E88.09076
G1 X188.934 Y97.806 E88.15419
G1 X188.483 Y98.996 E88.21768
G1 X187.972 Y100.145 E88.28041
G1 X187.394 Y101.27 E88.34351
G1 X186.746 Y102.376 E88.40747
G1 X186.041 Y103.436 E88.47098
G1 X185.294 Y104.434 E88.53317
G1 X184.477 Y105.406 E88.59652
G1 X183.595 Y106.343 E88.66072
G1 X92.503 Y197.437 E95.08782
G1 X91.615 Y198.277 E95.14881
G1 X90.645 Y199.1 E95.21227
G1 X89.629 Y199.867 E95.27578
G1 X88.577 Y200.575 E95.33904
G1 X87.496 Y201.215 E95.40172
G1 X86.36 Y201.805 E95.46558
G1 X85.213 Y202.322 E95.52835
G1 X84.03 Y202.777 E95.59159
G1 X82.831 Y203.163 E95.65443
G1 X81.591 Y203.486 E95.71836
G1 X80.358 Y203.734 E95.7811
G1 X79.106 Y203.914 E95.84421
G1 X77.841 Y204.024 E95.90756
G1 X76.613 Y204.061 E95.96885
G0 X76.574 Y204.063
G1 F1800 E92.96885
G1 Z0.8
G0 F9000 X76.574 Y203.613
G0 X89.167 Y176.632
; TYPE:WALL-OUTER
G1 Z0.3
G1 F1800 E95.96885
G1 F1080 X87.964 Y176.596 E96.02889
G1 X86.765 Y176.492 E96.08894
G1 X85.573 Y176.32 E96.14902
G1 X84.392 Y176.083 E96.20912
G1 X83.227 Y175.779 E96.26919
G1 X82.081 Y175.411 E96.32924
G1 X80.958 Y174.979 E96.38926
G1 X79.86 Y174.485 E96.44933
G1 X78.792 Y173.93 E96.50938
G1 X77.756 Y173.314 E96.56951
G1 X76.757 Y172.643 E96.62955
G1 X75.797 Y171.917 E96.6896
G1 X74.879 Y171.138 E96.74967
G1 X74.006 Y170.309 E96.80973
G1 X73.182 Y169.432 E96.86977
G1 X72.406 Y168.51 E96.92989
G1 X71.686 Y167.546 E96.98992
G1 X71.019 Y166.544 E97.04997
G1 X70.41 Y165.505 E97.11005
G1 X69.86 Y164.434 E97.17012
G1 X69.371 Y163.334 E97.23018
G1 X68.944 Y162.209 E97.29021
G1 X68.582 Y161.061 E97.35027
G1 X68.283 Y159.894 E97.41037
G1 X68.052 Y158.712 E97.47045
G1 X67.886 Y157.52 E97.5305
G1 X67.788 Y156.321 E97.59051
G1 X67.758 Y155.116 E97.65065
G1 X67.794 Y153.913 E97.7107
G1 X67.898 Y152.714 E97.77074
G1 X68.07 Y151.522 E97.83082
G1 X68.307 Y150.341 E97.89092
G1 X68.611 Y149.176 E97.95099
G1 X68.979 Y148.03 E98.01104
G1 X69.411 Y146.907 E98.07107
G1 X69.905 Y145.809 E98.13113
G1 X70.46 Y144.741 E98.19118
G1 X71.076 Y143.705 E98.25131
G1 X71.747 Y142.706 E98.31135
G1 X72.473 Y141.746 E98.3714
G1 X73.252 Y140.828 E98.43147
G1 X74.081 Y139.955 E98.49153
G1 X74.958 Y139.131 E98.55157
G1 X75.88 Y138.355 E98.61169
G1 X76.844 Y137.635 E98.67172
G1 X77.846 Y136.968 E98.73177
G1 X78.885 Y136.359 E98.79186
G1 X79.956 Y135.809 E98.85192
G1 X81.056 Y135.32 E98.91198
G1 X82.181 Y134.893 E98.97201
G1 X83.329 Y134.531 E99.03207
G1 X84.496 Y134.232 E99.09217
G1 X85.678 Y134.001 E99.15226
G1 X86.87 Y133.835 E99.2123
G1 X88.069 Y133.737 E99.27232
G1 X89.275 Y133.707 E99.3325
G1 X90.477 Y133.743 E99.3925
G1 X91.676 Y133.847 E99.45254
G1 X92.868 Y134.019 E99.51263
G1 X94.049 Y134.256 E99.57272
G1 X95.214 Y134.56 E99.63279
G1 X96.36 Y134.928 E99.69284
G1 X97.483 Y135.36 E99.75287
G1 X98.581 Y135.854 E99.81294
G1 X99.649 Y136.409 E99.87298
G1 X100.685 Y137.025 E99.93312
G1 X101.684 Y137.696 E99.99316
G1 X102.644 Y138.422 E100.0532
G1 X103.562 Y139.201 E100.11327
G1 X104.435 Y140.03 E100.17333
G1 X105.259 Y140.907 E100.23337
G1 X106.035 Y141.829 E100.29349
G1 X106.755 Y142.793 E100.35352
G1 X107.422 Y143.795 E100.41357
G1 X108.031 Y144.834 E100.47366
G1 X108.581 Y145.905 E100.53372
G1 X109.07 Y147.005 E100.59378
G1 X109.497 Y148.13 E100.65381
G1 X109.859 Y149.278 E100.71387
G1 X110.158 Y150.445 E100.77397
G1 X110.389 Y151.627 E100.83406
G1 X110.555 Y152.819 E100.8941
G1 X110.653 Y154.018 E100.95412
G1 X110.683 Y155.223 E101.01425
G1 X110.647 Y156.426 E101.0743
G1 X110.543 Y157.625 E101.13434
G1 X110.371 Y158.817 E101.19443
G1 X110.134 Y159.998 E101.25452
G1 X109.83 Y161.163 E101.31459
G1 X109.462 Y162.309 E101.37464
G1 X109.03 Y163.432 E101.43467
G1 X108.536 Y164.53 E101.49474
G1 X107.981 Y165.598 E101.55478
G1 X107.365 Y166.634 E101.61492
G1 X106.694 Y167.633 E101.67496
G1 X105.968 Y168.593 E101.73501
G1 X105.189 Y169.511 E101.79507
G1 X104.36 Y170.384 E101.85513
G1 X103.483 Y171.208 E101.91517
G1 X102.561 Y171.984 E101.97529
G1 X101.597 Y172.704 E102.03532
G1 X100.595 Y173.371 E102.09537
G1 X99.556 Y173.98 E102.15546
G1 X98.485 Y174.53 E102.21552
G1 X97.385 Y175.019 E102.27558
G1 X96.26 Y175.446 E102.33562
G1 X95.112 Y175.808 E102.39567
G1 X93.945 Y176.107 E102.45577
G1 X92.763 Y176.338 E102.51586
G1 X91.571 Y176.504 E102.5759
G1 X90.372 Y176.602 E102.63592
G1 X89.206 Y176.631 E102.69411
G0 X89.167 Y176.632
G0 X87.964 Y176.596
G0 X86.765 Y176.492
G0 X86.177 Y176.408
G0 F9000 X89.166 Y177.032
; TYPE:WALL-INNER
G1 F1080 X87.941 Y176.995 E102.75525
G1 X86.719 Y176.889 E102.81645
G1 X85.505 Y176.715 E102.87763
G1 X84.302 Y176.473 E102.93885
G1 X83.115 Y176.163 E103.00006
G1 X81.948 Y175.788 E103.06121
G1 X80.804 Y175.348 E103.12236
G1 X79.685 Y174.845 E103.18357
G1 X78.597 Y174.279 E103.24476
G1 X77.542 Y173.652 E103.30599
G1 X76.525 Y172.969 E103.3671
G1 X75.547 Y172.229 E103.42829
G1 X74.612 Y171.436 E103.48946
G1 X73.723 Y170.591 E103.55065
G1 X72.883 Y169.698 E103.61181
G1 X72.093 Y168.759 E103.67303
G1 X71.359 Y167.777 E103.7342
G1 X70.68 Y166.756 E103.79537
G1 X70.059 Y165.698 E103.85658
G1 X69.499 Y164.607 E103.91776
G1 X69.001 Y163.486 E103.97896
G1 X68.566 Y162.34 E104.04011
G1 X68.197 Y161.171 E104.10127
G1 X67.892 Y159.982 E104.16251
G1 X67.657 Y158.778 E104.22371
G1 X67.488 Y157.564 E104.28486
G1 X67.389 Y156.342 E104.34603
G1 X67.358 Y155.115 E104.40726
G1 X67.395 Y153.89 E104.4684
G1 X67.501 Y152.668 E104.5296
G1 X67.675 Y151.454 E104.59078
G1 X67.917 Y150.251 E104.652
G1 X68.227 Y149.064 E104.71321
G1 X68.602 Y147.897 E104.77436
G1 X69.042 Y146.753 E104.83551
G1 X69.545 Y145.634 E104.89672
G1 X70.111 Y144.546 E104.95791
G1 X70.738 Y143.491 E105.01914
G1 X71.421 Y142.474 E105.08026
G1 X72.161 Y141.496 E105.14144
G1 X72.954 Y140.561 E105.20261
G1 X73.799 Y139.672 E105.2638
G1 X74.692 Y138.832 E105.32496
G1 X75.631 Y138.042 E105.38618
G1 X76.613 Y137.308 E105.44735
G1 X77.634 Y136.629 E105.50852
G1 X78.692 Y136.008 E105.56973
G1 X79.783 Y135.448 E105.63091
G1 X80.904 Y134.95 E105.69211
G1 X82.05 Y134.515 E105.75326
G1 X83.219 Y134.146 E105.81442
G1 X84.408 Y133.841 E105.87566
G1 X85.612 Y133.606 E105.93686
G1 X86.826 Y133.437 E105.99801
G1 X88.048 Y133.338 E106.05918
G1 X89.276 Y133.307 E106.12046
G1 X90.5 Y133.344 E106.18156
G1 X91.722 Y133.45 E106.24275
G1 X92.936 Y133.624 E106.30394
G1 X94.139 Y133.866 E106.36516
G1 X95.326 Y134.176 E106.42636
G1 X96.493 Y134.551 E106.48752
G1 X97.637 Y134.991 E106.54867
G1 X98.756 Y135.494 E106.60987
G1 X99.844 Y136.06 E106.67106
G1 X100.899 Y136.687 E106.73229
G1 X101.916 Y137.37 E106.79341
G1 X102.894 Y138.11 E106.85459
G1 X103.829 Y138.903 E106.91576
G1 X104.718 Y139.748 E106.97695
G1 X105.558 Y140.641 E107.03811
G1 X106.348 Y141.58 E107.09934
G1 X107.082 Y142.562 E107.1605
G1 X107.761 Y143.583 E107.22167
G1 X108.382 Y144.641 E107.28288
G1 X108.942 Y145.732 E107.34406
G1 X109.44 Y146.853 E107.40526
G1 X109.875 Y147.999 E107.46641
G1 X110.244 Y149.168 E107.52757
G1 X110.549 Y150.357 E107.58881
G1 X110.784 Y151.561 E107.65001
G1 X110.953 Y152.775 E107.71116
G1 X111.052 Y153.997 E107.77233
G1 X111.083 Y155.224 E107.83356
G1 X111.046 Y156.449 E107.89471
G1 X110.94 Y157.671 E107.9559
G1 X110.766 Y158.885 E108.01709
G1 X110.524 Y160.088 E108.07831
G1 X110.214 Y161.275 E108.13951
G1 X109.839 Y162.442 E108.20067
G1 X109.399 Y163.586 E108.26182
G1 X108.896 Y164.705 E108.32303
G1 X108.33 Y165.793 E108.38421
G1 X107.703 Y166.848 E108.44544
G1 X107.02 Y167.865 E108.50656
G1 X106.28 Y168.843 E108.56774
G1 X105.487 Y169.778 E108.62891
G1 X104.642 Y170.667 E108.6901
G1 X103.749 Y171.507 E108.75127
G1 X102.81 Y172.297 E108.81249
G1 X101.828 Y173.031 E108.87365
G1 X100.807 Y173.71 E108.93483
G1 X99.749 Y174.331 E108.99603
G1 X98.658 Y174.891 E109.05721
G1 X97.537 Y175.389 E109.11841
G1 X96.391 Y175.824 E109.17956
G1 X95.222 Y176.193 E109.24072
G1 X94.033 Y176.498 E109.30196
G1 X92.829 Y176.733 E109.36316
G1 X91.615 Y176.902 E109.42431
G1 X90.393 Y177.001 E109.48548
G1 X89.205 Y177.031 E109.54477
G0 X89.166 Y177.032
G1 F1800 E106.54477
G1 Z0.8
G0 F9000 X89.166 Y177.182
G0 X82.384 Y176.223
G0 X77.413 Y173.595
G0 X72.113 Y168.836
G0 X69.44 Y164.948
G0 X67.349 Y158.679
G0 X67.197 Y152.737
G0 X68.846 Y146.534
G0 X72.029 Y141.271
G0 X75.48 Y137.872
G0 X79.773 Y134.327
G0 X89.167 Y124.562
; TYPE:WALL-OUTER
G1 Z0.3
G1 F1800 E109.54477
G1 F1080 X87.964 Y124.526 E109.60481
G1 X86.765 Y124.422 E109.66486
G1 X85.573 Y124.25 E109.72494
G1 X84.392 Y124.013 E109.78504
G1 X83.227 Y123.709 E109.8451
G1 X82.081 Y123.341 E109.90515
G1 X80.958 Y122.909 E109.96518
G1 X79.86 Y122.415 E110.02525
G1 X78.792 Y121.86 E110.0853
G1 X77.756 Y121.244 E110.14543
G1 X76.757 Y120.573 E110.20547
G1 X75.797 Y119.847 E110.26552
G1 X74.879 Y119.068 E110.32559
G1 X74.006 Y118.239 E110.38565
G1 X73.182 Y117.362 E110.44569
G1 X72.406 Y116.44 E110.50581
G1 X71.686 Y115.476 E110.56584
G1 X71.019 Y114.474 E110.62589
G1 X70.41 Y113.435 E110.68597
G1 X69.86 Y112.364 E110.74604
G1 X69.371 Y111.264 E110.8061
G1 X68.944 Y110.139 E110.86613
G1 X68.582 Y108.991 E110.92618
G1 X68.283 Y107.824 E110.98629
G1 X68.052 Y106.642 E111.04637
G1 X67.886 Y105.45 E111.10642
G1 X67.788 Y104.251 E111.16643
G1 X67.758 Y103.046 E111.22657
G1 X67.794 Y101.843 E111.28661
G1 X67.898 Y100.644 E111.34666
G1 X68.07 Y99.452 E111.40674
G1 X68.307 Y98.271 E111.46684
G1 X68.611 Y97.106 E111.52691
G1 X68.979 Y95.96 E111.58696
G1 X69.411 Y94.837 E111.64698
G1 X69.905 Y93.739 E111.70705
G1 X70.46 Y92.671 E111.7671
G1 X71.076 Y91.635 E111.82723
G1 X71.747 Y90.636 E111.88727
G1 X72.473 Y89.676 E111.94732
G1 X73.252 Y88.758 E112.00739
G1 X74.081 Y87.885 E112.06745
G1 X74.958 Y87.061 E112.12749
G1 X75.88 Y86.285 E112.18761
G1 X76.844 Y85.565 E112.24764
G1 X77.846 Y84.898 E112.30769
G1 X78.885 Y84.289 E112.36777
G1 X79.956 Y83.739 E112.42784
G1 X81.056 Y83.25 E112.4879
G1 X82.181 Y82.823 E112.54793
G1 X83.329 Y82.461 E112.60799
G1 X84.496 Y82.162 E112.66809
G1 X85.678 Y81.931 E112.72817
G1 X86.87 Y81.765 E112.78822
G1 X88.069 Y81.667 E112.84823
G1 X89.275 Y81.637 E112.90842
G1 X90.477 Y81.673 E112.96842
G1 X91.676 Y81.777 E113.02846
G1 X92.868 Y81.949 E113.08854
G1 X94.049 Y82.186 E113.14864
G1 X95.214 Y82.49 E113.20871
G1 X96.36 Y82.858 E113.26876
G1 X97.483 Y83.29 E113.32879
G1 X98.581 Y83.784 E113.38885
G1 X99.649 Y84.339 E113.4489
G1 X100.685 Y84.955 E113.50904
G1 X101.684 Y85.626 E113.56907
G1 X102.644 Y86.352 E113.62912
G1 X103.562 Y87.131 E113.68919
G1 X104.435 Y87.96 E113.74925
G1 X105.259 Y88.837 E113.80929
G1 X106.035 Y89.759 E113.86941
G1 X106.755 Y90.723 E113.92944
G1 X107.422 Y91.725 E113.98949
G1 X108.031 Y92.764 E114.04958
G1 X108.581 Y93.835 E114.10964
G1 X109.07 Y94.935 E114.1697
G1 X109.497 Y96.06 E114.22973
G1 X109.859 Y97.208 E114.28979
G1 X110.158 Y98.375 E114.34989
G1 X110.389 Y99.557 E114.40998
G1 X110.555 Y100.749 E114.47002
G1 X110.653 Y101.948 E114.53004
G1 X110.683 Y103.153 E114.59017
G1 X110.647 Y104.356 E114.65022
G1 X110.543 Y105.555 E114.71026
G1 X110.371 Y106.747 E114.77035
G1 X110.134 Y107.928 E114.83044
G1 X109.83 Y109.093 E114.89051
G1 X109.462 Y110.239 E114.95056
G1 X109.03 Y111.362 E115.01059
G1 X108.536 Y112.46 E115.07066
G1 X107.981 Y113.528 E115.1307
G1 X107.365 Y114.564 E115.19084
G1 X106.694 Y115.563 E115.25088
G1 X105.968 Y116.523 E115.31092
G1 X105.189 Y117.441 E115.37099
G1 X104.36 Y118.314 E115.43105
G1 X103.483 Y119.138 E115.49109
G1 X102.561 Y119.914 E115.55121
G1 X101.597 Y120.634 E115.61124
G1 X100.595 Y121.301 E115.67129
G1 X99.556 Y121.91 E115.73138
G1 X98.485 Y122.46 E115.79144
G1 X97.385 Y122.949 E115.8515
G1 X96.26 Y123.376 E115.91153
G1 X95.112 Y123.738 E115.97159
G1 X93.945 Y124.037 E116.03169
G1 X92.763 Y124.268 E116.09178
G1 X91.571 Y124.434 E116.15182
G1 X90.372 Y124.532 E116.21184
G1 X89.206 Y124.561 E116.27003
G0 X89.167 Y124.562
G0 X87.964 Y124.526
G0 X86.765 Y124.422
G0 X86.177 Y124.338
G0 F9000 X89.166 Y124.962
; TYPE:WALL-INNER
G1 F1080 X87.941 Y124.925 E116.33117
G1 X86.719 Y124.819 E116.39237
G1 X85.505 Y124.645 E116.45355
G1 X84.302 Y124.403 E116.51477
G1 X83.115 Y124.093 E116.57598
G1 X81.948 Y123.718 E116.63713
G1 X80.804 Y123.278 E116.69828
G1 X79.685 Y122.775 E116.75949
G1 X78.597 Y122.209 E116.82068
G1 X77.542 Y121.582 E116.8819
G1 X76.525 Y120.899 E116.94302
G1 X75.547 Y120.159 E117.00421
G1 X74.612 Y119.366 E117.06537
G1 X73.723 Y118.521 E117.12657
G1 X72.883 Y117.628 E117.18773
G1 X72.093 Y116.689 E117.24895
G1 X71.359 Y115.707 E117.31012
G1 X70.68 Y114.686 E117.37129
G1 X70.059 Y113.628 E117.4325
G1 X69.499 Y112.537 E117.49368
G1 X69.001 Y111.416 E117.55487
G1 X68.566 Y110.27 E117.61603
G1 X68.197 Y109.101 E117.67719
G1 X67.892 Y107.912 E117.73843
G1 X67.657 Y106.708 E117.79963
G1 X67.488 Y105.494 E117.86078
G1 X67.389 Y104.272 E117.92194
G1 X67.358 Y103.045 E117.98318
G1 X67.395 Y101.82 E118.04432
G1 X67.501 Y100.598 E118.10552
G1 X67.675 Y99.384 E118.1667
G1 X67.917 Y98.181 E118.22792
G1 X68.227 Y96.994 E118.28913
G1 X68.602 Y95.827 E118.35028
G1 X69.042 Y94.683 E118.41143
G1 X69.545 Y93.564 E118.47264
G1 X70.111 Y92.476 E118.53383
G1 X70.738 Y91.421 E118.59506
G1 X71.421 Y90.404 E118.65617
G1 X72.161 Y89.426 E118.71736
G1 X72.954 Y88.491 E118.77853
G1 X73.799 Y87.602 E118.83972
G1 X74.692 Y86.762 E118.90088
G1 X75.631 Y85.972 E118.9621
G1 X76.613 Y85.238 E119.02327
G1 X77.634 Y84.559 E119.08444
G1 X78.692 Y83.938 E119.14565
G1 X79.783 Y83.378 E119.20683
G1 X80.904 Y82.88 E119.26803
G1 X82.05 Y82.445 E119.32918
G1 X83.219 Y82.076 E119.39034
G1 X84.408 Y81.771 E119.45158
G1 X85.612 Y81.536 E119.51278
G1 X86.826 Y81.367 E119.57393
G1 X88.048 Y81.268 E119.6351
G1 X89.276 Y81.237 E119.69638
G1 X90.5 Y81.274 E119.75747
G1 X91.722 Y81.38 E119.81867
G1 X92.936 Y81.554 E119.87985
G1 X94.139 Y81.796 E119.94107
G1 X95.326 Y82.106 E120.00228
G1 X96.493 Y82.481 E120.06343
G1 X97.637 Y82.921 E120.12458
G1 X98.756 Y83.424 E120.18579
G1 X99.844 Y83.99 E120.24698
G1 X100.899 Y84.617 E120.30821
G1 X101.916 Y85.3 E120.36933
G1 X102.894 Y86.04 E120.43051
G1 X103.829 Y86.833 E120.49168
G1 X104.718 Y87.678 E120.55287
G1 X105.558 Y88.571 E120.61403
G1 X106.348 Y89.51 E120.67525
G1 X107.082 Y90.492 E120.73642
G1 X107.761 Y91.513 E120.79759
G1 X108.382 Y92.571 E120.8588
G1 X108.942 Y93.662 E120.91998
G1 X109.44 Y94.783 E120.98118
G1 X109.875 Y95.929 E121.04233
G1 X110.244 Y97.098 E121.10349
G1 X110.549 Y98.287 E121.16473
G1 X110.784 Y99.491 E121.22593
G1 X110.953 Y100.705 E121.28708
G1 X111.052 Y101.927 E121.34825
G1 X111.083 Y103.154 E121.40948
G1 X111.046 Y104.379 E121.47063
G1 X110.94 Y105.601 E121.53182
G1 X110.766 Y106.815 E121.59301
G1 X110.524 Y108.018 E121.65423
G1 X110.214 Y109.205 E121.71543
G1 X109.839 Y110.372 E121.77659
G1 X109.399 Y111.516 E121.83774
G1 X108.896 Y112.635 E121.89894
G1 X108.33 Y113.723 E121.96013
G1 X107.703 Y114.778 E122.02136
G1 X107.02 Y115.795 E122.08248
G1 X106.28 Y116.773 E122.14366
G1 X105.487 Y117.708 E122.20483
G1 X104.642 Y118.597 E122.26602
G1 X103.749 Y119.437 E122.32718
G1 X102.81 Y120.227 E122.38841
G1 X101.828 Y120.961 E122.44957
G1 X100.807 Y121.64 E122.51074
G1 X99.749 Y122.261 E122.57195
G1 X98.658 Y122.821 E122.63313
G1 X97.537 Y123.319 E122.69433
G1 X96.391 Y123.754 E122.75548
G1 X95.222 Y124.123 E122.81664
G1 X94.033 Y124.428 E122.87788
G1 X92.829 Y124.663 E122.93908
G1 X91.615 Y124.832 E123.00023
G1 X90.393 Y124.931 E123.0614
G1 X89.205 Y124.961 E123.12069
G0 X89.166 Y124.962
G1 F1800 E120.12069
G1 Z0.8
G0 F9000 X89.166 Y125.112
G0 X137.604 Y124.89
G0 X140.631 Y125.167
G0 X141.237 Y124.562
; TYPE:WALL-OUTER
G1 Z0.3
G1 F1800 E123.12069
G1 F1080 X140.034 Y124.526 E123.18073
G1 X138.835 Y124.422 E123.24078
G1 X137.643 Y124.25 E123.30086
G1 X136.462 Y124.013 E123.36096
G1 X135.297 Y123.709 E123.42102
G1 X134.151 Y123.341 E123.48107
G1 X133.028 Y122.909 E123.5411
G1 X131.93 Y122.415 E123.60117
G1 X130.862 Y121.86 E123.66122
G1 X129.826 Y121.244 E123.72135
G1 X128.827 Y120.573 E123.78139
G1 X127.867 Y119.847 E123.84144
G1 X126.949 Y119.068 E123.90151
G1 X126.076 Y118.239 E123.96157
G1 X125.252 Y117.362 E124.0216
G1 X124.476 Y116.44 E124.08173
G1 X123.756 Y115.476 E124.14176
G1 X123.089 Y114.474 E124.20181
G1 X122.48 Y113.435 E124.26189
G1 X121.93 Y112.364 E124.32196
G1 X121.441 Y111.264 E124.38202
G1 X121.014 Y110.139 E124.44205
G1 X120.652 Y108.991 E124.5021
G1 X120.353 Y107.824 E124.56221
G1 X120.122 Y106.642 E124.62229
G1 X119.956 Y105.45 E124.68233
G1 X119.858 Y104.251 E124.74235
G1 X119.828 Y103.046 E124.80249
G1 X119.864 Y101.843 E124.86253
G1 X119.968 Y100.644 E124.92258
G1 X120.14 Y99.452 E124.98266
G1 X120.377 Y98.271 E125.04276
G1 X120.681 Y97.106 E125.10282
G1 X121.049 Y95.96 E125.16287
G1 X121.481 Y94.837 E125.2229
G1 X121.975 Y93.739 E125.28297
G1 X122.53 Y92.671 E125.34302
G1 X123.146 Y91.635 E125.40315
G1 X123.817 Y90.636 E125.46319
G1 X124.543 Y89.676 E125.52324
G1 X125.322 Y88.758 E125.58331
G1 X126.151 Y87.885 E125.64337
G1 X127.028 Y87.061 E125.70341
G1 X127.95 Y86.285 E125.76353
G1 X128.914 Y85.565 E125.82356
G1 X129.916 Y84.898 E125.88361
G1 X130.955 Y84.289 E125.94369
G1 X132.026 Y83.739 E126.00376
G1 X133.126 Y83.25 E126.06382
G1 X134.251 Y82.823 E126.12385
G1 X135.399 Y82.461 E126.1839
G1 X136.566 Y82.162 E126.24401
G1 X137.748 Y81.931 E126.30409
G1 X138.94 Y81.765 E126.36414
G1 X140.139 Y81.667 E126.42415
G1 X141.345 Y81.637 E126.48434
G1 X142.547 Y81.673 E126.54434
G1 X143.746 Y81.777 E126.60438
G1 X144.938 Y81.949 E126.66446
G1 X146.119 Y82.186 E126.72456
G1 X147.284 Y82.49 E126.78463
G1 X148.43 Y82.858 E126.84468
G1 X149.553 Y83.29 E126.90471
G1 X150.651 Y83.784 E126.96477
G1 X151.719 Y84.339 E127.02482
G1 X152.755 Y84.955 E127.08495
G1 X153.754 Y85.626 E127.14499
G1 X154.714 Y86.352 E127.20504
G1 X155.632 Y87.131 E127.26511
G1 X156.505 Y87.96 E127.32517
G1 X157.329 Y88.837 E127.38521
G1 X158.105 Y89.759 E127.44533
G1 X158.825 Y90.723 E127.50536
G1 X159.492 Y91.725 E127.56541
G1 X160.101 Y92.764 E127.6255
G1 X160.651 Y93.835 E127.68556
G1 X161.14 Y94.935 E127.74562
G1 X161.567 Y96.06 E127.80565
G1 X161.929 Y97.208 E127.86571
G1 X162.228 Y98.375 E127.92581
G1 X162.459 Y99.557 E127.98589
G1 X162.625 Y100.749 E128.04594
G1 X162.723 Y101.948 E128.10596
G1 X162.753 Y103.153 E128.16609
G1 X162.717 Y104.356 E128.22614
G1 X162.613 Y105.555 E128.28618
G1 X162.441 Y106.747 E128.34626
G1 X162.204 Y107.928 E128.40636
G1 X161.9 Y109.093 E128.46643
G1 X161.532 Y110.239 E128.52648
G1 X161.1 Y111.362 E128.58651
G1 X160.606 Y112.46 E128.64657
G1 X160.051 Y113.528 E128.70662
G1 X159.435 Y114.564 E128.76676
G1 X158.764 Y115.563 E128.82679
G1 X158.038 Y116.523 E128.88684
G1 X157.259 Y117.441 E128.94691
G1 X156.43 Y118.314 E129.00697
G1 X155.553 Y119.138 E129.06701
G1 X154.631 Y119.914 E129.12713
G1 X153.667 Y120.634 E129.18716
G1 X152.665 Y121.301 E129.24721
G1 X151.626 Y121.91 E129.3073
G1 X150.555 Y122.46 E129.36736
G1 X149.455 Y122.949 E129.42742
G1 X148.33 Y123.376 E129.48745
G1 X147.182 Y123.738 E129.54751
G1 X146.015 Y124.037 E129.60761
G1 X144.833 Y124.268 E129.6677
G1 X143.641 Y124.434 E129.72774
G1 X142.442 Y124.532 E129.78776
G1 X141.276 Y124.561 E129.84595
G0 X141.237 Y124.562
G0 X140.034 Y124.526
G0 X138.835 Y124.422
G0 X138.247 Y124.338
G0 F9000 X141.236 Y124.962
; TYPE:WALL-INNER
G1 F1080 X140.011 Y124.925 E129.90709
G1 X138.789 Y124.819 E129.96828
G1 X137.575 Y124.645 E130.02947
G1 X136.372 Y124.403 E130.09069
G1 X135.185 Y124.093 E130.1519
G1 X134.018 Y123.718 E130.21305
G1 X132.874 Y123.278 E130.2742
G1 X131.755 Y122.775 E130.33541
G1 X130.667 Y122.209 E130.3966
G1 X129.612 Y121.582 E130.45782
G1 X128.595 Y120.899 E130.51894
G1 X127.617 Y120.159 E130.58013
G1 X126.682 Y119.366 E130.64129
G1 X125.793 Y118.521 E130.70248
G1 X124.953 Y117.628 E130.76365
G1 X124.163 Y116.689 E130.82487
G1 X123.429 Y115.707 E130.88604
G1 X122.75 Y114.686 E130.94721
G1 X122.129 Y113.628 E131.00841
G1 X121.569 Y112.537 E131.0696
G1 X121.071 Y111.416 E131.13079
G1 X120.636 Y110.27 E131.19195
G1 X120.267 Y109.101 E131.25311
G1 X119.962 Y107.912 E131.31435
G1 X119.727 Y106.708 E131.37555
G1 X119.558 Y105.494 E131.4367
G1 X119.459 Y104.272 E131.49786
G1 X119.428 Y103.045 E131.5591
G1 X119.465 Y101.82 E131.62024
G1 X119.571 Y100.598 E131.68144
G1 X119.745 Y99.384 E131.74262
G1 X119.987 Y98.181 E131.80384
G1 X120.297 Y96.994 E131.86505
G1 X120.672 Y95.827 E131.9262
G1 X121.112 Y94.683 E131.98735
G1 X121.615 Y93.564 E132.04856
G1 X122.181 Y92.476 E132.10975
G1 X122.808 Y91.421 E132.17097
G1 X123.491 Y90.404 E132.23209
G1 X124.231 Y89.426 E132.29328
G1 X125.024 Y88.491 E132.35444
G1 X125.869 Y87.602 E132.41564
G1 X126.762 Y86.762 E132.4768
G1 X127.701 Y85.972 E132.53802
G1 X128.683 Y85.238 E132.59919
G1 X129.704 Y84.559 E132.66036
G1 X130.762 Y83.938 E132.72157
G1 X131.853 Y83.378 E132.78275
G1 X132.974 Y82.88 E132.84394
G1 X134.12 Y82.445 E132.9051
G1 X135.289 Y82.076 E132.96626
G1 X136.478 Y81.771 E133.0275
G1 X137.682 Y81.536 E133.0887
G1 X138.896 Y81.367 E133.14985
G1 X140.118 Y81.268 E133.21101
G1 X141.346 Y81.237 E133.2723
G1 X142.57 Y81.274 E133.33339
G1 X143.792 Y81.38 E133.39459
G1 X145.006 Y81.554 E133.45577
G1 X146.209 Y81.796 E133.51699
G1 X147.396 Y82.106 E133.5782
G1 X148.563 Y82.481 E133.63935
G1 X149.707 Y82.921 E133.7005
G1 X150.826 Y83.424 E133.76171
G1 X151.914 Y83.99 E133.8229
G1 X152.969 Y84.617 E133.88413
G1 X153.986 Y85.3 E133.94524
G1 X154.964 Y86.04 E134.00643
G1 X155.899 Y86.833 E134.0676
G1 X156.788 Y87.678 E134.12879
G1 X157.628 Y88.571 E134.18995
G1 X158.418 Y89.51 E134.25117
G1 X159.152 Y90.492 E134.31234
G1 X159.831 Y91.513 E134.37351
G1 X160.452 Y92.571 E134.43472
G1 X161.012 Y93.662 E134.4959
G1 X161.51 Y94.783 E134.5571
G1 X161.945 Y95.929 E134.61825
G1 X162.314 Y97.098 E134.67941
G1 X162.619 Y98.287 E134.74065
G1 X162.854 Y99.491 E134.80185
G1 X163.023 Y100.705 E134.863
G1 X163.122 Y101.927 E134.92417
G1 X163.153 Y103.154 E134.9854
G1 X163.116 Y104.379 E135.04654
G1 X163.01 Y105.601 E135.10774
G1 X162.836 Y106.815 E135.16893
G1 X162.594 Y108.018 E135.23015
G1 X162.284 Y109.205 E135.29135
G1 X161.909 Y110.372 E135.35251
G1 X161.469 Y111.516 E135.41366
G1 X160.966 Y112.635 E135.47486
G1 X160.4 Y113.723 E135.53605
G1 X159.773 Y114.778 E135.59728
G1 X159.09 Y115.795 E135.6584
G1 X158.35 Y116.773 E135.71958
G1 X157.557 Y117.708 E135.78075
G1 X156.712 Y118.597 E135.84194
G1 X155.819 Y119.437 E135.9031
G1 X154.88 Y120.227 E135.96432
G1 X153.898 Y120.961 E136.02549
G1 X152.877 Y121.64 E136.08666
G1 X151.819 Y122.261 E136.14787
G1 X150.728 Y122.821 E136.20905
G1 X149.607 Y123.319 E136.27025
G1 X148.461 Y123.754 E136.3314
G1 X147.292 Y124.123 E136.39256
G1 X146.103 Y124.428 E136.4538
G1 X144.899 Y124.663 E136.515
G1 X143.685 Y124.832 E136.57615
G1 X142.463 Y124.931 E136.63732
G1 X141.275 Y124.961 E136.69661
G0 X141.236 Y124.962
G1 F1800 E133.69661
G1 Z0.8
G0 F9000 X141.236 Y125.112
G0 X146.952 Y124.377
G0 X152.511 Y121.9
G0 X158.977 Y117.744
G0 X185.575 Y103.49
; TYPE:BOTTOM-FILL
G1 Z0.3
G1 F1800 E136.69661
G1 F1080 X89.608 Y199.457 E143.4676
G1 F1800 E140.4676
G1 Z0.8
G0 F9000 X87.948 Y200.551
G1 Z0.3
G1 F1800 E143.4676
G1 F1080 X186.675 Y101.824 E150.43332
G0 F9000 X187.376 Y100.556
G1 F1080 X86.678 Y201.255 E157.53814
G0 F9000 X85.589 Y201.778
G1 F1080 X187.901 Y99.466 E164.75681
G0 F9000 X188.31 Y98.492
G1 F1080 X84.614 Y202.187 E172.07308
G0 F9000 X83.716 Y202.52
G1 F1080 X188.646 Y97.59 E179.47646
G0 F9000 X188.907 Y96.763
G1 F1080 X82.881 Y202.789 E186.95717
G0 F9000 X82.105 Y202.999
G1 F1080 X189.122 Y95.983 E194.50776
G0 F9000 X189.308 Y95.231
G1 F1080 X81.354 Y203.185 E202.1245
G0 F9000 X80.646 Y203.327
G1 F1080 X189.446 Y94.527 E209.80093
G0 F9000 X189.569 Y93.838
G1 F1080 X79.961 Y203.446 E217.53436
G0 F9000 X79.301 Y203.541
G1 F1080 X189.661 Y93.181 E225.32086
G0 F9000 X189.732 Y92.544
G1 F1080 X78.666 Y203.61 E233.15716
G0 F9000 X78.046 Y203.665
G1 F1080 X189.782 Y91.928 E241.04078
G0 F9000 X189.817 Y91.328
G1 F1080 X77.45 Y203.695 E248.96888
G0 F9000 X76.866 Y203.713
G1 F1080 X189.832 Y90.747 E256.93924
G0 F9000 X189.838 Y90.175
G1 F1080 X76.299 Y203.714 E264.95003
G0 F9000 X75.748 Y203.699
G1 F1080 X189.821 Y89.627 E272.99846
G0 F9000 X189.803 Y89.079
G1 F1080 X75.204 Y203.678 E281.08404
G0 F9000 X74.681 Y203.636
G1 F1080 X189.758 Y88.558 E289.20338
G0 F9000 X189.713 Y88.038
G1 F1080 X74.157 Y203.593 E297.35644
G0 F9000 X73.656 Y203.529
G1 F1080 X189.65 Y87.534 E305.54048
G0 F9000 X189.579 Y87.04
G1 F1080 X73.16 Y203.46 E313.7545
G0 F9000 X72.672 Y203.382
G1 F1080 X189.505 Y86.549 E321.9977
G0 F9000 X189.409 Y86.078
G1 F1080 X158.96 Y116.528 E324.14608
G1 F1800 E321.14608
G1 Z0.8
G0 F9000 X160.199 Y114.723
G1 Z0.3
G1 F1800 E324.14608
G1 F1080 X189.315 Y85.608 E326.20034
G0 F9000 X189.207 Y85.149
G1 F1080 X160.942 Y113.414 E328.19458
G0 F9000 X161.484 Y112.306
G1 F1080 X189.09 Y84.7 E330.14234
G0 F9000 X188.974 Y84.251
G1 F1080 X161.907 Y111.318 E332.05206
G0 F9000 X162.254 Y110.406
G1 F1080 X188.839 Y83.82 E333.92781
G0 F9000 X188.702 Y83.392
G1 F1080 X162.522 Y109.571 E335.77491
G0 F9000 X162.744 Y108.784
G1 F1080 X188.563 Y82.965 E337.59658
G0 F9000 X188.405 Y82.557
G1 F1080 X162.939 Y108.023 E339.39335
G0 F9000 X163.08 Y107.316
G1 F1080 X188.248 Y82.149 E341.16905
G0 F9000 X188.086 Y81.745
G1 F1080 X163.205 Y106.626 E342.92454
G0 F9000 X163.3 Y105.965
G1 F1080 X187.91 Y81.355 E344.66091
G0 F9000 X187.735 Y80.965
G1 F1080 X163.374 Y105.326 E346.37971
G0 F9000 X163.427 Y104.707
G1 F1080 X187.553 Y80.581 E348.08193
G0 F9000 X187.359 Y80.209
G1 F1080 X163.463 Y104.105 E349.76792
G0 F9000 X163.48 Y103.522
G1 F1080 X187.166 Y79.837 E351.43906
G0 F9000 X186.967 Y79.47
G1 F1080 X163.487 Y102.95 E353.0957
G0 F9000 X163.473 Y102.398
G1 F1080 X186.756 Y79.115 E354.73844
G0 F9000 X186.546 Y78.759
G1 F1080 X163.456 Y101.85 E356.3676
G0 F9000 X163.414 Y101.326
G1 F1080 X186.331 Y78.409 E357.98452
G0 F9000 X186.103 Y78.071
G1 F1080 X163.372 Y100.803 E359.58835
G0 F9000 X163.309 Y100.299
G1 F1080 X185.876 Y77.732 E361.18057
G0 F9000 X185.645 Y77.398
G1 F1080 X163.241 Y99.802 E362.7613
G0 F9000 X163.165 Y99.312
G1 F1080 X185.401 Y77.076 E364.33017
G0 F9000 X185.158 Y76.754
G1 F1080 X163.072 Y98.84 E365.88845
G0 F9000 X162.979 Y98.367
G1 F1080 X184.91 Y76.436 E367.4358
G0 F9000 X184.651 Y76.129
G1 F1080 X162.872 Y97.908 E368.97243
G0 F9000 X162.756 Y97.458
G1 F1080 X184.391 Y75.823 E370.4989
G0 F9000 X184.131 Y75.518
G1 F1080 X162.642 Y97.007 E372.01506
G0 F9000 X162.506 Y96.577
G1 F1080 X183.855 Y75.228 E373.52135
G0 F9000 X183.579 Y74.938
G1 F1080 X162.37 Y96.148 E375.01779
G0 F9000 X162.23 Y95.722
G1 F1080 X183.304 Y74.647 E376.50471
G0 F9000 X183.013 Y74.373
G1 F1080 X162.073 Y95.313 E377.98214
G0 F9000 X161.918 Y94.902
G1 F1080 X182.722 Y74.099 E379.44994
G0 F9000 X182.43 Y73.824
G1 F1080 X161.755 Y94.499 E380.90868
G0 F9000 X161.581 Y94.108
G1 F1080 X182.126 Y73.563 E382.35824
G0 F9000 X181.819 Y73.305
G1 F1080 X161.407 Y93.716 E383.79838
G0 F9000 X161.225 Y93.333
G1 F1080 X181.511 Y73.046 E385.2297
G0 F9000 X181.192 Y72.8
G1 F1080 X161.032 Y92.959 E386.65206
G0 F9000 X160.841 Y92.585
G1 F1080 X180.868 Y72.558 E388.06507
G0 F9000 X180.545 Y72.315
G1 F1080 X160.64 Y92.22 E389.46948
G0 F9000 X160.43 Y91.865
G1 F1080 X180.211 Y72.084 E390.86514
G0 F9000 X179.871 Y71.858
G1 F1080 X160.221 Y91.508 E392.25155
G0 F9000 X160.003 Y91.16
G1 F1080 X179.532 Y71.632 E393.62939
G0 F9000 X179.182 Y71.415
G1 F1080 X159.777 Y90.82 E394.99852
G0 F9000 X159.552 Y90.48
G1 F1080 X178.825 Y71.207 E396.35833
G0 F9000 X178.468 Y70.998
G1 F1080 X159.318 Y90.148 E397.70947
G0 F9000 X159.077 Y89.824
G1 F1080 X178.102 Y70.799 E399.05179
G0 F9000 X177.728 Y70.607
G1 F1080 X158.834 Y89.501 E400.38486
G0 F9000 X158.586 Y89.183
G1 F1080 X177.355 Y70.415 E401.70908
G0 F9000 X176.971 Y70.232
G1 F1080 X158.328 Y88.876 E403.02448
G0 F9000 X158.07 Y88.568
G1 F1080 X176.58 Y70.058 E404.33046
G0 F9000 X176.189 Y69.884
G1 F1080 X157.807 Y88.266 E405.62741
G0 F9000 X157.532 Y87.974
G1 F1080 X175.784 Y69.722 E406.91518
G0 F9000 X175.374 Y69.567
G1 F1080 X157.259 Y87.682 E408.1933
G0 F9000 X156.981 Y87.394
G1 F1080 X174.964 Y69.411 E409.46209
G0 F9000 X174.537 Y69.272
G1 F1080 X156.692 Y87.118 E410.72119
G0 F9000 X156.402 Y86.842
G1 F1080 X174.108 Y69.136 E411.97044
G0 F9000 X173.676 Y69.002
G1 F1080 X156.11 Y86.568 E413.20982
G0 F9000 X155.804 Y86.308
G1 F1080 X173.226 Y68.887 E414.439
G0 F9000 X172.775 Y68.772
G1 F1080 X155.498 Y86.049 E415.65799
G0 F9000 X155.192 Y85.789
G1 F1080 X172.316 Y68.665 E416.86618
G0 F9000 X171.843 Y68.573
G1 F1080 X154.871 Y85.545 E418.06364
G0 F9000 X154.549 Y85.301
G1 F1080 X171.37 Y68.48 E419.25046
G0 F9000 X170.878 Y68.406
G1 F1080 X154.227 Y85.057 E420.42527
G0 F9000 X153.891 Y84.827
G1 F1080 X170.382 Y68.336 E421.5888
G0 F9000 X169.876 Y68.276
G1 F1080 X153.553 Y84.6 E422.74051
G0 F9000 X153.214 Y84.373
G1 F1080 X169.353 Y68.234 E423.87921
G0 F9000 X168.83 Y68.191
G1 F1080 X152.863 Y84.159 E425.0058
G0 F9000 X152.508 Y83.948
G1 F1080 X168.282 Y68.174 E426.11874
G0 F9000 X167.732 Y68.158
G1 F1080 X152.153 Y83.736 E427.21789
G0 F9000 X151.785 Y83.539
G1 F1080 X167.171 Y68.153 E428.30345
G0 F9000 X166.605 Y68.153
G1 F1080 X151.412 Y83.346 E429.3754
G0 F9000 X151.04 Y83.153
G1 F1080 X166.039 Y68.153 E430.4337
G0 F9000 X165.474 Y68.153
G1 F1080 X150.653 Y82.974 E431.4794
G0 F9000 X150.263 Y82.799
G1 F1080 X164.908 Y68.153 E432.51272
G0 F9000 X164.342 Y68.153
G1 F1080 X149.872 Y82.624 E433.53369
G0 F9000 X149.466 Y82.464
G1 F1080 X163.777 Y68.153 E434.54341
G0 F9000 X163.211 Y68.153
G1 F1080 X149.057 Y82.307 E435.54205
G0 F9000 X148.647 Y82.151
G1 F1080 X162.645 Y68.153 E436.52969
G0 F9000 X162.08 Y68.153
G1 F1080 X148.22 Y82.013 E437.50758
G0 F9000 X147.792 Y81.875
G1 F1080 X161.514 Y68.153 E438.47574
G0 F9000 X160.948 Y68.153
G1 F1080 X147.358 Y81.744 E439.43463
G0 F9000 X146.909 Y81.626
G1 F1080 X160.383 Y68.153 E440.38526
G0 F9000 X159.817 Y68.153
G1 F1080 X146.46 Y81.51 E441.32766
G0 F9000 X145.998 Y81.407
G1 F1080 X159.251 Y68.153 E442.26277
G0 F9000 X158.686 Y68.153
G1 F1080 X145.527 Y81.312 E443.19121
G0 F9000 X145.055 Y81.218
G1 F1080 X158.12 Y68.153 E444.11302
G0 F9000 X157.554 Y68.153
G1 F1080 X144.561 Y81.146 E445.02974
G0 F9000 X144.066 Y81.076
G1 F1080 X156.989 Y68.153 E445.94153
G0 F9000 X156.423 Y68.153
G1 F1080 X143.558 Y81.018 E446.84922
G0 F9000 X143.037 Y80.973
G1 F1080 X155.857 Y68.153 E447.75374
G0 F9000 X155.291 Y68.153
G1 F1080 X142.513 Y80.932 E448.65534
G0 F9000 X141.964 Y80.915
G1 F1080 X154.726 Y68.153 E449.55576
G0 F9000 X154.16 Y68.153
G1 F1080 X141.414 Y80.899 E450.45506
G0 F9000 X140.839 Y80.909
G1 F1080 X153.594 Y68.153 E451.35503
G0 F9000 X153.029 Y68.153
G1 F1080 X140.258 Y80.924 E452.2561
G0 F9000 X139.653 Y80.963
G1 F1080 X152.463 Y68.153 E453.15991
G0 F9000 X151.897 Y68.153
G1 F1080 X139.037 Y81.013 E454.06725
G0 F9000 X138.393 Y81.092
G1 F1080 X151.332 Y68.153 E454.98017
G0 F9000 X150.766 Y68.153
G1 F1080 X137.735 Y81.184 E455.89958
G0 F9000 X137.04 Y81.314
G1 F1080 X150.2 Y68.153 E456.82812
G0 F9000 X149.635 Y68.153
G1 F1080 X136.331 Y81.457 E457.76679
G0 F9000 X135.571 Y81.651
G1 F1080 X149.069 Y68.153 E458.71915
G0 F9000 X148.503 Y68.153
G1 F1080 X134.777 Y81.88 E459.68763
G0 F9000 X133.944 Y82.147
G1 F1080 X147.938 Y68.153 E460.67498
G0 F9000 X147.372 Y68.153
G1 F1080 X133.032 Y82.493 E461.68674
G0 F9000 X132.036 Y82.923
G1 F1080 X146.806 Y68.153 E462.72885
G0 F9000 X146.24 Y68.153
G1 F1080 X130.921 Y83.473 E463.80972
G0 F9000 X129.607 Y84.222
G1 F1080 X145.675 Y68.153 E464.94344
G0 F9000 X145.109 Y68.153
G1 F1080 X127.76 Y85.503 E466.16754
G1 F1800 E463.16754
G1 Z0.8
G0 F9000 X123.38 Y90.152
G0 X120.916 Y94.464
G0 X119.267 Y100.667
G0 X119.648 Y107.93
G0 X122.659 Y114.968
G0 X127.542 Y120.141
G0 X132.505 Y123.324
G0 X138.466 Y125.044
G0 X145.971 Y124.742
G0 X152.081 Y122.172
G0 X154.713 Y120.775
G1 Z0.3
G1 F1800 E466.16754
G1 F1080 X106.891 Y168.597 E469.54164
G1 F1800 E466.54164
G1 Z0.8
G0 F9000 X108.13 Y166.793
G1 Z0.3
G1 F1800 E469.54164
G1 F1080 X152.907 Y122.015 E472.70094
G0 F9000 X151.603 Y122.753
G1 F1080 X108.873 Y165.484 E475.7158
G0 F9000 X109.415 Y164.376
G1 F1080 X150.494 Y123.296 E478.61418
G0 F9000 X149.505 Y123.721
G1 F1080 X109.838 Y163.387 E481.41287
G0 F9000 X110.184 Y162.475
G1 F1080 X148.593 Y124.066 E484.12283
G0 F9000 X147.764 Y124.33
G1 F1080 X110.453 Y161.641 E486.75532
G0 F9000 X110.675 Y160.853
G1 F1080 X146.973 Y124.555 E489.31634
G0 F9000 X146.212 Y124.75
G1 F1080 X110.87 Y160.093 E491.80995
G0 F9000 X111.011 Y159.386
G1 F1080 X145.507 Y124.89 E494.24383
G0 F9000 X144.812 Y125.019
G1 F1080 X111.136 Y158.695 E496.61985
G0 F9000 X111.231 Y158.034
G1 F1080 X144.155 Y125.111 E498.94278
G0 F9000 X143.513 Y125.186
G1 F1080 X111.304 Y157.395 E501.2153
G0 F9000 X111.358 Y156.776
G1 F1080 X142.897 Y125.237 E503.44055
G0 F9000 X142.293 Y125.275
G1 F1080 X111.394 Y156.175 E505.62067
G0 F9000 X111.411 Y155.591
G1 F1080 X141.714 Y125.289 E507.75868
G0 F9000 X141.139 Y125.298
G1 F1080 X111.418 Y155.019 E509.85566
G0 F9000 X111.403 Y154.468
G1 F1080 X140.589 Y125.282 E511.91489
G0 F9000 X140.04 Y125.266
G1 F1080 X111.386 Y153.919 E513.93655
G0 F9000 X111.344 Y153.396
G1 F1080 X139.517 Y125.223 E515.9243
G0 F9000 X138.996 Y125.178
G1 F1080 X111.302 Y152.872 E517.87826
G0 F9000 X111.24 Y152.368
G1 F1080 X138.489 Y125.119 E519.80083
G0 F9000 X137.995 Y125.048
G1 F1080 X111.172 Y151.871 E521.69334
G0 F9000 X111.096 Y151.381
G1 F1080 X137.501 Y124.976 E523.55635
G0 F9000 X137.03 Y124.881
G1 F1080 X111.003 Y150.909 E525.39273
G0 F9000 X110.91 Y150.436
G1 F1080 X136.559 Y124.787 E527.20241
G0 F9000 X136.098 Y124.682
G1 F1080 X110.802 Y149.978 E528.98718
G0 F9000 X110.687 Y149.527
G1 F1080 X135.649 Y124.565 E530.74838
G0 F9000 X135.2 Y124.448
G1 F1080 X110.572 Y149.077 E532.48605
G0 F9000 X110.436 Y148.647
G1 F1080 X134.767 Y124.316 E534.20274
G0 F9000 X134.339 Y124.178
G1 F1080 X110.3 Y148.217 E535.89882
G0 F9000 X110.16 Y147.791
G1 F1080 X133.911 Y124.04 E537.57458
G0 F9000 X133.503 Y123.883
G1 F1080 X110.004 Y147.382 E539.23256
G0 F9000 X109.849 Y146.972
G1 F1080 X133.094 Y123.726 E540.87266
G0 F9000 X132.688 Y123.566
G1 F1080 X109.686 Y146.569 E542.49561
G0 F9000 X109.512 Y146.177
G1 F1080 X132.298 Y123.391 E544.10328
G0 F9000 X131.907 Y123.216
G1 F1080 X109.338 Y145.785 E545.69565
G0 F9000 X109.156 Y145.402
G1 F1080 X131.521 Y123.036 E547.27365
G0 F9000 X131.149 Y122.843
G1 F1080 X108.963 Y145.029 E548.839
G0 F9000 X108.772 Y144.654
G1 F1080 X130.777 Y122.649 E550.39157
G0 F9000 X130.409 Y122.451
G1 F1080 X108.571 Y144.29 E551.93239
G0 F9000 X108.361 Y143.934
G1 F1080 X130.055 Y122.24 E553.46302
G0 F9000 X129.7 Y122.029
G1 F1080 X108.151 Y143.578 E554.98342
G0 F9000 X107.934 Y143.23
G1 F1080 X129.349 Y121.814 E556.4944
G0 F9000 X129.01 Y121.587
G1 F1080 X107.708 Y142.89 E557.99741
G0 F9000 X107.483 Y142.549
G1 F1080 X128.672 Y121.36 E559.4924
G0 F9000 X128.337 Y121.13
G1 F1080 X107.249 Y142.217 E560.98024
G0 F9000 X107.007 Y141.893
G1 F1080 X128.015 Y120.886 E562.46243
G0 F9000 X127.692 Y120.643
G1 F1080 X106.765 Y141.57 E563.93895
G0 F9000 X106.517 Y141.253
G1 F1080 X127.373 Y120.396 E565.41049
G0 F9000 X127.066 Y120.138
G1 F1080 X106.258 Y140.946 E566.8786
G0 F9000 X106 Y140.638
G1 F1080 X126.76 Y119.878 E568.34333
G0 F9000 X126.454 Y119.619
G1 F1080 X105.737 Y140.335 E569.80499
G0 F9000 X105.463 Y140.043
G1 F1080 X126.163 Y119.344 E571.26545
G0 F9000 X125.873 Y119.068
G1 F1080 X105.189 Y139.752 E572.72482
G0 F9000 X104.912 Y139.463
G1 F1080 X125.583 Y118.792 E574.18327
G0 F9000 X125.307 Y118.502
G1 F1080 X104.622 Y139.187 E575.64271
G0 F9000 X104.332 Y138.911
G1 F1080 X125.034 Y118.21 E577.10331
G0 F9000 X124.759 Y117.919
G1 F1080 X104.041 Y138.637 E578.56508
G0 F9000 X103.735 Y138.377
G1 F1080 X124.498 Y117.615 E580.02999
G0 F9000 X124.239 Y117.308
G1 F1080 X103.429 Y138.118 E581.49825
G0 F9000 X103.123 Y137.858
G1 F1080 X123.981 Y117 E582.96989
G0 F9000 X123.733 Y116.682
G1 F1080 X102.802 Y137.614 E584.44672
G0 F9000 X102.48 Y137.37
G1 F1080 X123.491 Y116.359 E585.92916
G0 F9000 X123.249 Y116.035
G1 F1080 X102.158 Y137.126 E587.41724
G0 F9000 X101.822 Y136.896
G1 F1080 X123.016 Y115.702 E588.9126
G0 F9000 X122.791 Y115.362
G1 F1080 X101.483 Y136.669 E590.41595
G0 F9000 X101.145 Y136.442
G1 F1080 X122.565 Y115.022 E591.92725
G0 F9000 X122.348 Y114.673
G1 F1080 X100.793 Y136.228 E593.44807
G0 F9000 X100.438 Y136.017
G1 F1080 X122.138 Y114.317 E594.97912
G0 F9000 X121.929 Y113.961
G1 F1080 X100.084 Y135.806 E596.52041
G0 F9000 X99.716 Y135.608
G1 F1080 X121.729 Y113.595 E598.07354
G0 F9000 X121.537 Y113.221
G1 F1080 X99.343 Y135.415 E599.63945
G0 F9000 X98.97 Y135.222
G1 F1080 X121.345 Y112.848 E601.21809
G0 F9000 X121.163 Y112.464
G1 F1080 X98.584 Y135.043 E602.81116
G0 F9000 X98.193 Y134.868
G1 F1080 X120.989 Y112.072 E604.41954
G0 F9000 X120.815 Y111.681
G1 F1080 X97.802 Y134.693 E606.0432
G0 F9000 X97.396 Y134.534
G1 F1080 X120.653 Y111.277 E607.68411
G0 F9000 X120.498 Y110.867
G1 F1080 X96.988 Y134.377 E609.34286
G0 F9000 X96.578 Y134.22
G1 F1080 X120.342 Y110.457 E611.01951
G0 F9000 X120.203 Y110.03
G1 F1080 X96.15 Y134.083 E612.71658
G0 F9000 X95.723 Y133.945
G1 F1080 X120.067 Y109.6 E614.43421
G0 F9000 X119.932 Y109.17
G1 F1080 X95.289 Y133.813 E616.17291
G0 F9000 X94.839 Y133.696
G1 F1080 X119.817 Y108.719 E617.93521
G0 F9000 X119.701 Y108.269
G1 F1080 X94.39 Y133.58 E619.72103
G0 F9000 X93.929 Y133.476
G1 F1080 X119.595 Y107.809 E621.53194
G0 F9000 X119.503 Y107.336
G1 F1080 X93.457 Y133.382 E623.36963
G0 F9000 X92.986 Y133.287
G1 F1080 X119.41 Y106.863 E625.23399
G0 F9000 X119.334 Y106.373
G1 F1080 X92.492 Y133.216 E627.12787
G0 F9000 X91.997 Y133.145
G1 F1080 X119.266 Y105.876 E629.05184
G0 F9000 X119.206 Y105.37
G1 F1080 X91.489 Y133.088 E631.00746
G0 F9000 X90.968 Y133.042
G1 F1080 X119.163 Y104.847 E632.99677
G0 F9000 X119.121 Y104.324
G1 F1080 X106.807 Y116.638 E633.86559
G1 F1800 E630.86559
G1 Z0.8
G0 F9000 X108.091 Y114.788
G1 Z0.3
G1 F1800 E633.86559
G1 F1080 X119.105 Y103.774 E634.64269
G0 F9000 X119.091 Y103.222
G1 F1080 X108.844 Y113.47 E635.36571
G0 F9000 X109.393 Y112.355
G1 F1080 X119.099 Y102.649 E636.05052
G0 F9000 X119.117 Y102.065
G1 F1080 X109.821 Y111.361 E636.7064
G0 F9000 X110.172 Y110.445
G1 F1080 X119.153 Y101.463 E637.34009
G0 F9000 X119.206 Y100.844
G1 F1080 X110.44 Y109.611 E637.95862
G0 F9000 X110.665 Y108.82
G1 F1080 X119.283 Y100.202 E638.56666
G0 F9000 X119.378 Y99.541
G1 F1080 X110.862 Y108.057 E639.16751
G0 F9000 X111.004 Y107.35
G1 F1080 X119.505 Y98.848 E639.76734
G0 F9000 X119.647 Y98.141
G1 F1080 X111.131 Y106.657 E640.36819
G0 F9000 X111.226 Y105.996
G1 F1080 X119.843 Y97.379 E640.97617
G0 F9000 X120.069 Y96.587
G1 F1080 X111.302 Y105.355 E641.59476
G0 F9000 X111.355 Y104.736
G1 F1080 X120.338 Y95.753 E642.22856
G0 F9000 X120.687 Y94.838
G1 F1080 X111.391 Y104.134 E642.88444
G0 F9000 X111.41 Y103.55
G1 F1080 X121.116 Y93.844 E643.56925
G0 F9000 X121.664 Y92.729
G1 F1080 X111.418 Y102.976 E644.2922
G0 F9000 X111.403 Y102.425
G1 F1080 X122.419 Y91.409 E645.06944
G1 F1800 E642.06944
G1 Z0.8
G0 F9000 X123.703 Y89.56
G1 Z0.3
G1 F1800 E645.06944
G1 F1080 X111.388 Y101.874 E645.93829
G0 F9000 X111.345 Y101.351
G1 F1080 X144.543 Y68.153 E648.28059
G0 F9000 X143.978 Y68.153
G1 F1080 X111.304 Y100.827 E650.58592
G0 F9000 X111.243 Y100.322
G1 F1080 X143.412 Y68.153 E652.85561
G0 F9000 X142.846 Y68.153
G1 F1080 X111.174 Y99.826 E655.09028
G0 F9000 X111.099 Y99.335
G1 F1080 X142.281 Y68.153 E657.29034
G0 F9000 X141.715 Y68.153
G1 F1080 X111.007 Y98.862 E659.45699
G0 F9000 X110.914 Y98.388
G1 F1080 X141.149 Y68.153 E661.59023
G0 F9000 X140.584 Y68.153
G1 F1080 X110.807 Y97.93 E663.69116
G0 F9000 X110.692 Y97.479
G1 F1080 X140.018 Y68.153 E665.76027
G0 F9000 X139.452 Y68.153
G1 F1080 X110.577 Y97.029 E667.79759
G0 F9000 X110.442 Y96.598
G1 F1080 X138.887 Y68.153 E669.80454
G0 F9000 X138.321 Y68.153
G1 F1080 X110.306 Y96.168 E671.78115
G0 F9000 X110.167 Y95.742
G1 F1080 X137.755 Y68.153 E673.72767
G0 F9000 X137.19 Y68.153
G1 F1080 X110.011 Y95.332 E675.64529
G0 F9000 X109.855 Y94.922
G1 F1080 X136.624 Y68.153 E677.53399
G0 F9000 X136.058 Y68.153
G1 F1080 X109.693 Y94.518 E679.39418
G0 F9000 X109.519 Y94.127
G1 F1080 X135.492 Y68.153 E681.22675
G0 F9000 X134.927 Y68.153
G1 F1080 X109.346 Y93.734 E683.03163
G0 F9000 X109.164 Y93.35
G1 F1080 X134.361 Y68.153 E684.80941
G0 F9000 X133.795 Y68.153
G1 F1080 X108.972 Y92.977 E686.56085
G0 F9000 X108.78 Y92.603
G1 F1080 X133.23 Y68.153 E688.28593
G0 F9000 X132.664 Y68.153
G1 F1080 X108.58 Y92.237 E689.98518
G0 F9000 X108.37 Y91.882
G1 F1080 X132.098 Y68.153 E691.65936
G0 F9000 X131.533 Y68.153
G1 F1080 X108.161 Y91.525 E693.30838
G0 F9000 X107.944 Y91.176
G1 F1080 X130.967 Y68.153 E694.93277
G0 F9000 X130.401 Y68.153
G1 F1080 X107.718 Y90.837 E696.53322
G0 F9000 X107.492 Y90.496
G1 F1080 X129.836 Y68.153 E698.10967
G0 F9000 X129.27 Y68.153
G1 F1080 X107.26 Y90.163 E699.6626
G0 F9000 X107.018 Y89.84
G1 F1080 X128.704 Y68.153 E701.1927
G0 F9000 X128.139 Y68.153
G1 F1080 X106.775 Y89.516 E702.70001
G0 F9000 X106.528 Y89.198
G1 F1080 X127.573 Y68.153 E704.18485
G0 F9000 X127.007 Y68.153
G1 F1080 X106.27 Y88.891 E705.64799
G0 F9000 X106.012 Y88.583
G1 F1080 X126.442 Y68.153 E707.08943
G0 F9000 X125.876 Y68.153
G1 F1080 X105.75 Y88.279 E708.50943
G0 F9000 X105.476 Y87.988
G1 F1080 X125.31 Y68.153 E709.90886
G0 F9000 X124.744 Y68.153
G1 F1080 X105.201 Y87.696 E711.28773
G0 F9000 X104.926 Y87.406
G1 F1080 X124.179 Y68.153 E712.64613
G0 F9000 X123.613 Y68.153
G1 F1080 X104.636 Y87.131 E713.9851
G0 F9000 X104.346 Y86.855
G1 F1080 X123.047 Y68.153 E715.30459
G0 F9000 X122.482 Y68.153
G1 F1080 X104.055 Y86.58 E716.60471
G0 F9000 X103.749 Y86.32
G1 F1080 X121.916 Y68.153 E717.88649
G0 F9000 X121.35 Y68.153
G1 F1080 X103.443 Y86.061 E719.14996
G0 F9000 X103.137 Y85.801
G1 F1080 X120.785 Y68.153 E720.39513
G0 F9000 X120.219 Y68.153
G1 F1080 X102.816 Y85.556 E721.623
G0 F9000 X102.495 Y85.312
G1 F1080 X119.653 Y68.153 E722.83363
G0 F9000 X119.088 Y68.153
G1 F1080 X102.173 Y85.068 E724.02707
G0 F9000 X101.837 Y84.838
G1 F1080 X118.522 Y68.153 E725.20429
G0 F9000 X117.956 Y68.153
G1 F1080 X101.498 Y84.611 E726.36549
G0 F9000 X101.16 Y84.384
G1 F1080 X117.391 Y68.153 E727.51067
G0 F9000 X116.825 Y68.153
G1 F1080 X100.809 Y84.169 E728.64069
G0 F9000 X100.455 Y83.958
G1 F1080 X116.259 Y68.153 E729.75578
G0 F9000 X115.693 Y68.153
G1 F1080 X100.1 Y83.746 E730.85595
G0 F9000 X99.733 Y83.548
G1 F1080 X115.127 Y68.154 E731.94208
G0 F9000 X114.561 Y68.154
G1 F1080 X99.36 Y83.355 E733.01459
G0 F9000 X98.987 Y83.162
G1 F1080 X113.996 Y68.154 E734.07352
G0 F9000 X113.43 Y68.154
G1 F1080 X98.601 Y82.983 E735.11979
G0 F9000 X98.212 Y82.807
G1 F1080 X112.864 Y68.154 E736.1536
G0 F9000 X112.299 Y68.154
G1 F1080 X97.821 Y82.631 E737.17507
G0 F9000 X97.415 Y82.471
G1 F1080 X111.733 Y68.154 E738.18525
G0 F9000 X111.167 Y68.154
G1 F1080 X97.007 Y82.315 E739.18435
G0 F9000 X96.597 Y82.158
G1 F1080 X110.602 Y68.154 E740.17244
G0 F9000 X110.036 Y68.154
G1 F1080 X96.17 Y82.02 E741.15076
G0 F9000 X95.742 Y81.882
G1 F1080 X109.47 Y68.154 E742.11934
G0 F9000 X108.905 Y68.154
G1 F1080 X95.309 Y81.75 E743.07862
G0 F9000 X94.861 Y81.632
G1 F1080 X108.339 Y68.154 E744.02956
G0 F9000 X107.773 Y68.154
G1 F1080 X94.412 Y81.515 E744.97225
G0 F9000 X93.951 Y81.411
G1 F1080 X107.207 Y68.154 E745.90757
G0 F9000 X106.642 Y68.154
G1 F1080 X93.48 Y81.316 E746.83622
G0 F9000 X93.008 Y81.222
G1 F1080 X106.076 Y68.154 E747.75824
G0 F9000 X105.51 Y68.154
G1 F1080 X92.515 Y81.15 E748.67514
G0 F9000 X92.02 Y81.079
G1 F1080 X104.945 Y68.154 E749.58707
G0 F9000 X104.379 Y68.154
G1 F1080 X91.513 Y81.021 E750.49487
G0 F9000 X90.992 Y80.975
G1 F1080 X103.813 Y68.154 E751.39946
G0 F9000 X103.248 Y68.154
G1 F1080 X90.469 Y80.933 E752.30109
G0 F9000 X89.919 Y80.917
G1 F1080 X102.682 Y68.154 E753.20159
G0 F9000 X102.116 Y68.154
G1 F1080 X89.371 Y80.9 E754.10085
G0 F9000 X88.796 Y80.909
G1 F1080 X101.551 Y68.154 E755.00079
G0 F9000 X100.985 Y68.154
G1 F1080 X88.216 Y80.923 E755.90171
G0 F9000 X87.612 Y80.961
G1 F1080 X100.419 Y68.154 E756.80531
G0 F9000 X99.854 Y68.154
G1 F1080 X86.996 Y81.011 E757.71248
G0 F9000 X86.354 Y81.088
G1 F1080 X99.288 Y68.154 E758.62504
G0 F9000 X98.722 Y68.154
G1 F1080 X85.697 Y81.179 E759.54402
G0 F9000 X85.002 Y81.308
G1 F1080 X98.157 Y68.154 E760.47215
G0 F9000 X97.591 Y68.154
G1 F1080 X84.297 Y81.448 E761.41011
G0 F9000 X83.536 Y81.643
G1 F1080 X97.025 Y68.154 E762.36183
G0 F9000 X96.459 Y68.154
G1 F1080 X82.747 Y81.867 E763.32932
G0 F9000 X81.918 Y82.13
G1 F1080 X95.894 Y68.154 E764.3154
G0 F9000 X95.328 Y68.154
G1 F1080 X81.006 Y82.476 E765.3259
G0 F9000 X80.015 Y82.901
G1 F1080 X94.762 Y68.154 E766.36638
G0 F9000 X94.197 Y68.154
G1 F1080 X78.906 Y83.444 E767.44521
G0 F9000 X77.602 Y84.183
G1 F1080 X93.631 Y68.154 E768.57614
G0 F9000 X93.065 Y68.154
G1 F1080 X75.797 Y85.422 E769.79449
G1 F1800 E766.79449
G1 Z0.8
G0 F9000 X80.624 Y82.701
G0 X86.892 Y81.064
G0 X94.004 Y81.481
G0 X99.094 Y83.364
G0 X102.969 Y86.058
G0 X107.852 Y91.231
G0 X110.863 Y98.419
G0 X111.165 Y105.923
G0 X109.412 Y111.639
G0 X106.603 Y116.421
G0 X102.751 Y120.694
G1 Z0.3
G1 F1800 E769.79449
G1 F1080 X90.443 Y133.001 E770.66285
G0 F9000 X89.895 Y132.984
G1 F1080 X100.903 Y121.976 E771.43952
G0 F9000 X99.589 Y122.724
G1 F1080 X89.345 Y132.968 E772.16229
G0 F9000 X88.77 Y132.978
G1 F1080 X98.474 Y123.274 E772.84696
G0 F9000 X97.478 Y123.704
G1 F1080 X88.189 Y132.993 E773.50235
G0 F9000 X87.584 Y133.032
G1 F1080 X96.567 Y124.049 E774.13615
G0 F9000 X95.734 Y124.317
G1 F1080 X86.968 Y133.083 E774.75464
G0 F9000 X86.324 Y133.161
G1 F1080 X94.94 Y124.545 E775.36254
G0 F9000 X94.179 Y124.74
G1 F1080 X85.666 Y133.253 E775.96318
G0 F9000 X84.97 Y133.384
G1 F1080 X93.471 Y124.882 E776.56301
G0 F9000 X92.774 Y125.014
G1 F1080 X84.261 Y133.527 E777.16365
G0 F9000 X83.501 Y133.721
G1 F1080 X92.116 Y125.106 E777.77148
G0 F9000 X91.473 Y125.184
G1 F1080 X82.708 Y133.949 E778.3899
G0 F9000 X81.875 Y134.216
G1 F1080 X90.858 Y125.233 E779.0237
G0 F9000 X90.251 Y125.274
G1 F1080 X80.963 Y134.563 E779.67905
G0 F9000 X79.966 Y134.993
G1 F1080 X89.671 Y125.288 E780.36379
G0 F9000 X89.095 Y125.299
G1 F1080 X78.851 Y135.543 E781.08656
G0 F9000 X77.537 Y136.291
G1 F1080 X88.546 Y125.282 E781.86331
G0 F9000 X87.998 Y125.265
G1 F1080 X75.69 Y137.572 E782.73167
G1 F1800 E779.73167
G1 Z0.8
G0 F9000 X71.31 Y142.222
G0 X68.846 Y146.534
G0 X67.197 Y152.737
G0 X67.578 Y160
G0 X70.589 Y167.038
G0 X75.472 Y172.211
G0 X80.435 Y175.394
G0 X86.396 Y177.114
G0 X93.901 Y176.812
G0 X100.011 Y174.242
G0 X102.643 Y172.845
G1 Z0.3
G1 F1800 E782.73167
G1 F1080 X72.199 Y203.289 E784.87966
G0 F9000 X71.726 Y203.196
G1 F1080 X100.838 Y174.084 E786.93367
G0 F9000 X99.534 Y174.822
G1 F1080 X71.27 Y203.086 E788.92784
G0 F9000 X70.82 Y202.971
G1 F1080 X98.425 Y175.366 E790.87553
G0 F9000 X97.435 Y175.79
G1 F1080 X70.371 Y202.854 E792.78504
G0 F9000 X69.942 Y202.718
G1 F1080 X96.524 Y176.136 E794.66054
G0 F9000 X95.694 Y176.399
G1 F1080 X69.512 Y202.581 E796.50782
G0 F9000 X69.089 Y202.439
G1 F1080 X94.904 Y176.624 E798.32921
G0 F9000 X94.143 Y176.819
G1 F1080 X68.679 Y202.284 E800.12587
G0 F9000 X68.269 Y202.128
G1 F1080 X93.437 Y176.959 E801.90164
G0 F9000 X92.742 Y177.089
G1 F1080 X67.867 Y201.964 E803.65671
G0 F9000 X67.475 Y201.79
G1 F1080 X92.085 Y177.18 E805.39308
G0 F9000 X91.444 Y177.256
G1 F1080 X67.084 Y201.615 E807.11177
G0 F9000 X66.703 Y201.431
G1 F1080 X90.828 Y177.306 E808.81392
G0 F9000 X90.223 Y177.345
G1 F1080 X66.33 Y201.239 E810.49973
G0 F9000 X65.956 Y201.047
G1 F1080 X89.644 Y177.359 E812.17105
G0 F9000 X89.069 Y177.368
G1 F1080 X65.592 Y200.845 E813.82748
G0 F9000 X65.236 Y200.635
G1 F1080 X88.52 Y177.351 E815.47029
G0 F9000 X87.971 Y177.335
G1 F1080 X64.879 Y200.426 E817.09952
G0 F9000 X64.532 Y200.208
G1 F1080 X87.447 Y177.292 E818.71633
G0 F9000 X86.927 Y177.247
G1 F1080 X64.193 Y199.981 E820.32034
G0 F9000 X63.853 Y199.755
G1 F1080 X86.42 Y177.188 E821.91256
G0 F9000 X85.926 Y177.117
G1 F1080 X63.522 Y199.52 E823.49325
G0 F9000 X63.199 Y199.278
G1 F1080 X85.432 Y177.045 E825.06191
G0 F9000 X84.961 Y176.95
G1 F1080 X62.875 Y199.037 E826.62023
G0 F9000 X62.557 Y198.788
G1 F1080 X84.49 Y176.856 E828.16769
G0 F9000 X84.029 Y176.751
G1 F1080 X62.25 Y198.53 E829.70431
G0 F9000 X61.943 Y198.272
G1 F1080 X83.58 Y176.634 E831.23096
G0 F9000 X83.131 Y176.517
G1 F1080 X61.641 Y198.008 E832.74723
G0 F9000 X61.349 Y197.733
G1 F1080 X82.698 Y176.385 E834.25348
G0 F9000 X82.27 Y176.247
G1 F1080 X61.058 Y197.459 E835.7501
G0 F9000 X60.77 Y197.182
G1 F1080 X81.842 Y176.109 E837.23688
G0 F9000 X81.433 Y175.952
G1 F1080 X60.494 Y196.892 E838.71427
G0 F9000 X60.218 Y196.602
G1 F1080 X81.025 Y175.795 E840.18232
G0 F9000 X80.619 Y175.636
G1 F1080 X59.944 Y196.31 E841.64102
G0 F9000 X59.685 Y196.004
G1 F1080 X80.229 Y175.46 E843.09051
G0 F9000 X79.838 Y175.285
G1 F1080 X59.425 Y195.698 E844.53076
G0 F9000 X59.166 Y195.391
G1 F1080 X79.452 Y175.105 E845.96204
G0 F9000 X79.079 Y174.912
G1 F1080 X58.922 Y195.07 E847.38426
G0 F9000 X58.679 Y194.747
G1 F1080 X78.707 Y174.719 E848.79735
G0 F9000 X78.339 Y174.521
G1 F1080 X58.436 Y194.425 E850.20165
G0 F9000 X58.206 Y194.088
G1 F1080 X77.985 Y174.31 E851.59713
G0 F9000 X77.631 Y174.098
G1 F1080 X57.979 Y193.75 E852.98368
G0 F9000 X57.751 Y193.412
G1 F1080 X77.28 Y173.883 E854.36156
G0 F9000 X76.941 Y173.656
G1 F1080 X57.537 Y193.06 E855.73061
G0 F9000 X57.327 Y192.704
G1 F1080 X76.602 Y173.429 E857.09057
G0 F9000 X76.267 Y173.2
G1 F1080 X57.117 Y192.349 E858.44167
G0 F9000 X56.921 Y191.98
G1 F1080 X75.945 Y172.956 E859.78392
G0 F9000 X75.623 Y172.712
G1 F1080 X56.727 Y191.608 E861.11713
G0 F9000 X56.533 Y191.236
G1 F1080 X75.304 Y172.466 E862.44149
G0 F9000 X74.997 Y172.207
G1 F1080 X56.355 Y190.848 E863.75675
G0 F9000 X56.18 Y190.458
G1 F1080 X74.69 Y171.947 E865.06277
G0 F9000 X74.384 Y171.688
G1 F1080 X56.004 Y190.068 E866.35957
G0 F9000 X55.845 Y189.661
G1 F1080 X74.094 Y171.413 E867.6471
G0 F9000 X73.804 Y171.137
G1 F1080 X55.688 Y189.253 E868.92529
G0 F9000 X55.532 Y188.843
G1 F1080 X73.514 Y170.861 E870.19401
G0 F9000 X73.238 Y170.571
G1 F1080 X55.395 Y188.414 E871.45293
G0 F9000 X55.257 Y187.987
G1 F1080 X72.964 Y170.279 E872.70229
G0 F9000 X72.69 Y169.988
G1 F1080 X55.126 Y187.553 E873.94156
G0 F9000 X55.009 Y187.103
G1 F1080 X72.428 Y169.684 E875.17057
G0 F9000 X72.17 Y169.377
G1 F1080 X54.892 Y186.654 E876.38959
G0 F9000 X54.789 Y186.192
G1 F1080 X71.912 Y169.069 E877.59771
G0 F9000 X71.664 Y168.751
G1 F1080 X54.694 Y185.722 E878.79507
G0 F9000 X54.599 Y185.251
G1 F1080 X71.422 Y168.428 E879.98202
G0 F9000 X71.18 Y168.104
G1 F1080 X54.527 Y184.757 E881.15698
G0 F9000 X54.457 Y184.262
G1 F1080 X70.947 Y167.771 E882.32048
G0 F9000 X70.721 Y167.431
G1 F1080 X54.398 Y183.755 E883.47219
G0 F9000 X54.353 Y183.234
G1 F1080 X70.496 Y167.091 E884.61116
G0 F9000 X70.279 Y166.742
G1 F1080 X54.312 Y182.709 E885.73772
G0 F9000 X54.295 Y182.16
G1 F1080 X70.069 Y166.387 E886.85063
G0 F9000 X69.86 Y166.03
G1 F1080 X54.278 Y181.611 E887.94999
G0 F9000 X54.276 Y181.049
G1 F1080 X69.659 Y165.665 E889.03537
G0 F9000 X69.468 Y165.291
G1 F1080 X54.276 Y180.483 E890.10725
G0 F9000 X54.276 Y179.917
G1 F1080 X69.275 Y164.917 E891.16555
G0 F9000 X69.094 Y164.533
G1 F1080 X54.276 Y179.351 E892.21104
G0 F9000 X54.276 Y178.786
G1 F1080 X68.92 Y164.142 E893.24425
G0 F9000 X68.746 Y163.75
G1 F1080 X54.276 Y178.22 E894.26519
G0 F9000 X54.276 Y177.654
G1 F1080 X68.584 Y163.346 E895.27469
G0 F9000 X68.428 Y162.936
G1 F1080 X54.276 Y177.089 E896.27323
G0 F9000 X54.276 Y176.523
G1 F1080 X68.273 Y162.526 E897.26079
G0 F9000 X68.133 Y162.099
G1 F1080 X54.276 Y175.957 E898.23852
G0 F9000 X54.276 Y175.392
G1 F1080 X67.998 Y161.67 E899.20668
G0 F9000 X67.863 Y161.239
G1 F1080 X54.276 Y174.826 E900.16531
G0 F9000 X54.276 Y174.26
G1 F1080 X67.747 Y160.789 E901.11576
G0 F9000 X67.632 Y160.338
G1 F1080 X54.276 Y173.695 E902.05814
G0 F9000 X54.276 Y173.129
G1 F1080 X67.525 Y159.879 E902.99296
G0 F9000 X67.433 Y159.406
G1 F1080 X54.276 Y172.563 E903.92126
G0 F9000 X54.276 Y171.998
G1 F1080 X67.34 Y158.933 E904.84303
G0 F9000 X67.265 Y158.442
G1 F1080 X54.276 Y171.432 E905.75951
G0 F9000 X54.276 Y170.866
G1 F1080 X67.197 Y157.945 E906.67116
G0 F9000 X67.136 Y157.44
G1 F1080 X54.276 Y170.301 E907.57853
G0 F9000 X54.276 Y169.735
G1 F1080 X67.094 Y156.916 E908.48295
G0 F9000 X67.052 Y156.393
G1 F1080 X54.276 Y169.169 E909.38436
G0 F9000 X54.276 Y168.603
G1 F1080 X67.036 Y155.843 E910.28465
G0 F9000 X67.022 Y155.291
G1 F1080 X54.276 Y168.038 E911.18399
G0 F9000 X54.276 Y167.472
G1 F1080 X67.03 Y154.718 E912.08385
G0 F9000 X67.047 Y154.135
G1 F1080 X54.276 Y166.906 E912.98491
G0 F9000 X54.276 Y166.341
G1 F1080 X67.084 Y153.532 E913.88862
G0 F9000 X67.137 Y152.913
G1 F1080 X54.276 Y165.775 E914.79607
G0 F9000 X54.276 Y165.209
G1 F1080 X67.214 Y152.271 E915.70891
G0 F9000 X67.309 Y151.61
G1 F1080 X54.276 Y164.644 E916.6285
G0 F9000 X54.276 Y164.078
G1 F1080 X67.436 Y150.917 E917.55704
G0 F9000 X67.578 Y150.21
G1 F1080 X54.276 Y163.512 E918.49557
G0 F9000 X54.276 Y162.947
G1 F1080 X67.774 Y149.448 E919.44796
G0 F9000 X68 Y148.657
G1 F1080 X54.276 Y162.381 E920.41627
G0 F9000 X54.276 Y161.815
G1 F1080 X68.269 Y147.822 E921.40355
G0 F9000 X68.618 Y146.907
G1 F1080 X54.276 Y161.25 E922.41549
G0 F9000 X54.276 Y160.684
G1 F1080 X69.046 Y145.913 E923.45763
G0 F9000 X69.595 Y144.799
G1 F1080 X54.276 Y160.118 E924.53846
G0 F9000 X54.276 Y159.552
G1 F1080 X70.35 Y143.478 E925.67257
G1 F1800 E922.67257
G1 Z0.8
G0 F9000 X71.634 Y141.629
G1 Z0.3
G1 F1800 E925.67257
G1 F1080 X54.276 Y158.987 E926.89727
G0 F9000 X54.276 Y158.421
G1 F1080 X87.473 Y125.224 E929.2395
G0 F9000 X86.952 Y125.179
G1 F1080 X54.276 Y157.855 E931.54497
G0 F9000 X54.276 Y157.29
G1 F1080 X86.444 Y125.121 E933.81463
G0 F9000 X85.949 Y125.051
G1 F1080 X54.276 Y156.724 E936.04933
G0 F9000 X54.276 Y156.158
G1 F1080 X85.455 Y124.979 E938.24918
G0 F9000 X84.983 Y124.885
G1 F1080 X54.276 Y155.593 E940.41576
G0 F9000 X54.276 Y155.027
G1 F1080 X84.512 Y124.79 E942.54911
G0 F9000 X84.05 Y124.687
G1 F1080 X54.276 Y154.461 E944.64982
G0 F9000 X54.276 Y153.896
G1 F1080 X83.601 Y124.57 E946.7189
G0 F9000 X83.152 Y124.453
G1 F1080 X54.276 Y153.33 E948.75629
G0 F9000 X54.276 Y152.764
G1 F1080 X82.718 Y124.322 E950.76303
G0 F9000 X82.29 Y124.184
G1 F1080 X54.276 Y152.199 E952.7396
G0 F9000 X54.276 Y151.633
G1 F1080 X81.862 Y124.047 E954.68594
G0 F9000 X81.453 Y123.89
G1 F1080 X54.276 Y151.067 E956.60342
G0 F9000 X54.276 Y150.502
G1 F1080 X81.045 Y123.733 E958.49212
G0 F9000 X80.638 Y123.573
G1 F1080 X54.276 Y149.936 E960.35214
G0 F9000 X54.276 Y149.37
G1 F1080 X80.247 Y123.399 E962.18453
G0 F9000 X79.857 Y123.223
G1 F1080 X54.276 Y148.804 E963.98941
G0 F9000 X54.276 Y148.239
G1 F1080 X79.47 Y123.045 E965.76698
G0 F9000 X79.097 Y122.852
G1 F1080 X54.276 Y147.673 E967.51824
G0 F9000 X54.276 Y147.107
G1 F1080 X78.725 Y122.658 E969.24325
G0 F9000 X78.356 Y122.461
G1 F1080 X54.276 Y146.542 E970.94226
G0 F9000 X54.276 Y145.976
G1 F1080 X78.002 Y122.25 E972.61626
G0 F9000 X77.648 Y122.038
G1 F1080 X54.276 Y145.41 E974.26528
G0 F9000 X54.276 Y144.845
G1 F1080 X77.295 Y121.825 E975.88943
G0 F9000 X76.957 Y121.598
G1 F1080 X54.276 Y144.279 E977.48969
G0 F9000 X54.276 Y143.713
G1 F1080 X76.618 Y121.371 E979.06604
G0 F9000 X76.282 Y121.141
G1 F1080 X54.276 Y143.148 E980.61872
G0 F9000 X54.276 Y142.582
G1 F1080 X75.96 Y120.897 E982.14868
G0 F9000 X75.639 Y120.653
G1 F1080 X54.276 Y142.016 E983.65595
G0 F9000 X54.276 Y141.451
G1 F1080 X75.318 Y120.408 E985.14062
G0 F9000 X75.012 Y120.149
G1 F1080 X54.276 Y140.885 E986.60365
G0 F9000 X54.276 Y140.319
G1 F1080 X74.705 Y119.889 E988.04506
G0 F9000 X74.399 Y119.63
G1 F1080 X54.276 Y139.753 E989.46485
G0 F9000 X54.276 Y139.188
G1 F1080 X74.108 Y119.356 E990.8641
G0 F9000 X73.818 Y119.08
G1 F1080 X54.276 Y138.622 E992.2429
G0 F9000 X54.276 Y138.056
G1 F1080 X73.528 Y118.804 E993.60123
G0 F9000 X73.252 Y118.515
G1 F1080 X54.276 Y137.491 E994.94009
G0 F9000 X54.276 Y136.925
G1 F1080 X72.977 Y118.224 E996.25955
G0 F9000 X72.704 Y117.931
G1 F1080 X54.276 Y136.359 E997.55974
G0 F9000 X54.276 Y135.794
G1 F1080 X72.44 Y117.629 E998.84135
G0 F9000 X72.182 Y117.322
G1 F1080 X54.276 Y135.228 E1000.10471
G0 F9000 X54.276 Y134.662
G1 F1080 X71.924 Y117.014 E1001.34987
G0 F9000 X71.675 Y116.697
G1 F1080 X54.276 Y134.097 E1002.5775
G0 F9000 X54.276 Y133.531
G1 F1080 X71.434 Y116.373 E1003.78809
G0 F9000 X71.191 Y116.05
G1 F1080 X54.276 Y132.965 E1004.98153
G0 F9000 X54.276 Y132.4
G1 F1080 X70.958 Y115.717 E1006.15858
G0 F9000 X70.732 Y115.377
G1 F1080 X54.276 Y131.834 E1007.31967
G0 F9000 X54.276 Y131.268
G1 F1080 X70.507 Y115.037 E1008.46486
G0 F9000 X70.289 Y114.689
G1 F1080 X54.276 Y130.703 E1009.59469
G0 F9000 X54.276 Y130.137
G1 F1080 X70.079 Y114.333 E1010.70972
G0 F9000 X69.869 Y113.977
G1 F1080 X54.275 Y129.572 E1011.80999
G0 F9000 X54.275 Y129.006
G1 F1080 X69.669 Y113.612 E1012.89612
G0 F9000 X69.477 Y113.238
G1 F1080 X54.275 Y128.44 E1013.96871
G0 F9000 X54.275 Y127.875
G1 F1080 X69.285 Y112.865 E1015.02774
G0 F9000 X69.102 Y112.482
G1 F1080 X54.275 Y127.309 E1016.07387
G0 F9000 X54.275 Y126.743
G1 F1080 X68.928 Y112.09 E1017.10772
G0 F9000 X68.754 Y111.698
G1 F1080 X54.275 Y126.178 E1018.12932
G0 F9000 X54.275 Y125.612
G1 F1080 X68.592 Y111.295 E1019.13946
G0 F9000 X68.436 Y110.885
G1 F1080 X54.275 Y125.046 E1020.1386
G0 F9000 X54.275 Y124.481
G1 F1080 X68.281 Y110.475 E1021.1268
G0 F9000 X68.14 Y110.05
G1 F1080 X54.275 Y123.915 E1022.10505
G0 F9000 X54.275 Y123.349
G1 F1080 X68.004 Y109.62 E1023.0737
G0 F9000 X67.868 Y109.19
G1 F1080 X54.275 Y122.784 E1024.0328
G0 F9000 X54.275 Y122.218
G1 F1080 X67.753 Y108.74 E1024.98374
G0 F9000 X67.638 Y108.289
G1 F1080 X54.275 Y121.652 E1025.92658
G0 F9000 X54.275 Y121.087
G1 F1080 X67.53 Y107.831 E1026.86182
G0 F9000 X67.438 Y107.358
G1 F1080 X54.275 Y120.521 E1027.79054
G0 F9000 X54.275 Y119.955
G1 F1080 X67.345 Y106.885 E1028.7127
G0 F9000 X67.269 Y106.396
G1 F1080 X54.275 Y119.39 E1029.6295
G0 F9000 X54.275 Y118.824
G1 F1080 X67.199 Y105.899 E1030.54139
G0 F9000 X67.139 Y105.394
G1 F1080 X54.275 Y118.258 E1031.44902
G0 F9000 X54.275 Y117.692
G1 F1080 X67.096 Y104.871 E1032.35361
G0 F9000 X67.054 Y104.348
G1 F1080 X54.275 Y117.127 E1033.25524
G0 F9000 X54.275 Y116.561
G1 F1080 X67.037 Y103.799 E1034.15566
G0 F9000 X67.023 Y103.248
G1 F1080 X54.275 Y115.995 E1035.05507
G0 F9000 X54.275 Y115.43
G1 F1080 X67.029 Y102.676 E1035.95493
G0 F9000 X67.047 Y102.092
G1 F1080 X54.275 Y114.864 E1036.85607
G0 F9000 X54.275 Y114.298
G1 F1080 X67.082 Y101.491 E1037.75967
G0 F9000 X67.135 Y100.873
G1 F1080 X54.275 Y113.733 E1038.66701
G0 F9000 X54.275 Y113.167
G1 F1080 X67.209 Y100.233 E1039.57958
G0 F9000 X67.305 Y99.571
G1 F1080 X54.275 Y112.601 E1040.49891
G0 F9000 X54.275 Y112.036
G1 F1080 X67.429 Y98.881 E1041.42703
G0 F9000 X67.571 Y98.174
G1 F1080 X54.275 Y111.47 E1042.36514
G0 F9000 X54.275 Y110.904
G1 F1080 X67.765 Y97.414 E1043.31693
G0 F9000 X67.987 Y96.626
G1 F1080 X54.275 Y110.339 E1044.28442
G0 F9000 X54.275 Y109.773
G1 F1080 X68.256 Y95.792 E1045.27086
G0 F9000 X68.601 Y94.881
G1 F1080 X54.275 Y109.207 E1046.28163
G0 F9000 X54.275 Y108.642
G1 F1080 X69.024 Y93.892 E1047.32229
G0 F9000 X69.566 Y92.785
G1 F1080 X54.275 Y108.076 E1048.40115
G0 F9000 X54.275 Y107.51
G1 F1080 X70.311 Y91.474 E1049.53258
G1 F1800 E1046.53258
G1 Z0.8
G0 F9000 X71.547 Y89.673
G1 Z0.3
G1 F1800 E1049.53258
G1 F1080 X54.275 Y106.944 E1050.75118
G0 F9000 X54.275 Y106.379
G1 F1080 X92.5 Y68.154 E1053.44816
G0 F9000 X91.934 Y68.154
G1 F1080 X54.275 Y105.813 E1056.1052
G0 F9000 X54.275 Y105.247
G1 F1080 X91.368 Y68.154 E1058.72231
G0 F9000 X90.803 Y68.154
G1 F1080 X54.275 Y104.682 E1061.29956
G0 F9000 X54.275 Y104.116
G1 F1080 X90.237 Y68.154 E1063.83687
G0 F9000 X89.671 Y68.154
G1 F1080 X54.275 Y103.55 E1066.33425
G0 F9000 X54.275 Y102.985
G1 F1080 X89.106 Y68.154 E1068.79177
G0 F9000 X88.54 Y68.154
G1 F1080 X54.275 Y102.419 E1071.20935
G0 F9000 X54.275 Y101.853
G1 F1080 X87.974 Y68.154 E1073.587
G0 F9000 X87.409 Y68.154
G1 F1080 X54.275 Y101.288 E1075.92478
G0 F9000 X54.275 Y100.722
G1 F1080 X86.843 Y68.154 E1078.22263
G0 F9000 X86.277 Y68.154
G1 F1080 X54.275 Y100.156 E1080.48054
G0 F9000 X54.275 Y99.591
G1 F1080 X85.711 Y68.154 E1082.69856
G0 F9000 X85.146 Y68.154
G1 F1080 X54.275 Y99.025 E1084.87667
G0 F9000 X54.275 Y98.459
G1 F1080 X84.58 Y68.154 E1087.01485
G0 F9000 X84.014 Y68.154
G1 F1080 X54.275 Y97.893 E1089.1131
G0 F9000 X54.275 Y97.328
G1 F1080 X83.449 Y68.154 E1091.17148
G0 F9000 X82.883 Y68.154
G1 F1080 X54.275 Y96.762 E1093.18993
G0 F9000 X54.275 Y96.196
G1 F1080 X82.317 Y68.154 E1095.16845
G0 F9000 X81.752 Y68.154
G1 F1080 X54.275 Y95.631 E1097.1071
G0 F9000 X54.275 Y95.065
G1 F1080 X81.186 Y68.154 E1099.00581
G0 F9000 X80.62 Y68.154
G1 F1080 X54.275 Y94.499 E1100.8646
G0 F9000 X54.275 Y93.934
G1 F1080 X80.055 Y68.154 E1102.68351
G0 F9000 X79.489 Y68.154
G1 F1080 X54.275 Y93.368 E1104.4625
G0 F9000 X54.275 Y92.802
G1 F1080 X78.923 Y68.154 E1106.20155
G0 F9000 X78.358 Y68.154
G1 F1080 X54.275 Y92.237 E1107.90073
G0 F9000 X54.275 Y91.671
G1 F1080 X77.792 Y68.154 E1109.55999
G0 F9000 X77.226 Y68.154
G1 F1080 X54.275 Y91.105 E1111.1793
G0 F9000 X54.275 Y90.54
G1 F1080 X76.66 Y68.154 E1112.75872
G0 F9000 X76.095 Y68.154
G1 F1080 X54.275 Y89.974 E1114.29824
G0 F9000 X54.275 Y89.408
G1 F1080 X75.529 Y68.154 E1115.79782
G0 F9000 X74.963 Y68.154
G1 F1080 X54.275 Y88.843 E1117.25751
G0 F9000 X54.275 Y88.277
G1 F1080 X74.398 Y68.154 E1118.6773
G0 F9000 X73.832 Y68.154
G1 F1080 X54.275 Y87.711 E1120.05715
G0 F9000 X54.275 Y87.145
G1 F1080 X73.266 Y68.154 E1121.39706
G0 F9000 X72.701 Y68.154
G1 F1080 X54.275 Y86.58 E1122.69712
G0 F9000 X54.275 Y86.014
G1 F1080 X72.135 Y68.154 E1123.95724
G0 F9000 X71.569 Y68.154
G1 F1080 X54.275 Y85.448 E1125.17742
G0 F9000 X54.275 Y84.883
G1 F1080 X71.004 Y68.154 E1126.35774
G0 F9000 X70.438 Y68.154
G1 F1080 X54.275 Y84.317 E1127.49813
G0 F9000 X54.275 Y83.751
G1 F1080 X69.872 Y68.154 E1128.59858
G0 F9000 X69.307 Y68.154
G1 F1080 X54.275 Y83.186 E1129.65917
G0 F9000 X54.275 Y82.62
G1 F1080 X68.741 Y68.154 E1130.67983
G0 F9000 X68.175 Y68.154
G1 F1080 X54.275 Y82.054 E1131.66055
G0 F9000 X54.275 Y81.489
G1 F1080 X67.61 Y68.154 E1132.6014
G0 F9000 X67.044 Y68.154
G1 F1080 X54.275 Y80.923 E1133.50233
G0 F9000 X54.275 Y80.357
G1 F1080 X66.478 Y68.154 E1134.36331
G0 F9000 X65.912 Y68.154
G1 F1080 X54.275 Y79.792 E1135.1844
G0 F9000 X54.275 Y79.226
G1 F1080 X65.347 Y68.154 E1135.96559
G0 F9000 X64.781 Y68.154
G1 F1080 X54.275 Y78.66 E1136.70685
G0 F9000 X54.275 Y78.094
G1 F1080 X64.215 Y68.154 E1137.40817
G0 F9000 X63.643 Y68.161
G1 F1080 X54.283 Y77.52 E1138.06853
G0 F9000 X54.308 Y76.93
G1 F1080 X63.05 Y68.188 E1138.68533
G0 F9000 X62.408 Y68.264
G1 F1080 X54.383 Y76.289 E1139.25153
G0 F9000 X54.517 Y75.589
G1 F1080 X61.712 Y68.395 E1139.75914
G0 F9000 X60.934 Y68.607
G1 F1080 X54.725 Y74.816 E1140.19722
G0 F9000 X55.068 Y73.908
G1 F1080 X60.033 Y68.942 E1140.54756
G0 F9000 X58.862 Y69.548
G1 F1080 X55.662 Y72.748 E1140.77334
; Layer Change GCode
; LAYER:1
; LAYER_HEIGHT:0.3
; TYPE:FILL
G1 F1800 E1137.77334
G1 Z0.8
G0 F9000 X55.662 Y72.748 Z1.1
G0 X89.652 Y81.574
G0 X96.179 Y82.742
G0 X100.788 Y85.046
G0 X106.521 Y90.749
G0 X111.581 Y98.339
G0 X121.717 Y111.817
G0 X124.724 Y116.402
G0 X130.397 Y121.526
G0 X135.434 Y123.658
G0 X140.635 Y124.453
G0 X141.291 Y124.313
; TYPE:WALL-INNER
G1 Z0.6
G1 F1800 E1140.77334
G1 F3600 X140.101 Y124.279 E1140.83274
G1 X138.915 Y124.179 E1140.89212
G1 X137.736 Y124.014 E1140.95151
G1 X136.571 Y123.781 E1141.01078
G1 X135.418 Y123.485 E1141.07017
G1 X134.284 Y123.124 E1141.12954
G1 X133.172 Y122.698 E1141.18895
G1 X132.087 Y122.213 E1141.24825
G1 X131.029 Y121.666 E1141.30767
G1 X130.004 Y121.061 E1141.36705
G1 X129.015 Y120.401 E1141.42637
G1 X128.064 Y119.685 E1141.48576
G1 X127.155 Y118.918 E1141.54509
G1 X126.29 Y118.101 E1141.60446
G1 X125.472 Y117.236 E1141.66385
G1 X124.705 Y116.326 E1141.72323
G1 X123.989 Y115.375 E1141.78262
G1 X123.329 Y114.386 E1141.84194
G1 X122.724 Y113.361 E1141.90132
G1 X122.177 Y112.303 E1141.96074
G1 X121.692 Y111.218 E1142.02003
G1 X121.266 Y110.106 E1142.07944
G1 X120.905 Y108.972 E1142.13881
G1 X120.609 Y107.819 E1142.1982
G1 X120.376 Y106.654 E1142.25747
G1 X120.211 Y105.475 E1142.31687
G1 X120.111 Y104.289 E1142.37625
G1 X120.077 Y103.099 E1142.43564
G1 X120.111 Y101.91 E1142.49499
G1 X120.211 Y100.724 E1142.55437
G1 X120.376 Y99.545 E1142.61376
G1 X120.609 Y98.38 E1142.67303
G1 X120.905 Y97.227 E1142.73242
G1 X121.266 Y96.093 E1142.79179
G1 X121.692 Y94.981 E1142.8512
G1 X122.177 Y93.896 E1142.9105
G1 X122.724 Y92.838 E1142.96992
G1 X123.329 Y91.813 E1143.0293
G1 X123.989 Y90.824 E1143.08862
G1 X124.705 Y89.873 E1143.14801
G1 X125.472 Y88.963 E1143.20738
G1 X126.29 Y88.098 E1143.26678
G1 X127.155 Y87.281 E1143.32614
G1 X128.064 Y86.514 E1143.38548
G1 X129.015 Y85.798 E1143.44487
G1 X130.004 Y85.138 E1143.50419
G1 X131.029 Y84.533 E1143.56357
G1 X132.087 Y83.986 E1143.62299
G1 X133.172 Y83.501 E1143.68228
G1 X134.284 Y83.075 E1143.74169
G1 X135.418 Y82.714 E1143.80106
G1 X136.571 Y82.418 E1143.86045
G1 X137.736 Y82.185 E1143.91972
G1 X138.915 Y82.02 E1143.97912
G1 X140.101 Y81.92 E1144.0385
G1 X141.291 Y81.886 E1144.09789
G1 X142.48 Y81.92 E1144.15724
G1 X143.666 Y82.02 E1144.21662
G1 X144.845 Y82.185 E1144.27601
G1 X146.01 Y82.418 E1144.33528
G1 X147.163 Y82.714 E1144.39467
G1 X148.297 Y83.075 E1144.45404
G1 X149.409 Y83.501 E1144.51345
G1 X150.494 Y83.986 E1144.57275
G1 X151.552 Y84.533 E1144.63217
G1 X152.577 Y85.138 E1144.69155
G1 X153.566 Y85.798 E1144.75087
G1 X154.517 Y86.514 E1144.81026
G1 X155.427 Y87.281 E1144.86963
G1 X156.291 Y88.099 E1144.92899
G1 X157.109 Y88.963 E1144.98835
G1 X157.876 Y89.873 E1145.04773
G1 X158.592 Y90.824 E1145.10712
G1 X159.252 Y91.813 E1145.16644
G1 X159.857 Y92.838 E1145.22582
G1 X160.404 Y93.896 E1145.28524
G1 X160.889 Y94.981 E1145.34453
G1 X161.315 Y96.093 E1145.40394
G1 X161.676 Y97.227 E1145.46331
G1 X161.972 Y98.38 E1145.5227
G1 X162.205 Y99.545 E1145.58197
G1 X162.37 Y100.724 E1145.64137
G1 X162.47 Y101.91 E1145.70075
G1 X162.504 Y103.099 E1145.76009
G1 X162.47 Y104.289 E1145.81949
G1 X162.37 Y105.475 E1145.87887
G1 X162.205 Y106.654 E1145.93826
G1 X161.972 Y107.819 E1145.99753
G1 X161.676 Y108.972 E1146.05692
G1 X161.315 Y110.106 E1146.11629
G1 X160.889 Y111.218 E1146.1757
G1 X160.404 Y112.303 E1146.235
G1 X159.857 Y113.361 E1146.29442
G1 X159.252 Y114.386 E1146.3538
G1 X158.592 Y115.375 E1146.41312
G1 X157.876 Y116.326 E1146.47251
G1 X157.109 Y117.236 E1146.53188
G1 X156.291 Y118.1 E1146.59124
G1 X155.427 Y118.918 E1146.6506
G1 X154.517 Y119.685 E1146.70998
G1 X153.566 Y120.401 E1146.76937
G1 X152.577 Y121.061 E1146.82869
G1 X151.552 Y121.666 E1146.88807
G1 X150.494 Y122.213 E1146.94749
G1 X149.409 Y122.698 E1147.00678
G1 X148.297 Y123.124 E1147.06619
G1 X147.163 Y123.485 E1147.12556
G1 X146.01 Y123.781 E1147.18495
G1 X144.845 Y124.014 E1147.24422
G1 X143.666 Y124.179 E1147.30362
G1 X142.48 Y124.279 E1147.363
G1 X141.33 Y124.311 E1147.42039
G0 X141.291 Y124.313
G0 F9000 X141.291 Y123.913
; TYPE:WALL-OUTER
G1 F3000 X140.124 Y123.88 E1147.47864
G1 X138.96 Y123.782 E1147.53692
G1 X137.803 Y123.619 E1147.59521
G1 X136.66 Y123.391 E1147.65336
G1 X135.529 Y123.1 E1147.71162
G1 X134.416 Y122.746 E1147.76989
G1 X133.325 Y122.329 E1147.82816
G1 X132.26 Y121.852 E1147.88638
G1 X131.222 Y121.316 E1147.94466
G1 X130.217 Y120.722 E1148.0029
G1 X129.246 Y120.074 E1148.06115
G1 X128.313 Y119.372 E1148.1194
G1 X127.422 Y118.619 E1148.1776
G1 X126.573 Y117.818 E1148.23583
G1 X125.771 Y116.969 E1148.2941
G1 X125.018 Y116.077 E1148.35234
G1 X124.316 Y115.144 E1148.41059
G1 X123.668 Y114.173 E1148.46883
G1 X123.074 Y113.168 E1148.52707
G1 X122.538 Y112.13 E1148.58535
G1 X122.061 Y111.065 E1148.64357
G1 X121.644 Y109.974 E1148.70184
G1 X121.29 Y108.861 E1148.76011
G1 X120.999 Y107.73 E1148.81838
G1 X120.771 Y106.587 E1148.87652
G1 X120.608 Y105.43 E1148.93482
G1 X120.51 Y104.266 E1148.99309
G1 X120.477 Y103.099 E1149.05134
G1 X120.51 Y101.933 E1149.10953
G1 X120.608 Y100.769 E1149.16781
G1 X120.771 Y99.612 E1149.22611
G1 X120.999 Y98.469 E1149.28425
G1 X121.29 Y97.338 E1149.34252
G1 X121.644 Y96.225 E1149.40079
G1 X122.061 Y95.134 E1149.45906
G1 X122.538 Y94.069 E1149.51728
G1 X123.074 Y93.031 E1149.57556
G1 X123.668 Y92.026 E1149.6338
G1 X124.316 Y91.055 E1149.69204
G1 X125.018 Y90.122 E1149.75029
G1 X125.771 Y89.23 E1149.80853
G1 X126.573 Y88.381 E1149.8668
G1 X127.422 Y87.58 E1149.92503
G1 X128.313 Y86.827 E1149.98323
G1 X129.246 Y86.125 E1150.04148
G1 X130.217 Y85.477 E1150.09972
G1 X131.222 Y84.883 E1150.15797
G1 X132.26 Y84.347 E1150.21625
G1 X133.325 Y83.87 E1150.27447
G1 X134.416 Y83.453 E1150.33274
G1 X135.529 Y83.099 E1150.39101
G1 X136.66 Y82.808 E1150.44927
G1 X137.803 Y82.58 E1150.50742
G1 X138.96 Y82.417 E1150.56571
G1 X140.124 Y82.319 E1150.62399
G1 X141.291 Y82.286 E1150.68223
G1 X142.457 Y82.319 E1150.74043
G1 X143.621 Y82.417 E1150.79871
G1 X144.778 Y82.58 E1150.857
G1 X145.921 Y82.808 E1150.91515
G1 X147.052 Y83.099 E1150.97341
G1 X148.165 Y83.453 E1151.03168
G1 X149.256 Y83.87 E1151.08995
G1 X150.321 Y84.347 E1151.14817
G1 X151.359 Y84.883 E1151.20645
G1 X152.364 Y85.477 E1151.2647
G1 X153.335 Y86.125 E1151.32294
G1 X154.268 Y86.827 E1151.38119
G1 X155.16 Y87.58 E1151.43943
G1 X156.008 Y88.382 E1151.49766
G1 X156.81 Y89.23 E1151.55589
G1 X157.563 Y90.122 E1151.61413
G1 X158.265 Y91.055 E1151.67238
G1 X158.913 Y92.026 E1151.73062
G1 X159.507 Y93.031 E1151.78886
G1 X160.043 Y94.069 E1151.84714
G1 X160.52 Y95.134 E1151.90536
G1 X160.937 Y96.225 E1151.96363
G1 X161.291 Y97.338 E1152.0219
G1 X161.582 Y98.469 E1152.08017
G1 X161.81 Y99.612 E1152.13831
G1 X161.973 Y100.769 E1152.19661
G1 X162.071 Y101.933 E1152.25488
G1 X162.104 Y103.099 E1152.31308
G1 X162.071 Y104.266 E1152.37133
G1 X161.973 Y105.43 E1152.4296
G1 X161.81 Y106.587 E1152.4879
G1 X161.582 Y107.73 E1152.54604
G1 X161.291 Y108.861 E1152.60431
G1 X160.937 Y109.974 E1152.66258
G1 X160.52 Y111.065 E1152.72085
G1 X160.043 Y112.13 E1152.77907
G1 X159.507 Y113.168 E1152.83735
G1 X158.913 Y114.173 E1152.89559
G1 X158.265 Y115.144 E1152.95383
G1 X157.563 Y116.077 E1153.01208
G1 X156.81 Y116.969 E1153.07032
G1 X156.008 Y117.817 E1153.12855
G1 X155.16 Y118.619 E1153.18678
G1 X154.268 Y119.372 E1153.24502
G1 X153.335 Y120.074 E1153.30327
G1 X152.364 Y120.722 E1153.36151
G1 X151.359 Y121.316 E1153.41976
G1 X150.321 Y121.852 E1153.47804
G1 X149.256 Y122.329 E1153.53626
G1 X148.165 Y122.746 E1153.59453
G1 X147.052 Y123.1 E1153.6528
G1 X145.921 Y123.391 E1153.71106
G1 X144.778 Y123.619 E1153.76921
G1 X143.621 Y123.782 E1153.8275
G1 X142.457 Y123.88 E1153.88578
G1 X141.33 Y123.911 E1153.94203
G0 X141.291 Y123.913
G0 X140.124 Y123.88
G0 X138.96 Y123.782
G0 X138.302 Y123.69
G0 F9000 X141.291 Y124.313
G1 F1800 E1150.94203
G1 Z1.1
G0 F9000 X141.291 Y124.463
G0 X89.221 Y124.313
; TYPE:WALL-INNER
G1 Z0.6
G1 F1800 E1153.94203
G1 F3600 X88.031 Y124.279 E1154.00142
G1 X86.845 Y124.179 E1154.0608
G1 X85.666 Y124.014 E1154.12019
G1 X84.501 Y123.781 E1154.17947
G1 X83.348 Y123.485 E1154.23886
G1 X82.214 Y123.124 E1154.29823
G1 X81.102 Y122.698 E1154.35764
G1 X80.017 Y122.213 E1154.41693
G1 X78.959 Y121.666 E1154.47635
G1 X77.934 Y121.061 E1154.53573
G1 X76.945 Y120.401 E1154.59505
G1 X75.994 Y119.685 E1154.65444
G1 X75.085 Y118.918 E1154.71378
G1 X74.22 Y118.101 E1154.77314
G1 X73.402 Y117.236 E1154.83254
G1 X72.635 Y116.326 E1154.89191
G1 X71.919 Y115.375 E1154.9513
G1 X71.259 Y114.386 E1155.01062
G1 X70.654 Y113.361 E1155.07
G1 X70.107 Y112.303 E1155.12942
G1 X69.622 Y111.218 E1155.18872
G1 X69.196 Y110.106 E1155.24813
G1 X68.835 Y108.972 E1155.3075
G1 X68.539 Y107.819 E1155.36689
G1 X68.306 Y106.654 E1155.42616
G1 X68.141 Y105.475 E1155.48555
G1 X68.041 Y104.289 E1155.54493
G1 X68.007 Y103.099 E1155.60433
G1 X68.041 Y101.91 E1155.66367
G1 X68.141 Y100.724 E1155.72305
G1 X68.306 Y99.545 E1155.78244
G1 X68.539 Y98.38 E1155.84172
G1 X68.835 Y97.227 E1155.90111
G1 X69.196 Y96.093 E1155.96048
G1 X69.622 Y94.981 E1156.01989
G1 X70.107 Y93.896 E1156.07918
G1 X70.654 Y92.838 E1156.1386
G1 X71.259 Y91.813 E1156.19798
G1 X71.919 Y90.824 E1156.2573
G1 X72.635 Y89.873 E1156.31669
G1 X73.402 Y88.963 E1156.37607
G1 X74.22 Y88.098 E1156.43546
G1 X75.085 Y87.281 E1156.49482
G1 X75.994 Y86.514 E1156.55416
G1 X76.945 Y85.798 E1156.61355
G1 X77.934 Y85.138 E1156.67287
G1 X78.959 Y84.533 E1156.73225
G1 X80.017 Y83.986 E1156.79167
G1 X81.102 Y83.501 E1156.85097
G1 X82.214 Y83.075 E1156.91038
G1 X83.348 Y82.714 E1156.96975
G1 X84.501 Y82.418 E1157.02914
G1 X85.666 Y82.185 E1157.08841
G1 X86.845 Y82.02 E1157.1478
G1 X88.031 Y81.92 E1157.20718
G1 X89.221 Y81.886 E1157.26658
G1 X90.41 Y81.92 E1157.32592
G1 X91.596 Y82.02 E1157.3853
G1 X92.775 Y82.185 E1157.44469
G1 X93.94 Y82.418 E1157.50397
G1 X95.093 Y82.714 E1157.56336
G1 X96.227 Y83.075 E1157.62273
G1 X97.339 Y83.501 E1157.68214
G1 X98.424 Y83.986 E1157.74143
G1 X99.482 Y84.533 E1157.80085
G1 X100.507 Y85.138 E1157.86023
G1 X101.496 Y85.798 E1157.91955
G1 X102.447 Y86.514 E1157.97894
G1 X103.357 Y87.281 E1158.03832
G1 X104.221 Y88.099 E1158.09768
G1 X105.039 Y88.963 E1158.15704
G1 X105.806 Y89.873 E1158.21641
G1 X106.522 Y90.824 E1158.2758
G1 X107.182 Y91.813 E1158.33512
G1 X107.787 Y92.838 E1158.3945
G1 X108.334 Y93.896 E1158.45392
G1 X108.819 Y94.981 E1158.51322
G1 X109.245 Y96.093 E1158.57263
G1 X109.606 Y97.227 E1158.632
G1 X109.902 Y98.38 E1158.69139
G1 X110.135 Y99.545 E1158.75066
G1 X110.3 Y100.724 E1158.81005
G1 X110.4 Y101.91 E1158.86943
G1 X110.434 Y103.099 E1158.92878
G1 X110.4 Y104.289 E1158.98817
G1 X110.3 Y105.475 E1159.04755
G1 X110.135 Y106.654 E1159.10694
G1 X109.902 Y107.819 E1159.16622
G1 X109.606 Y108.972 E1159.22561
G1 X109.245 Y110.106 E1159.28498
G1 X108.819 Y111.218 E1159.34439
G1 X108.334 Y112.303 E1159.40368
G1 X107.787 Y113.361 E1159.4631
G1 X107.182 Y114.386 E1159.52248
G1 X106.522 Y115.375 E1159.5818
G1 X105.806 Y116.326 E1159.64119
G1 X105.039 Y117.236 E1159.70057
G1 X104.221 Y118.1 E1159.75993
G1 X103.357 Y118.918 E1159.81929
G1 X102.447 Y119.685 E1159.87866
G1 X101.496 Y120.401 E1159.93805
G1 X100.507 Y121.061 E1159.99737
G1 X99.482 Y121.666 E1160.05675
G1 X98.424 Y122.213 E1160.11617
G1 X97.339 Y122.698 E1160.17547
G1 X96.227 Y123.124 E1160.23488
G1 X95.093 Y123.485 E1160.29425
G1 X93.94 Y123.781 E1160.35364
G1 X92.775 Y124.014 E1160.41291
G1 X91.596 Y124.179 E1160.4723
G1 X90.41 Y124.279 E1160.53168
G1 X89.26 Y124.311 E1160.58908
G0 X89.221 Y124.313
G0 F9000 X89.221 Y123.913
; TYPE:WALL-OUTER
G1 F3000 X88.054 Y123.88 E1160.64732
G1 X86.89 Y123.782 E1160.7056
G1 X85.733 Y123.619 E1160.7639
G1 X84.59 Y123.391 E1160.82204
G1 X83.459 Y123.1 E1160.88031
G1 X82.346 Y122.746 E1160.93858
G1 X81.255 Y122.329 E1160.99685
G1 X80.19 Y121.852 E1161.05507
G1 X79.152 Y121.316 E1161.11335
G1 X78.147 Y120.722 E1161.17159
G1 X77.176 Y120.074 E1161.22983
G1 X76.243 Y119.372 E1161.28808
G1 X75.352 Y118.619 E1161.34628
G1 X74.503 Y117.818 E1161.40452
G1 X73.701 Y116.969 E1161.46278
G1 X72.948 Y116.077 E1161.52102
G1 X72.246 Y115.144 E1161.57927
G1 X71.598 Y114.173 E1161.63751
G1 X71.004 Y113.168 E1161.69576
G1 X70.468 Y112.13 E1161.75404
G1 X69.991 Y111.065 E1161.81226
G1 X69.574 Y109.974 E1161.87053
G1 X69.22 Y108.861 E1161.9288
G1 X68.929 Y107.73 E1161.98706
G1 X68.701 Y106.587 E1162.04521
G1 X68.538 Y105.43 E1162.1035
G1 X68.44 Y104.266 E1162.16178
G1 X68.407 Y103.099 E1162.22003
G1 X68.44 Y101.933 E1162.27822
G1 X68.538 Y100.769 E1162.3365
G1 X68.701 Y99.612 E1162.39479
G1 X68.929 Y98.469 E1162.45294
G1 X69.22 Y97.338 E1162.5112
G1 X69.574 Y96.225 E1162.56947
G1 X69.991 Y95.134 E1162.62774
G1 X70.468 Y94.069 E1162.68596
G1 X71.004 Y93.031 E1162.74424
G1 X71.598 Y92.026 E1162.80249
G1 X72.246 Y91.055 E1162.86073
G1 X72.948 Y90.122 E1162.91898
G1 X73.701 Y89.23 E1162.97722
G1 X74.503 Y88.381 E1163.03548
G1 X75.352 Y87.58 E1163.09372
G1 X76.243 Y86.827 E1163.15192
G1 X77.176 Y86.125 E1163.21017
G1 X78.147 Y85.477 E1163.26841
G1 X79.152 Y84.883 E1163.32665
G1 X80.19 Y84.347 E1163.38493
G1 X81.255 Y83.87 E1163.44315
G1 X82.346 Y83.453 E1163.50142
G1 X83.459 Y83.099 E1163.55969
G1 X84.59 Y82.808 E1163.61796
G1 X85.733 Y82.58 E1163.6761
G1 X86.89 Y82.417 E1163.7344
G1 X88.054 Y82.319 E1163.79268
G1 X89.221 Y82.286 E1163.85092
G1 X90.387 Y82.319 E1163.90912
G1 X91.551 Y82.417 E1163.96739
G1 X92.708 Y82.58 E1164.02569
G1 X93.851 Y82.808 E1164.08383
G1 X94.982 Y83.099 E1164.1421
G1 X96.095 Y83.453 E1164.20037
G1 X97.186 Y83.87 E1164.25864
G1 X98.251 Y84.347 E1164.31686
G1 X99.289 Y84.883 E1164.37514
G1 X100.294 Y85.477 E1164.43338
G1 X101.265 Y86.125 E1164.49162
G1 X102.198 Y86.827 E1164.54987
G1 X103.09 Y87.58 E1164.60811
G1 X103.938 Y88.382 E1164.66634
G1 X104.74 Y89.23 E1164.72457
G1 X105.493 Y90.122 E1164.78281
G1 X106.195 Y91.055 E1164.84106
G1 X106.843 Y92.026 E1164.8993
G1 X107.437 Y93.031 E1164.95755
G1 X107.973 Y94.069 E1165.01583
G1 X108.45 Y95.134 E1165.07405
G1 X108.867 Y96.225 E1165.13232
G1 X109.221 Y97.338 E1165.19059
G1 X109.512 Y98.469 E1165.24885
G1 X109.74 Y99.612 E1165.307
G1 X109.903 Y100.769 E1165.36529
G1 X110.001 Y101.933 E1165.42357
G1 X110.034 Y103.099 E1165.48177
G1 X110.001 Y104.266 E1165.54001
G1 X109.903 Y105.43 E1165.59829
G1 X109.74 Y106.587 E1165.65658
G1 X109.512 Y107.73 E1165.71473
G1 X109.221 Y108.861 E1165.77299
G1 X108.867 Y109.974 E1165.83126
G1 X108.45 Y111.065 E1165.88953
G1 X107.973 Y112.13 E1165.94775
G1 X107.437 Y113.168 E1166.00603
G1 X106.843 Y114.173 E1166.06428
G1 X106.195 Y115.144 E1166.12252
G1 X105.493 Y116.077 E1166.18077
G1 X104.74 Y116.969 E1166.23901
G1 X103.938 Y117.817 E1166.29724
G1 X103.09 Y118.619 E1166.35547
G1 X102.198 Y119.372 E1166.41371
G1 X101.265 Y120.074 E1166.47196
G1 X100.294 Y120.722 E1166.5302
G1 X99.289 Y121.316 E1166.58844
G1 X98.251 Y121.852 E1166.64673
G1 X97.186 Y122.329 E1166.70494
G1 X96.095 Y122.746 E1166.76321
G1 X94.982 Y123.1 E1166.82148
G1 X93.851 Y123.391 E1166.87975
G1 X92.708 Y123.619 E1166.9379
G1 X91.551 Y123.782 E1166.99619
G1 X90.387 Y123.88 E1167.05447
G1 X89.26 Y123.911 E1167.11071
G0 X89.221 Y123.913
G0 X88.054 Y123.88
G0 X86.89 Y123.782
G0 X86.232 Y123.69
G0 F9000 X89.221 Y124.313
G1 F1800 E1164.11071
G1 Z1.1
G0 F9000 X89.221 Y124.463
G0 X101.505 Y137.678
G0 X105.787 Y141.867
G0 X108.393 Y145.626
G0 X110.454 Y152.561
G0 X110.346 Y158.996
G0 X107.689 Y165.907
G0 X102.805 Y171.47
G0 X98.614 Y174.192
G0 X93.152 Y176.175
G0 X89.221 Y176.383
; TYPE:WALL-INNER
G1 Z0.6
G1 F1800 E1167.11071
G1 F3600 X88.031 Y176.349 E1167.17011
G1 X86.845 Y176.249 E1167.22949
G1 X85.666 Y176.084 E1167.28888
G1 X84.501 Y175.851 E1167.34815
G1 X83.348 Y175.555 E1167.40754
G1 X82.214 Y175.194 E1167.46692
G1 X81.102 Y174.768 E1167.52632
G1 X80.017 Y174.283 E1167.58562
G1 X78.959 Y173.736 E1167.64504
G1 X77.934 Y173.131 E1167.70442
G1 X76.945 Y172.471 E1167.76374
G1 X75.994 Y171.755 E1167.82313
G1 X75.085 Y170.988 E1167.88247
G1 X74.22 Y170.171 E1167.94183
G1 X73.402 Y169.306 E1168.00122
G1 X72.635 Y168.396 E1168.0606
G1 X71.919 Y167.445 E1168.11999
G1 X71.259 Y166.456 E1168.17931
G1 X70.654 Y165.431 E1168.23869
G1 X70.107 Y164.373 E1168.29811
G1 X69.622 Y163.288 E1168.3574
G1 X69.196 Y162.176 E1168.41681
G1 X68.835 Y161.042 E1168.47618
G1 X68.539 Y159.889 E1168.53557
G1 X68.306 Y158.724 E1168.59485
G1 X68.141 Y157.545 E1168.65424
G1 X68.041 Y156.359 E1168.71362
G1 X68.007 Y155.169 E1168.77301
G1 X68.041 Y153.98 E1168.83236
G1 X68.141 Y152.794 E1168.89174
G1 X68.306 Y151.615 E1168.95113
G1 X68.539 Y150.45 E1169.0104
G1 X68.835 Y149.297 E1169.06979
G1 X69.196 Y148.163 E1169.12917
G1 X69.622 Y147.051 E1169.18857
G1 X70.107 Y145.966 E1169.24787
G1 X70.654 Y144.908 E1169.30729
G1 X71.259 Y143.883 E1169.36667
G1 X71.919 Y142.894 E1169.42599
G1 X72.635 Y141.943 E1169.48538
G1 X73.402 Y141.033 E1169.54475
G1 X74.22 Y140.168 E1169.60415
G1 X75.085 Y139.351 E1169.66351
G1 X75.994 Y138.584 E1169.72285
G1 X76.945 Y137.868 E1169.78224
G1 X77.934 Y137.208 E1169.84156
G1 X78.959 Y136.603 E1169.90094
G1 X80.017 Y136.056 E1169.96036
G1 X81.102 Y135.571 E1170.01965
G1 X82.214 Y135.145 E1170.07906
G1 X83.348 Y134.784 E1170.13843
G1 X84.501 Y134.488 E1170.19782
G1 X85.666 Y134.255 E1170.2571
G1 X86.845 Y134.09 E1170.31649
G1 X88.031 Y133.99 E1170.37587
G1 X89.221 Y133.956 E1170.43526
G1 X90.41 Y133.99 E1170.49461
G1 X91.596 Y134.09 E1170.55399
G1 X92.775 Y134.255 E1170.61338
G1 X93.94 Y134.488 E1170.67265
G1 X95.093 Y134.784 E1170.73204
G1 X96.227 Y135.145 E1170.79142
G1 X97.339 Y135.571 E1170.85082
G1 X98.424 Y136.056 E1170.91012
G1 X99.482 Y136.603 E1170.96954
G1 X100.507 Y137.208 E1171.02892
G1 X101.496 Y137.868 E1171.08824
G1 X102.447 Y138.584 E1171.14763
G1 X103.357 Y139.351 E1171.207
G1 X104.221 Y140.169 E1171.26636
G1 X105.039 Y141.033 E1171.32572
G1 X105.806 Y141.943 E1171.3851
G1 X106.522 Y142.894 E1171.44449
G1 X107.182 Y143.883 E1171.50381
G1 X107.787 Y144.908 E1171.56319
G1 X108.334 Y145.966 E1171.62261
G1 X108.819 Y147.051 E1171.6819
G1 X109.245 Y148.163 E1171.74131
G1 X109.606 Y149.297 E1171.80068
G1 X109.902 Y150.45 E1171.86007
G1 X110.135 Y151.615 E1171.91935
G1 X110.3 Y152.794 E1171.97874
G1 X110.4 Y153.98 E1172.03812
G1 X110.434 Y155.169 E1172.09746
G1 X110.4 Y156.359 E1172.15686
G1 X110.3 Y157.545 E1172.21624
G1 X110.135 Y158.724 E1172.27563
G1 X109.902 Y159.889 E1172.3349
G1 X109.606 Y161.042 E1172.39429
G1 X109.245 Y162.176 E1172.45367
G1 X108.819 Y163.288 E1172.51307
G1 X108.334 Y164.373 E1172.57237
G1 X107.787 Y165.431 E1172.63179
G1 X107.182 Y166.456 E1172.69117
G1 X106.522 Y167.445 E1172.75049
G1 X105.806 Y168.396 E1172.80988
G1 X105.039 Y169.306 E1172.86925
G1 X104.221 Y170.17 E1172.92861
G1 X103.357 Y170.988 E1172.98797
G1 X102.447 Y171.755 E1173.04735
G1 X101.496 Y172.471 E1173.10674
G1 X100.507 Y173.131 E1173.16606
G1 X99.482 Y173.736 E1173.22544
G1 X98.424 Y174.283 E1173.28486
G1 X97.339 Y174.768 E1173.34415
G1 X96.227 Y175.194 E1173.40356
G1 X95.093 Y175.555 E1173.46293
G1 X93.94 Y175.851 E1173.52232
G1 X92.775 Y176.084 E1173.5816
G1 X91.596 Y176.249 E1173.64099
G1 X90.41 Y176.349 E1173.70037
G1 X89.26 Y176.381 E1173.75777
G0 X89.221 Y176.383
G0 F9000 X89.221 Y175.983
; TYPE:WALL-OUTER
G1 F3000 X88.054 Y175.95 E1173.81601
G1 X86.89 Y175.852 E1173.87429
G1 X85.733 Y175.689 E1173.93258
G1 X84.59 Y175.461 E1173.99073
G1 X83.459 Y175.17 E1174.04899
G1 X82.346 Y174.816 E1174.10726
G1 X81.255 Y174.399 E1174.16553
G1 X80.19 Y173.922 E1174.22375
G1 X79.152 Y173.386 E1174.28203
G1 X78.147 Y172.792 E1174.34028
G1 X77.176 Y172.144 E1174.39852
G1 X76.243 Y171.442 E1174.45677
G1 X75.352 Y170.689 E1174.51497
G1 X74.503 Y169.888 E1174.5732
G1 X73.701 Y169.039 E1174.63147
G1 X72.948 Y168.147 E1174.68971
G1 X72.246 Y167.214 E1174.74796
G1 X71.598 Y166.243 E1174.8062
G1 X71.004 Y165.238 E1174.86444
G1 X70.468 Y164.2 E1174.92273
G1 X69.991 Y163.135 E1174.98094
G1 X69.574 Y162.044 E1175.03921
G1 X69.22 Y160.931 E1175.09748
G1 X68.929 Y159.8 E1175.15575
G1 X68.701 Y158.657 E1175.2139
G1 X68.538 Y157.5 E1175.27219
G1 X68.44 Y156.336 E1175.33047
G1 X68.407 Y155.169 E1175.38871
G1 X68.44 Y154.003 E1175.44691
G1 X68.538 Y152.839 E1175.50518
G1 X68.701 Y151.682 E1175.56348
G1 X68.929 Y150.539 E1175.62162
G1 X69.22 Y149.408 E1175.67989
G1 X69.574 Y148.295 E1175.73816
G1 X69.991 Y147.204 E1175.79643
G1 X70.468 Y146.139 E1175.85465
G1 X71.004 Y145.101 E1175.91293
G1 X71.598 Y144.096 E1175.97117
G1 X72.246 Y143.125 E1176.02941
G1 X72.948 Y142.192 E1176.08766
G1 X73.701 Y141.3 E1176.1459
G1 X74.503 Y140.451 E1176.20417
G1 X75.352 Y139.65 E1176.2624
G1 X76.243 Y138.897 E1176.3206
G1 X77.176 Y138.195 E1176.37886
G1 X78.147 Y137.547 E1176.4371
G1 X79.152 Y136.953 E1176.49534
G1 X80.19 Y136.417 E1176.55362
G1 X81.255 Y135.94 E1176.61184
G1 X82.346 Y135.523 E1176.67011
G1 X83.459 Y135.169 E1176.72838
G1 X84.59 Y134.878 E1176.78664
G1 X85.733 Y134.65 E1176.84479
G1 X86.89 Y134.487 E1176.90308
G1 X88.054 Y134.389 E1176.96136
G1 X89.221 Y134.356 E1177.01961
G1 X90.387 Y134.389 E1177.0778
G1 X91.551 Y134.487 E1177.13608
G1 X92.708 Y134.65 E1177.19437
G1 X93.851 Y134.878 E1177.25252
G1 X94.982 Y135.169 E1177.31078
G1 X96.095 Y135.523 E1177.36905
G1 X97.186 Y135.94 E1177.42732
G1 X98.251 Y136.417 E1177.48554
G1 X99.289 Y136.953 E1177.54382
G1 X100.294 Y137.547 E1177.60207
G1 X101.265 Y138.195 E1177.66031
G1 X102.198 Y138.897 E1177.71856
G1 X103.09 Y139.65 E1177.7768
G1 X103.938 Y140.452 E1177.83503
G1 X104.74 Y141.3 E1177.89326
G1 X105.493 Y142.192 E1177.9515
G1 X106.195 Y143.125 E1178.00975
G1 X106.843 Y144.096 E1178.06799
G1 X107.437 Y145.101 E1178.12623
G1 X107.973 Y146.139 E1178.18452
G1 X108.45 Y147.204 E1178.24273
G1 X108.867 Y148.295 E1178.30101
G1 X109.221 Y149.408 E1178.35927
G1 X109.512 Y150.539 E1178.41754
G1 X109.74 Y151.682 E1178.47569
G1 X109.903 Y152.839 E1178.53398
G1 X110.001 Y154.003 E1178.59226
G1 X110.034 Y155.169 E1178.65045
G1 X110.001 Y156.336 E1178.7087
G1 X109.903 Y157.5 E1178.76697
G1 X109.74 Y158.657 E1178.82527
G1 X109.512 Y159.8 E1178.88342
G1 X109.221 Y160.931 E1178.94168
G1 X108.867 Y162.044 E1178.99995
G1 X108.45 Y163.135 E1179.05822
G1 X107.973 Y164.2 E1179.11644
G1 X107.437 Y165.238 E1179.17472
G1 X106.843 Y166.243 E1179.23296
G1 X106.195 Y167.214 E1179.2912
G1 X105.493 Y168.147 E1179.34945
G1 X104.74 Y169.039 E1179.40769
G1 X103.938 Y169.887 E1179.46592
G1 X103.09 Y170.689 E1179.52416
G1 X102.198 Y171.442 E1179.58239
G1 X101.265 Y172.144 E1179.64065
G1 X100.294 Y172.792 E1179.69889
G1 X99.289 Y173.386 E1179.75713
G1 X98.251 Y173.922 E1179.81541
G1 X97.186 Y174.399 E1179.87363
G1 X96.095 Y174.816 E1179.9319
G1 X94.982 Y175.17 E1179.99017
G1 X93.851 Y175.461 E1180.04843
G1 X92.708 Y175.689 E1180.10658
G1 X91.551 Y175.852 E1180.16487
G1 X90.387 Y175.95 E1180.22315
G1 X89.26 Y175.981 E1180.2794
G0 X89.221 Y175.983
G0 X88.054 Y175.95
G0 X86.89 Y175.852
G0 X86.232 Y175.76
G0 F9000 X89.221 Y176.383
G1 F1800 E1177.2794
G1 Z1.1
G0 F9000 X89.221 Y176.683
G0 X76.521 Y204.715
; TYPE:WALL-INNER
G1 Z0.6
G1 F1800 E1180.2794
G1 F3600 X75.216 Y204.678 E1180.34453
G1 X73.915 Y204.568 E1180.40967
G1 X72.639 Y204.388 E1180.47396
G1 X71.342 Y204.131 E1180.53993
G1 X70.092 Y203.807 E1180.60435
G1 X68.849 Y203.411 E1180.66943
G1 X67.626 Y202.944 E1180.73475
G1 X66.43 Y202.409 E1180.80011
G1 X65.289 Y201.82 E1180.86418
G1 X64.153 Y201.149 E1180.93
G1 X63.085 Y200.435 E1180.99409
G1 X62.02 Y199.635 E1181.06055
G1 X61.04 Y198.808 E1181.12452
G1 X60.09 Y197.909 E1181.18977
G1 X59.191 Y196.959 E1181.25503
G1 X58.364 Y195.979 E1181.319
G1 X57.561 Y194.911 E1181.38567
G1 X56.85 Y193.846 E1181.44955
G1 X56.179 Y192.71 E1181.51538
G1 X55.59 Y191.569 E1181.57944
G1 X55.055 Y190.373 E1181.6448
G1 X54.588 Y189.15 E1181.71012
G1 X54.192 Y187.907 E1181.7752
G1 X53.868 Y186.657 E1181.83962
G1 X53.61 Y185.354 E1181.90589
G1 X53.431 Y184.084 E1181.96988
G1 X53.321 Y182.783 E1182.03502
G1 X53.284 Y181.478 E1182.10015
G1 X53.284 Y77.722 E1187.27656
G1 X53.317 Y76.87 E1187.3191
G1 X53.415 Y76.043 E1187.36065
G1 X53.573 Y75.252 E1187.40089
G1 X53.802 Y74.44 E1187.44298
G1 X54.088 Y73.666 E1187.48415
G1 X54.431 Y72.92 E1187.52511
G1 X54.84 Y72.19 E1187.56686
