; Generated with MatterSlice 2.22.04
; filamentDiameter = 1.75
; extrusionWidth = 0.4
; firstLayerExtrusionWidth = 0.4
; layerThickness = 0.3
; firstLayerThickness = 0.3
; automatic settings before start_gcode
G21 ; set units to millimeters
M107 ; fan off
M140 S50 ; start heating the bed
M104 T0 S210 ; start heating T0
M190 S50 ; wait for bed temperature to be reached
T0 ; set the active extruder to 0
; settings from start_gcode
G28 X0 Y0 Z0 ; home all axes
G1 Z5 F5000
M109 S210 ; set the extruder temp and wait
G28 X0 Y0 Z0 ; Home Z again in case there was filament on nozzle
G29 ; probe the bed
; automatic settings after start_gcode
T0 ; set the active extruder to 0
G90 ; use absolute coordinates
G92 E0 ; reset the expected extruder position
M82 ; use absolute distance for extrusion
; Layer count: 7
; Layer Change GCode
; LAYER:0
; LAYER_HEIGHT:0.3
; TYPE:FILL
M400
M107
G1 X40.83 Y73.05 Z0.8 F9000
G1 X187.47 Y73.05
G1 Y89.72
G1 X190.97
; TYPE:SKIRT
G1 Z0.3
G1 F1800
G1 X190.97 Y116.24 E1.323 F1080
G1 X190.97 Y164.28 E3.72
G1 X89.79 Y184.76 E8.87
G1 X37.02 Y159.31 E11.793
G1 Y94.69 E15.017
G1 X89.79 Y69.24 E17.939
G1 X190.97 Y89.72 E23.09
G1 X190.57 Y90.05 F9000
G1 X190.57 Y116.24 E24.397 F1080
G1 X190.57 Y163.95 E26.777
G1 X89.84 Y184.34 E31.905
G1 X37.42 Y159.06 E34.808
G1 Y94.94 E38.007
G1 X89.84 Y69.66 E40.91
G1 X190.57 Y90.05 E46.037
G1 E43.037 F1800
G1 Z0.8
G1 X190.11 Y90.43 F9000
G1 X187.47
G1 X186.77 Y92.3
G1 X184.37 Y95.12
G1 X183.47 Y95.87
G1 X184.17 Y95.28
; TYPE:WALL-OUTER
G1 Z0.3
G1 E46.037 F1800
G1 X184.17 Y116.24 E47.083 F1080
G1 X184.17 Y158.72 E49.202
G1 X90.68 Y177.64 E53.961
G1 X43.82 Y155.04 E56.557
G1 Y98.96 E59.355
G1 X90.68 Y76.36 E61.95
G1 X184.13 Y95.27 E66.707
G1 X184.17 Y95.28
G1 Y98.28
G1 X183.77 Y95.61 F9000
; TYPE:WALL-INNER
G1 X183.77 Y116.24 E67.736 F1080
G1 X183.77 Y158.39 E69.839
G1 X90.73 Y177.22 E74.575
G1 X44.22 Y154.79 E77.151
G1 Y99.21 E79.924
G1 X90.73 Y76.78 E82.5
G1 X183.73 Y95.6 E87.234
G1 X183.77 Y95.61
G1 E84.234 F1800
G1 Z0.8
G1 X183.32 Y95.91 F9000
G1 X166.48 Y109.75
; TYPE:WALL-OUTER
G1 Z0.3
G1 E87.234 F1800
G1 Y144.25 E88.955 F1080
G1 X93.01 Y159.11 E92.695
G1 X61.53 Y143.93 E94.439
G1 Y110.07 E96.128
G1 X93.01 Y94.89 E97.871
G1 X140.89 Y104.58 E100.309
G1 X166.44 Y109.74 E101.609
G1 X166.48 Y109.75
G1 Y112.75
G1 X166.88 Y109.42 F9000
; TYPE:WALL-INNER
G1 Y144.58 E103.363 F1080
G1 X92.95 Y159.53 E107.126
G1 X61.13 Y144.18 E108.889
G1 Y109.82 E110.603
G1 X92.95 Y94.47 E112.366
G1 X140.97 Y104.19 E114.81
G1 X166.84 Y109.42 E116.127
G1 X166.88 Y109.42
G1 E113.127 F1800
G1 Z0.8
G1 X183.43 Y157.68 F9000
; TYPE:BOTTOM-FILL
G1 Z0.3
G1 E116.127 F1800
G1 X182.88 Y158.22 E116.165 F1080
G1 X182.18 Y158.37 F9000
G1 X183.43 Y157.11 E116.254 F1080
G1 Y156.55 F9000
G1 X181.47 Y158.51 E116.392 F1080
G1 X180.76 Y158.65 F9000
G1 X183.43 Y155.98 E116.581 F1080
G1 Y155.41 F9000
G1 X180.05 Y158.8 E116.82 F1080
G1 X179.34 Y158.94 F9000
G1 X183.43 Y154.85 E117.109 F1080
G1 Y154.28 F9000
G1 X178.63 Y159.08 E117.447 F1080
G1 X177.92 Y159.23 F9000
G1 X183.43 Y153.72 E117.836 F1080
G1 Y153.15 F9000
G1 X177.21 Y159.37 E118.275 F1080
G1 X176.5 Y159.52 F9000
G1 X183.43 Y152.59 E118.764 F1080
G1 Y152.02 F9000
G1 X175.79 Y159.66 E119.303 F1080
G1 X175.08 Y159.8 F9000
G1 X183.43 Y151.46 E119.892 F1080
G1 X183.43 Y150.89 F9000
G1 X174.37 Y159.95 E120.531 F1080
G1 X173.66 Y160.09 F9000
G1 X183.43 Y150.32 E121.22 F1080
G1 Y149.76 F9000
G1 X172.95 Y160.23 E121.959 F1080
G1 X172.25 Y160.38 F9000
G1 X183.43 Y149.19 E122.748 F1080
G1 Y148.63 F9000
G1 X171.54 Y160.52 E123.588 F1080
G1 X170.83 Y160.66 F9000
G1 X183.43 Y148.06 E124.477 F1080
G1 Y147.49 F9000
G1 X170.12 Y160.81 E125.416 F1080
G1 X169.41 Y160.95 F9000
G1 X183.43 Y146.93 E126.406 F1080
G1 Y146.36 F9000
G1 X168.7 Y161.1 E127.445 F1080
G1 X167.99 Y161.24 F9000
G1 X183.43 Y145.8 E128.534 F1080
G1 Y145.23 F9000
G1 X167.28 Y161.38 E129.674 F1080
G1 X166.57 Y161.53 F9000
G1 X183.43 Y144.67 E130.863 F1080
G1 Y144.1 F9000
G1 X165.86 Y161.67 E132.103 F1080
G1 X165.15 Y161.81 F9000
G1 X183.43 Y143.53 E133.393 F1080
G1 Y142.97 F9000
G1 X164.44 Y161.96 E134.732 F1080
G1 X163.73 Y162.1 F9000
G1 X183.43 Y142.4 E136.122 F1080
G1 Y141.84 F9000
G1 X163.03 Y162.24 E137.562 F1080
G1 X162.32 Y162.39 F9000
G1 X183.43 Y141.27 E139.052 F1080
G1 Y140.71 F9000
G1 X161.61 Y162.53 E140.591 F1080
G1 X160.9 Y162.67 F9000
G1 X183.43 Y140.14 E142.181 F1080
G1 Y139.58 F9000
G1 X160.19 Y162.82 E143.821 F1080
G1 X159.48 Y162.96 F9000
G1 X183.43 Y139.01 E145.511 F1080
G1 Y138.44 F9000
G1 X158.77 Y163.1 E147.251 F1080
G1 X158.06 Y163.25 F9000
G1 X183.43 Y137.88 E149.041 F1080
G1 Y137.31 F9000
G1 X157.35 Y163.39 E150.881 F1080
G1 X156.64 Y163.54 F9000
G1 X183.43 Y136.75 E152.771 F1080
G1 Y136.18 F9000
G1 X155.93 Y163.68 E154.711 F1080
G1 X155.22 Y163.82 F9000
G1 X183.43 Y135.61 E156.702 F1080
G1 Y135.05 F9000
G1 X154.51 Y163.97 E158.742 F1080
G1 X153.81 Y164.11 F9000
G1 X183.43 Y134.48 E160.832 F1080
G1 Y133.92 F9000
G1 X153.1 Y164.25 E162.972 F1080
G1 X152.39 Y164.4 F9000
G1 X183.43 Y133.35 E165.163 F1080
G1 Y132.79 F9000
G1 X151.68 Y164.54 E167.403 F1080
G1 X150.97 Y164.68 F9000
G1 X183.43 Y132.22 E169.694 F1080
G1 Y131.65 F9000
G1 X150.26 Y164.83 E172.034 F1080
G1 X149.55 Y164.97 F9000
G1 X183.43 Y131.09 E174.425 F1080
G1 Y130.52 F9000
G1 X148.84 Y165.11 E176.865 F1080
G1 X148.13 Y165.26 F9000
G1 X183.43 Y129.96 E179.356 F1080
G1 Y129.39 F9000
G1 X147.42 Y165.4 E181.896 F1080
G1 X146.71 Y165.55 F9000
G1 X183.43 Y128.83 E184.487 F1080
G1 Y128.26 F9000
G1 X167.22 Y144.48 E185.631 F1080
G1 Y143.91 F9000
G1 X183.43 Y127.69 E186.775 F1080
G1 Y127.13 F9000
G1 X167.22 Y143.34 E187.919 F1080
G1 Y142.78 F9000
G1 X183.43 Y126.56 E189.063 F1080
G1 Y126 F9000
G1 X167.22 Y142.21 E190.207 F1080
G1 Y141.65 F9000
G1 X183.43 Y125.43 E191.351 F1080
G1 Y124.87 F9000
G1 X167.22 Y141.08 E192.495 F1080
G1 Y140.52 F9000
G1 X183.43 Y124.3 E193.639 F1080
G1 Y123.74 F9000
G1 X167.22 Y139.95 E194.783 F1080
G1 Y139.38 F9000
G1 X183.43 Y123.17 E195.927 F1080
G1 Y122.6 F9000
G1 X167.22 Y138.82 E197.071 F1080
G1 Y138.25 F9000
G1 X183.43 Y122.04 E198.215 F1080
G1 Y121.47 F9000
G1 X167.22 Y137.69 E199.359 F1080
G1 Y137.12 F9000
G1 X183.43 Y120.91 E200.504 F1080
G1 Y120.34 F9000
G1 X167.22 Y136.56 E201.648 F1080
G1 Y135.99 F9000
G1 X183.43 Y119.77 E202.792 F1080
G1 Y119.21 F9000
G1 X167.22 Y135.42 E203.936 F1080
G1 Y134.86 F9000
G1 X183.43 Y118.64 E205.08 F1080
G1 Y118.08 F9000
G1 X167.22 Y134.29 E206.224 F1080
G1 Y133.73 F9000
G1 X183.43 Y117.51 E207.368 F1080
G1 Y116.95 F9000
G1 X167.22 Y133.16 E208.512 F1080
G1 Y132.6 F9000
G1 X183.43 Y116.38 E209.656 F1080
G1 Y115.81 F9000
G1 X167.22 Y132.03 E210.8 F1080
G1 Y131.46 F9000
G1 X183.43 Y115.25 E211.944 F1080
G1 Y114.68 F9000
G1 X167.22 Y130.9 E213.088 F1080
G1 Y130.33 F9000
G1 X183.43 Y114.12 E214.232 F1080
G1 X183.43 Y113.55 F9000
G1 X167.22 Y129.77 E215.376 F1080
G1 Y129.2 F9000
G1 X183.43 Y112.99 E216.52 F1080
G1 Y112.42 F9000
G1 X167.22 Y128.64 E217.664 F1080
G1 Y128.07 F9000
G1 X183.43 Y111.86 E218.808 F1080
G1 Y111.29 F9000
G1 X167.22 Y127.5 E219.952 F1080
G1 Y126.94 F9000
G1 X183.43 Y110.72 E221.096 F1080
G1 Y110.16 F9000
G1 X167.22 Y126.37 E222.24 F1080
G1 Y125.81 F9000
G1 X183.43 Y109.59 E223.384 F1080
G1 Y109.03 F9000
G1 X167.22 Y125.24 E224.528 F1080
G1 Y124.68 F9000
G1 X183.43 Y108.46 E225.672 F1080
G1 Y107.9 F9000
G1 X167.22 Y124.11 E226.816 F1080
G1 Y123.54 F9000
G1 X183.43 Y107.33 E227.96 F1080
G1 Y106.77 F9000
G1 X167.22 Y122.98 E229.104 F1080
G1 Y122.41 F9000
G1 X183.43 Y106.2 E230.248 F1080
G1 Y105.63 F9000
G1 X167.22 Y121.85 E231.392 F1080
G1 Y121.28 F9000
G1 X183.43 Y105.07 E232.536 F1080
G1 Y104.5 F9000
G1 X167.22 Y120.72 E233.68 F1080
G1 Y120.15 F9000
G1 X183.43 Y103.94 E234.824 F1080
G1 X183.43 Y103.37 F9000
G1 X167.22 Y119.59 E235.968 F1080
G1 Y119.02 F9000
G1 X183.43 Y102.81 E237.112 F1080
G1 Y102.24 F9000
G1 X167.22 Y118.45 E238.256 F1080
G1 Y117.89 F9000
G1 X183.43 Y101.67 E239.4 F1080
G1 Y101.11 F9000
G1 X167.22 Y117.32 E240.544 F1080
G1 Y116.76 F9000
G1 X183.43 Y100.54 E241.688 F1080
G1 Y99.98 F9000
G1 X167.22 Y116.19 E242.832 F1080
G1 Y115.63 F9000
G1 X183.43 Y99.41 E243.976 F1080
G1 Y98.85 F9000
G1 X167.22 Y115.06 E245.12 F1080
G1 Y114.49 F9000
G1 X183.43 Y98.28 E246.264 F1080
G1 Y97.72 F9000
G1 X167.22 Y113.93 E247.407 F1080
G1 Y113.36 F9000
G1 X183.43 Y97.15 E248.551 F1080
G1 Y96.58 F9000
G1 X167.22 Y112.8 E249.695 F1080
G1 Y112.23 F9000
G1 X183.43 Y96.02 E250.839 F1080
G1 X183.07 Y95.81 F9000
G1 X167.22 Y111.67 E251.957 F1080
G1 Y111.1 F9000
G1 X182.6 Y95.72 E253.043 F1080
G1 X182.13 Y95.62 F9000
G1 X167.22 Y110.53 E254.095 F1080
G1 Y109.97 F9000
G1 X181.66 Y95.53 E255.114 F1080
G1 X181.19 Y95.43 F9000
G1 X167.22 Y109.4 E256.099 F1080
G1 X166.96 Y109.09 F9000
G1 X180.72 Y95.34 E257.07 F1080
G1 X180.25 Y95.24 F9000
G1 X166.49 Y109 E258.041 F1080
G1 X166.02 Y108.9 F9000
G1 X179.78 Y95.15 E259.011 F1080
G1 X179.31 Y95.05 F9000
G1 X165.55 Y108.81 E259.982 F1080
G1 X165.08 Y108.71 F9000
G1 X178.84 Y94.96 E260.953 F1080
G1 X178.37 Y94.86 F9000
G1 X164.61 Y108.62 E261.923 F1080
G1 X164.14 Y108.52 F9000
G1 X177.89 Y94.77 E262.894 F1080
G1 X177.42 Y94.67 F9000
G1 X163.67 Y108.43 E263.864 F1080
G1 X163.2 Y108.33 F9000
G1 X176.95 Y94.57 E264.835 F1080
G1 X176.48 Y94.48 F9000
G1 X162.73 Y108.24 E265.806 F1080
G1 X162.26 Y108.14 F9000
G1 X176.01 Y94.38 E266.777 F1080
G1 X175.54 Y94.29 F9000
G1 X161.78 Y108.05 E267.747 F1080
G1 X161.31 Y107.95 F9000
G1 X175.07 Y94.19 E268.718 F1080
G1 X174.6 Y94.1 F9000
G1 X160.84 Y107.86 E269.689 F1080
G1 X160.37 Y107.76 F9000
G1 X174.13 Y94 E270.659 F1080
G1 X173.66 Y93.91 F9000
G1 X159.9 Y107.67 E271.63 F1080
G1 X159.43 Y107.57 F9000
G1 X173.19 Y93.81 E272.601 F1080
G1 X172.72 Y93.72 F9000
G1 X158.96 Y107.48 E273.571 F1080
G1 X158.49 Y107.38 F9000
G1 X172.25 Y93.62 E274.542 F1080
G1 X171.78 Y93.53 F9000
G1 X158.02 Y107.29 E275.513 F1080
G1 X157.55 Y107.19 F9000
G1 X171.31 Y93.43 E276.484 F1080
G1 X170.84 Y93.34 F9000
G1 X157.08 Y107.1 E277.454 F1080
G1 X156.61 Y107 F9000
G1 X170.37 Y93.24 E278.425 F1080
G1 X169.9 Y93.15 F9000
G1 X156.14 Y106.91 E279.396 F1080
G1 X155.67 Y106.81 F9000
G1 X169.43 Y93.05 E280.367 F1080
G1 X168.96 Y92.96 F9000
G1 X155.2 Y106.72 E281.337 F1080
G1 X154.73 Y106.62 F9000
G1 X168.49 Y92.86 E282.308 F1080
G1 X168.01 Y92.77 F9000
G1 X154.26 Y106.52 E283.279 F1080
G1 X153.79 Y106.43 F9000
G1 X167.54 Y92.67 E284.25 F1080
G1 X167.07 Y92.58 F9000
G1 X153.31 Y106.33 E285.22 F1080
G1 X152.84 Y106.24 F9000
G1 X166.6 Y92.48 E286.191 F1080
G1 X166.13 Y92.38 F9000
G1 X152.37 Y106.14 E287.162 F1080
G1 X151.9 Y106.05 F9000
G1 X165.66 Y92.29 E288.133 F1080
G1 X165.19 Y92.19 F9000
G1 X151.43 Y105.95 E289.104 F1080
G1 X150.96 Y105.86 F9000
G1 X164.72 Y92.1 E290.074 F1080
G1 X164.25 Y92 F9000
G1 X150.49 Y105.76 E291.045 F1080
G1 X150.02 Y105.67 F9000
G1 X163.78 Y91.91 E292.016 F1080
G1 X163.31 Y91.81 F9000
G1 X149.55 Y105.57 E292.987 F1080
G1 X149.08 Y105.48 F9000
G1 X162.84 Y91.72 E293.958 F1080
G1 X162.37 Y91.62 F9000
G1 X148.61 Y105.38 E294.929 F1080
G1 X148.14 Y105.29 F9000
G1 X161.9 Y91.53 E295.899 F1080
G1 X161.43 Y91.43 F9000
G1 X147.67 Y105.19 E296.87 F1080
G1 X147.2 Y105.1 F9000
G1 X160.96 Y91.34 E297.841 F1080
G1 X160.49 Y91.24 F9000
G1 X146.73 Y105 E298.812 F1080
G1 X146.26 Y104.91 F9000
G1 X160.02 Y91.15 E299.783 F1080
G1 X159.55 Y91.05 F9000
G1 X145.79 Y104.81 E300.754 F1080
G1 X145.32 Y104.72 F9000
G1 X159.08 Y90.96 E301.725 F1080
G1 X158.61 Y90.86 F9000
G1 X144.85 Y104.62 E302.695 F1080
G1 X144.37 Y104.53 F9000
G1 X158.14 Y90.77 E303.666 F1080
G1 X157.67 Y90.67 F9000
G1 X143.9 Y104.43 E304.637 F1080
G1 X143.43 Y104.34 F9000
G1 X157.19 Y90.58 E305.608 F1080
G1 X156.72 Y90.48 F9000
G1 X142.96 Y104.24 E306.579 F1080
G1 X142.49 Y104.15 F9000
G1 X156.25 Y90.39 E307.55 F1080
G1 X155.78 Y90.29 F9000
G1 X142.02 Y104.05 E308.521 F1080
G1 X141.55 Y103.96 F9000
G1 X155.31 Y90.2 E309.492 F1080
G1 X154.84 Y90.1 F9000
G1 X141.08 Y103.86 E310.463 F1080
G1 X140.61 Y103.77 F9000
G1 X154.37 Y90 E311.434 F1080
G1 X153.9 Y89.91 F9000
G1 X140.14 Y103.67 E312.405 F1080
G1 X139.67 Y103.57 F9000
G1 X153.43 Y89.81 E313.376 F1080
G1 X152.96 Y89.72 F9000
G1 X139.2 Y103.48 E314.347 F1080
G1 X138.73 Y103.38 F9000
G1 X152.49 Y89.62 E315.317 F1080
G1 X152.02 Y89.53 F9000
G1 X138.26 Y103.29 E316.288 F1080
G1 X137.79 Y103.19 F9000
G1 X151.55 Y89.43 E317.259 F1080
G1 X151.08 Y89.34 F9000
G1 X137.32 Y103.1 E318.23 F1080
G1 X136.85 Y103 F9000
G1 X150.61 Y89.24 E319.201 F1080
G1 X150.14 Y89.15 F9000
G1 X136.38 Y102.91 E320.172 F1080
G1 X135.91 Y102.81 F9000
G1 X149.67 Y89.05 E321.143 F1080
G1 X149.2 Y88.96 F9000
G1 X135.44 Y102.72 E322.114 F1080
G1 X134.96 Y102.62 F9000
G1 X148.73 Y88.86 E323.085 F1080
G1 X148.26 Y88.77 F9000
G1 X134.49 Y102.53 E324.056 F1080
G1 X134.02 Y102.43 F9000
G1 X147.79 Y88.67 E325.027 F1080
G1 X147.32 Y88.58 F9000
G1 X133.55 Y102.34 E325.998 F1080
G1 X133.08 Y102.24 F9000
G1 X146.84 Y88.48 E326.969 F1080
G1 X146.37 Y88.39 F9000
G1 X132.61 Y102.15 E327.94 F1080
G1 X132.14 Y102.05 F9000
G1 X145.9 Y88.29 E328.911 F1080
G1 X145.43 Y88.2 F9000
G1 X131.67 Y101.96 E329.881 F1080
G1 X131.2 Y101.86 F9000
G1 X144.96 Y88.1 E330.852 F1080
G1 X144.49 Y88 F9000
G1 X130.73 Y101.77 E331.823 F1080
G1 X130.26 Y101.67 F9000
G1 X144.02 Y87.91 E332.794 F1080
G1 X143.55 Y87.81 F9000
G1 X129.79 Y101.58 E333.765 F1080
G1 X129.32 Y101.48 F9000
G1 X143.08 Y87.72 E334.736 F1080
G1 X142.61 Y87.62 F9000
G1 X128.85 Y101.38 E335.707 F1080
G1 X128.38 Y101.29 F9000
G1 X142.14 Y87.53 E336.678 F1080
G1 X141.67 Y87.43 F9000
G1 X127.91 Y101.19 E337.649 F1080
G1 X127.44 Y101.1 F9000
G1 X141.2 Y87.34 E338.62 F1080
G1 X140.73 Y87.24 F9000
G1 X126.97 Y101 E339.591 F1080
G1 X126.5 Y100.91 F9000
G1 X140.26 Y87.15 E340.562 F1080
G1 X139.79 Y87.05 F9000
G1 X126.03 Y100.81 E341.533 F1080
G1 X125.56 Y100.72 F9000
G1 X139.32 Y86.96 E342.504 F1080
G1 X138.85 Y86.86 F9000
G1 X125.09 Y100.62 E343.474 F1080
G1 X124.61 Y100.53 F9000
G1 X138.38 Y86.77 E344.445 F1080
G1 X137.91 Y86.67 F9000
G1 X124.14 Y100.43 E345.416 F1080
G1 X123.67 Y100.34 F9000
G1 X137.44 Y86.58 E346.387 F1080
G1 X136.96 Y86.48 F9000
G1 X123.2 Y100.24 E347.358 F1080
G1 X122.73 Y100.15 F9000
G1 X136.49 Y86.39 E348.329 F1080
G1 X136.02 Y86.29 F9000
G1 X122.26 Y100.05 E349.3 F1080
G1 X121.79 Y99.96 F9000
G1 X135.55 Y86.2 E350.271 F1080
G1 X135.08 Y86.1 F9000
G1 X121.32 Y99.86 E351.242 F1080
G1 X120.85 Y99.77 F9000
G1 X134.61 Y86 E352.213 F1080
G1 X134.14 Y85.91 F9000
G1 X120.38 Y99.67 E353.184 F1080
G1 X119.91 Y99.58 F9000
G1 X133.67 Y85.81 E354.155 F1080
G1 X133.2 Y85.72 F9000
G1 X119.44 Y99.48 E355.126 F1080
G1 X118.97 Y99.39 F9000
G1 X132.73 Y85.62 E356.097 F1080
G1 X132.26 Y85.53 F9000
G1 X118.5 Y99.29 E357.067 F1080
G1 X118.03 Y99.2 F9000
G1 X131.79 Y85.43 E358.038 F1080
G1 X131.32 Y85.34 F9000
G1 X117.56 Y99.1 E359.009 F1080
G1 X117.09 Y99 F9000
G1 X130.85 Y85.24 E359.98 F1080
G1 X130.38 Y85.15 F9000
G1 X116.62 Y98.91 E360.951 F1080
G1 X116.15 Y98.81 F9000
G1 X129.91 Y85.05 E361.922 F1080
G1 X129.44 Y84.96 F9000
G1 X115.68 Y98.72 E362.893 F1080
G1 X115.21 Y98.62 F9000
G1 X128.97 Y84.86 E363.864 F1080
G1 X128.5 Y84.77 F9000
G1 X114.74 Y98.53 E364.835 F1080
G1 X114.26 Y98.43 F9000
G1 X128.03 Y84.67 E365.806 F1080
G1 X127.56 Y84.58 F9000
G1 X113.79 Y98.34 E366.777 F1080
G1 X113.32 Y98.24 F9000
G1 X127.08 Y84.48 E367.748 F1080
G1 X126.61 Y84.39 F9000
G1 X112.85 Y98.15 E368.718 F1080
G1 X112.38 Y98.05 F9000
G1 X126.14 Y84.29 E369.689 F1080
G1 X125.67 Y84.2 F9000
G1 X111.91 Y97.96 E370.66 F1080
G1 X111.44 Y97.86 F9000
G1 X125.2 Y84.1 E371.631 F1080
G1 X124.73 Y84 F9000
G1 X110.97 Y97.77 E372.602 F1080
G1 X110.5 Y97.67 F9000
G1 X124.26 Y83.91 E373.573 F1080
G1 X123.79 Y83.81 F9000
G1 X110.03 Y97.58 E374.544 F1080
G1 X109.56 Y97.48 F9000
G1 X123.32 Y83.72 E375.515 F1080
G1 X122.85 Y83.62 F9000
G1 X109.09 Y97.39 E376.486 F1080
G1 X108.62 Y97.29 F9000
G1 X122.38 Y83.53 E377.457 F1080
G1 X121.91 Y83.43 F9000
G1 X108.15 Y97.19 E378.428 F1080
G1 X107.68 Y97.1 F9000
G1 X121.44 Y83.34 E379.399 F1080
G1 X120.97 Y83.24 F9000
G1 X107.21 Y97 E380.369 F1080
G1 X106.74 Y96.91 F9000
G1 X120.5 Y83.15 E381.34 F1080
G1 X120.03 Y83.05 F9000
G1 X106.27 Y96.81 E382.311 F1080
G1 X105.8 Y96.72 F9000
G1 X119.56 Y82.96 E383.282 F1080
G1 X119.09 Y82.86 F9000
G1 X105.33 Y96.62 E384.253 F1080
G1 X104.86 Y96.53 F9000
G1 X118.62 Y82.77 E385.224 F1080
G1 X118.15 Y82.67 F9000
G1 X104.39 Y96.43 E386.195 F1080
G1 X103.91 Y96.34 F9000
G1 X117.68 Y82.58 E387.166 F1080
G1 X117.21 Y82.48 F9000
G1 X103.44 Y96.24 E388.137 F1080
G1 X102.97 Y96.15 F9000
G1 X116.73 Y82.39 E389.108 F1080
G1 X116.26 Y82.29 F9000
G1 X102.5 Y96.05 E390.079 F1080
G1 X102.03 Y95.96 F9000
G1 X115.79 Y82.2 E391.049 F1080
G1 X115.32 Y82.1 F9000
G1 X101.56 Y95.86 E392.02 F1080
G1 X101.09 Y95.77 F9000
G1 X114.85 Y82.01 E392.991 F1080
G1 X114.38 Y81.91 F9000
G1 X100.62 Y95.67 E393.962 F1080
G1 X100.15 Y95.58 F9000
G1 X113.91 Y81.82 E394.933 F1080
G1 X113.44 Y81.72 F9000
G1 X99.68 Y95.48 E395.904 F1080
G1 X99.21 Y95.39 F9000
G1 X112.97 Y81.62 E396.875 F1080
G1 X112.5 Y81.53 F9000
G1 X98.74 Y95.29 E397.846 F1080
G1 X98.27 Y95.19 F9000
G1 X112.03 Y81.43 E398.817 F1080
G1 X111.56 Y81.34 F9000
G1 X97.8 Y95.1 E399.788 F1080
G1 X97.33 Y95 F9000
G1 X111.09 Y81.24 E400.759 F1080
G1 X110.62 Y81.15 F9000
G1 X96.86 Y94.91 E401.73 F1080
G1 X96.39 Y94.81 F9000
G1 X110.15 Y81.05 E402.7 F1080
G1 X109.68 Y80.96 F9000
G1 X95.92 Y94.72 E403.671 F1080
G1 X95.45 Y94.62 F9000
G1 X109.21 Y80.86 E404.642 F1080
G1 X108.74 Y80.77 F9000
G1 X94.98 Y94.53 E405.613 F1080
G1 X94.51 Y94.43 F9000
G1 X108.27 Y80.67 E406.584 F1080
G1 X107.8 Y80.58 F9000
G1 X94.04 Y94.34 E407.555 F1080
G1 X93.56 Y94.24 F9000
G1 X107.33 Y80.48 E408.526 F1080
G1 X106.86 Y80.39 F9000
G1 X93.09 Y94.15 E409.497 F1080
G1 X92.25 Y94.43 F9000
G1 X106.38 Y80.29 E410.494 F1080
G1 X105.91 Y80.2 F9000
G1 X91.16 Y94.95 E411.535 F1080
G1 X90.06 Y95.48 F9000
G1 X105.44 Y80.1 E412.62 F1080
G1 X104.97 Y80.01 F9000
G1 X88.97 Y96.01 E413.749 F1080
G1 X87.88 Y96.54 F9000
G1 X104.5 Y79.91 E414.922 F1080
G1 X104.03 Y79.82 F9000
G1 X86.78 Y97.06 E416.139 F1080
G1 X85.69 Y97.59 F9000
G1 X103.56 Y79.72 E417.4 F1080
G1 X103.09 Y79.63 F9000
G1 X84.6 Y98.12 E418.705 F1080
G1 X83.51 Y98.65 F9000
G1 X102.62 Y79.53 E420.054 F1080
G1 X102.15 Y79.43 F9000
G1 X82.41 Y99.17 E421.446 F1080
G1 X81.32 Y99.7 F9000
G1 X101.68 Y79.34 E422.883 F1080
G1 X101.21 Y79.24 F9000
G1 X80.23 Y100.23 E424.363 F1080
G1 X79.13 Y100.75 F9000
G1 X100.74 Y79.15 E425.888 F1080
G1 X100.27 Y79.05 F9000
G1 X78.04 Y101.28 E427.456 F1080
G1 X76.95 Y101.81 F9000
G1 X99.8 Y78.96 E429.068 F1080
G1 X99.33 Y78.86 F9000
G1 X75.85 Y102.34 E430.725 F1080
G1 X74.76 Y102.86 F9000
G1 X98.86 Y78.77 E432.425 F1080
G1 X98.39 Y78.67 F9000
G1 X73.67 Y103.39 E434.169 F1080
G1 X72.57 Y103.92 F9000
G1 X97.92 Y78.58 E435.957 F1080
G1 X97.45 Y78.48 F9000
G1 X71.48 Y104.45 E437.789 F1080
G1 X70.39 Y104.97 F9000
G1 X96.98 Y78.39 E439.665 F1080
G1 X96.51 Y78.29 F9000
G1 X69.3 Y105.5 E441.585 F1080
G1 X68.2 Y106.03 F9000
G1 X96.03 Y78.2 E443.548 F1080
G1 X95.56 Y78.1 F9000
G1 X67.11 Y106.56 E445.556 F1080
G1 X66.02 Y107.08 F9000
G1 X95.09 Y78.01 E447.608 F1080
G1 X94.62 Y77.91 F9000
G1 X64.92 Y107.61 E449.703 F1080
G1 X63.83 Y108.14 F9000
G1 X94.15 Y77.82 E451.843 F1080
G1 X93.68 Y77.72 F9000
G1 X62.74 Y108.67 E454.026 F1080
G1 X61.64 Y109.19 F9000
G1 X93.21 Y77.63 E456.253 F1080
G1 E453.253 F1800
G1 Z0.8
G1 X163.53 Y108.4 F9000
G1 X166.73 Y109.47
G1 X167.04 Y111.12
G1 X167.18 Y143.74
G1 X166.74 Y144.95
G1 Z0.3
G1 E456.253 F1800
G1 X146 Y165.69 E457.717 F1080
G1 X145.29 Y165.83 F9000
G1 X166.04 Y145.09 E459.18 F1080
G1 X165.33 Y145.24 F9000
G1 X144.59 Y165.98 E460.643 F1080
G1 X143.88 Y166.12 F9000
G1 X164.62 Y145.38 E462.107 F1080
G1 X163.91 Y145.52 F9000
G1 X143.17 Y166.26 E463.57 F1080
G1 X142.46 Y166.41 F9000
G1 X163.2 Y145.67 E465.033 F1080
G1 X162.49 Y145.81 F9000
G1 X141.75 Y166.55 E466.497 F1080
G1 X141.04 Y166.69 F9000
G1 X161.78 Y145.95 E467.96 F1080
G1 X161.07 Y146.1 F9000
G1 X140.33 Y166.84 E469.423 F1080
G1 X139.62 Y166.98 F9000
G1 X160.36 Y146.24 E470.887 F1080
G1 X159.65 Y146.38 F9000
G1 X138.91 Y167.12 E472.35 F1080
G1 X138.2 Y167.27 F9000
G1 X158.94 Y146.53 E473.813 F1080
G1 X158.23 Y146.67 F9000
G1 X137.49 Y167.41 E475.277 F1080
G1 X136.78 Y167.55 F9000
G1 X157.52 Y146.81 E476.74 F1080
G1 X156.82 Y146.96 F9000
G1 X136.07 Y167.7 E478.203 F1080
G1 X135.37 Y167.84 F9000
G1 X156.11 Y147.1 E479.667 F1080
G1 X155.4 Y147.24 F9000
G1 X134.66 Y167.99 E481.13 F1080
G1 X133.95 Y168.13 F9000
G1 X154.69 Y147.39 E482.594 F1080
G1 X153.98 Y147.53 F9000
G1 X133.24 Y168.27 E484.057 F1080
G1 X132.53 Y168.42 F9000
G1 X153.27 Y147.68 E485.52 F1080
G1 X152.56 Y147.82 F9000
G1 X131.82 Y168.56 E486.984 F1080
G1 X131.11 Y168.7 F9000
G1 X151.85 Y147.96 E488.447 F1080
G1 X151.14 Y148.11 F9000
G1 X130.4 Y168.85 E489.91 F1080
G1 X129.69 Y168.99 F9000
G1 X150.43 Y148.25 E491.374 F1080
G1 X149.72 Y148.39 F9000
G1 X128.98 Y169.13 E492.837 F1080
G1 X128.27 Y169.28 F9000
G1 X149.01 Y148.54 E494.301 F1080
G1 X148.31 Y148.68 F9000
G1 X127.56 Y169.42 E495.764 F1080
G1 X126.85 Y169.56 F9000
G1 X147.6 Y148.82 E497.228 F1080
G1 X146.89 Y148.97 F9000
G1 X126.15 Y169.71 E498.691 F1080
G1 X125.44 Y169.85 F9000
G1 X146.18 Y149.11 E500.155 F1080
G1 X145.47 Y149.25 F9000
G1 X124.73 Y170 E501.618 F1080
G1 X124.02 Y170.14 F9000
G1 X144.76 Y149.4 E503.081 F1080
G1 X144.05 Y149.54 F9000
G1 X123.31 Y170.28 E504.545 F1080
G1 X122.6 Y170.43 F9000
G1 X143.34 Y149.68 E506.008 F1080
G1 X142.63 Y149.83 F9000
G1 X121.89 Y170.57 E507.472 F1080
G1 X121.18 Y170.71 F9000
G1 X141.92 Y149.97 E508.935 F1080
G1 X141.21 Y150.11 F9000
G1 X120.47 Y170.86 E510.399 F1080
G1 X119.76 Y171 F9000
G1 X140.5 Y150.26 E511.862 F1080
G1 X139.8 Y150.4 F9000
G1 X119.05 Y171.14 E513.326 F1080
G1 X118.34 Y171.29 F9000
G1 X139.09 Y150.55 E514.789 F1080
G1 X138.38 Y150.69 F9000
G1 X117.63 Y171.43 E516.253 F1080
G1 X116.93 Y171.57 F9000
G1 X137.67 Y150.83 E517.716 F1080
G1 X136.96 Y150.98 F9000
G1 X116.22 Y171.72 E519.18 F1080
G1 X115.51 Y171.86 F9000
G1 X136.25 Y151.12 E520.643 F1080
G1 X135.54 Y151.26 F9000
G1 X114.8 Y172.01 E522.107 F1080
G1 X114.09 Y172.15 F9000
G1 X134.83 Y151.41 E523.57 F1080
G1 X134.12 Y151.55 F9000
G1 X113.38 Y172.29 E525.034 F1080
G1 X112.67 Y172.44 F9000
G1 X133.41 Y151.69 E526.497 F1080
G1 X132.7 Y151.84 F9000
G1 X111.96 Y172.58 E527.961 F1080
G1 X111.25 Y172.72 F9000
G1 X131.99 Y151.98 E529.425 F1080
G1 X131.28 Y152.12 F9000
G1 X110.54 Y172.87 E530.888 F1080
G1 X109.83 Y173.01 F9000
G1 X130.58 Y152.27 E532.352 F1080
G1 X129.87 Y152.41 F9000
G1 X109.12 Y173.15 E533.815 F1080
G1 X108.41 Y173.3 F9000
G1 X129.16 Y152.55 E535.279 F1080
G1 X128.45 Y152.7 F9000
G1 X107.71 Y173.44 E536.742 F1080
G1 X107 Y173.58 F9000
G1 X127.74 Y152.84 E538.206 F1080
G1 X127.03 Y152.98 F9000
G1 X106.29 Y173.73 E539.669 F1080
G1 X105.58 Y173.87 F9000
G1 X126.32 Y153.13 E541.133 F1080
G1 X125.61 Y153.27 F9000
G1 X104.87 Y174.01 E542.596 F1080
G1 X104.16 Y174.16 F9000
G1 X124.9 Y153.41 E544.06 F1080
G1 X124.19 Y153.56 F9000
G1 X103.45 Y174.3 E545.523 F1080
G1 X102.74 Y174.45 F9000
G1 X123.48 Y153.7 E546.987 F1080
G1 X122.77 Y153.85 F9000
G1 X102.03 Y174.59 E548.451 F1080
G1 X101.32 Y174.73 F9000
G1 X122.07 Y153.99 E549.914 F1080
G1 X121.36 Y154.13 F9000
G1 X100.61 Y174.88 E551.378 F1080
G1 X99.9 Y175.02 F9000
G1 X120.65 Y154.28 E552.841 F1080
G1 X119.94 Y154.42 F9000
G1 X99.19 Y175.16 E554.305 F1080
G1 X98.49 Y175.31 F9000
G1 X119.23 Y154.56 E555.769 F1080
G1 X118.52 Y154.71 F9000
G1 X97.78 Y175.45 E557.232 F1080
G1 X97.07 Y175.59 F9000
G1 X117.81 Y154.85 E558.696 F1080
G1 X117.1 Y154.99 F9000
G1 X96.36 Y175.74 E560.159 F1080
G1 X95.65 Y175.88 F9000
G1 X116.39 Y155.14 E561.623 F1080
G1 X115.68 Y155.28 F9000
G1 X94.94 Y176.02 E563.087 F1080
G1 X94.23 Y176.17 F9000
G1 X114.97 Y155.42 E564.55 F1080
G1 X114.26 Y155.57 F9000
G1 X93.52 Y176.31 E566.014 F1080
G1 X92.81 Y176.45 F9000
G1 X113.56 Y155.71 E567.477 F1080
G1 X112.85 Y155.85 F9000
G1 X92.1 Y176.6 E568.941 F1080
G1 X91.39 Y176.74 F9000
G1 X112.14 Y156 E570.405 F1080
G1 X111.43 Y156.14 F9000
G1 X90.73 Y176.84 E571.865 F1080
G1 X90.34 Y176.66 F9000
G1 X110.72 Y156.28 E573.303 F1080
G1 X110.01 Y156.43 F9000
G1 X89.96 Y176.48 E574.717 F1080
G1 X89.58 Y176.29 F9000
G1 X109.3 Y156.57 E576.109 F1080
G1 X108.59 Y156.72 F9000
G1 X89.2 Y176.11 E577.477 F1080
G1 X88.82 Y175.92 F9000
G1 X107.88 Y156.86 E578.822 F1080
G1 X107.17 Y157 F9000
G1 X88.44 Y175.74 E580.144 F1080
G1 X88.05 Y175.55 F9000
G1 X106.46 Y157.15 E581.443 F1080
G1 X105.75 Y157.29 F9000
G1 X87.67 Y175.37 E582.718 F1080
G1 X87.29 Y175.19 F9000
G1 X105.05 Y157.43 E583.971 F1080
G1 X104.34 Y157.58 F9000
G1 X86.91 Y175 E585.201 F1080
G1 X86.53 Y174.82 F9000
G1 X103.63 Y157.72 E586.407 F1080
G1 X102.92 Y157.86 F9000
G1 X86.15 Y174.63 E587.59 F1080
G1 X85.76 Y174.45 F9000
G1 X102.21 Y158.01 E588.751 F1080
G1 X101.5 Y158.15 F9000
G1 X85.38 Y174.27 E589.888 F1080
G1 X85 Y174.08 F9000
G1 X100.79 Y158.29 E591.002 F1080
G1 X100.08 Y158.44 F9000
G1 X84.62 Y173.9 E592.092 F1080
G1 X84.24 Y173.71 F9000
G1 X99.37 Y158.58 E593.16 F1080
G1 X98.66 Y158.72 F9000
G1 X83.86 Y173.53 E594.205 F1080
G1 X83.48 Y173.35 F9000
G1 X97.95 Y158.87 E595.226 F1080
G1 X97.24 Y159.01 F9000
G1 X83.09 Y173.16 E596.225 F1080
G1 X82.71 Y172.98 F9000
G1 X96.53 Y159.15 E597.2 F1080
G1 X95.83 Y159.3 F9000
G1 X82.33 Y172.79 E598.152 F1080
G1 X81.95 Y172.61 F9000
G1 X95.12 Y159.44 E599.081 F1080
G1 X94.41 Y159.58 F9000
G1 X81.57 Y172.43 E599.987 F1080
G1 X81.19 Y172.24 F9000
G1 X93.7 Y159.73 E600.87 F1080
G1 X92.99 Y159.87 F9000
G1 X80.8 Y172.06 E601.73 F1080
G1 X80.42 Y171.87 F9000
G1 X92.57 Y159.73 E602.587 F1080
G1 X92.19 Y159.54 F9000
G1 X80.04 Y171.69 E603.444 F1080
G1 X79.66 Y171.51 F9000
G1 X91.81 Y159.36 E604.301 F1080
G1 X91.42 Y159.17 F9000
G1 X79.28 Y171.32 E605.158 F1080
G1 X78.9 Y171.14 F9000
G1 X91.04 Y158.99 E606.015 F1080
G1 X90.66 Y158.81 F9000
G1 X78.51 Y170.95 E606.872 F1080
G1 X78.13 Y170.77 F9000
G1 X90.28 Y158.62 E607.729 F1080
G1 X89.9 Y158.44 F9000
G1 X77.75 Y170.58 E608.586 F1080
G1 X77.37 Y170.4 F9000
G1 X89.52 Y158.25 E609.443 F1080
G1 X89.14 Y158.07 F9000
G1 X76.99 Y170.22 E610.3 F1080
G1 X76.61 Y170.03 F9000
G1 X88.75 Y157.88 E611.157 F1080
G1 X88.37 Y157.7 F9000
G1 X76.22 Y169.85 E612.014 F1080
G1 X75.84 Y169.66 F9000
G1 X87.99 Y157.52 E612.871 F1080
G1 X87.61 Y157.33 F9000
G1 X75.46 Y169.48 E613.728 F1080
G1 X75.08 Y169.3 F9000
G1 X87.23 Y157.15 E614.586 F1080
G1 X86.85 Y156.96 F9000
G1 X74.7 Y169.11 E615.443 F1080
G1 X74.32 Y168.93 F9000
G1 X86.46 Y156.78 E616.3 F1080
G1 X86.08 Y156.6 F9000
G1 X73.94 Y168.74 E617.157 F1080
G1 X73.55 Y168.56 F9000
G1 X85.7 Y156.41 E618.014 F1080
G1 X85.32 Y156.23 F9000
G1 X73.17 Y168.38 E618.871 F1080
G1 X72.79 Y168.19 F9000
G1 X84.94 Y156.04 E619.728 F1080
G1 X84.56 Y155.86 F9000
G1 X72.41 Y168.01 E620.585 F1080
G1 X72.03 Y167.82 F9000
G1 X84.17 Y155.68 E621.442 F1080
G1 X83.79 Y155.49 F9000
G1 X71.65 Y167.64 E622.299 F1080
G1 X71.26 Y167.45 F9000
G1 X83.41 Y155.31 E623.156 F1080
G1 X83.03 Y155.12 F9000
G1 X70.88 Y167.27 E624.013 F1080
G1 X70.5 Y167.09 F9000
G1 X82.65 Y154.94 E624.87 F1080
G1 X82.27 Y154.76 F9000
G1 X70.12 Y166.9 E625.727 F1080
G1 X69.74 Y166.72 F9000
G1 X81.89 Y154.57 E626.585 F1080
G1 X81.5 Y154.39 F9000
G1 X69.36 Y166.53 E627.442 F1080
G1 X68.97 Y166.35 F9000
G1 X81.12 Y154.2 E628.299 F1080
G1 X80.74 Y154.02 F9000
G1 X68.59 Y166.17 E629.156 F1080
G1 X68.21 Y165.98 F9000
G1 X80.36 Y153.83 E630.013 F1080
G1 X79.98 Y153.65 F9000
G1 X67.83 Y165.8 E630.87 F1080
G1 X67.45 Y165.61 F9000
G1 X79.6 Y153.47 E631.727 F1080
G1 X79.21 Y153.28 F9000
G1 X67.07 Y165.43 E632.584 F1080
G1 X66.68 Y165.25 F9000
G1 X78.83 Y153.1 E633.441 F1080
G1 X78.45 Y152.91 F9000
G1 X66.3 Y165.06 E634.299 F1080
G1 X65.92 Y164.88 F9000
G1 X78.07 Y152.73 E635.156 F1080
G1 X77.69 Y152.55 F9000
G1 X65.54 Y164.69 E636.013 F1080
G1 X65.16 Y164.51 F9000
G1 X77.31 Y152.36 E636.87 F1080
G1 X76.93 Y152.18 F9000
G1 X64.78 Y164.33 E637.727 F1080
G1 X64.39 Y164.14 F9000
G1 X76.54 Y151.99 E638.584 F1080
G1 X76.16 Y151.81 F9000
G1 X64.01 Y163.96 E639.441 F1080
G1 X63.63 Y163.77 F9000
G1 X75.78 Y151.62 E640.299 F1080
G1 X75.4 Y151.44 F9000
G1 X63.25 Y163.59 E641.156 F1080
G1 X62.87 Y163.41 F9000
G1 X75.02 Y151.26 E642.013 F1080
G1 X74.64 Y151.07 F9000
G1 X62.49 Y163.22 E642.87 F1080
G1 X62.11 Y163.04 F9000
G1 X74.25 Y150.89 E643.727 F1080
G1 X73.87 Y150.7 F9000
G1 X61.72 Y162.85 E644.584 F1080
G1 X61.34 Y162.67 F9000
G1 X73.49 Y150.52 E645.442 F1080
G1 X73.11 Y150.34 F9000
G1 X60.96 Y162.49 E646.299 F1080
G1 X60.58 Y162.3 F9000
G1 X72.73 Y150.15 E647.156 F1080
G1 X72.35 Y149.97 F9000
G1 X60.2 Y162.12 E648.013 F1080
G1 X59.82 Y161.93 F9000
G1 X71.97 Y149.78 E648.87 F1080
G1 X71.58 Y149.6 F9000
G1 X59.43 Y161.75 E649.727 F1080
G1 X59.05 Y161.56 F9000
G1 X71.2 Y149.42 E650.585 F1080
G1 X70.82 Y149.23 F9000
G1 X58.67 Y161.38 E651.442 F1080
G1 X58.29 Y161.2 F9000
G1 X70.44 Y149.05 E652.299 F1080
G1 X70.06 Y148.86 F9000
G1 X57.91 Y161.01 E653.156 F1080
G1 X57.53 Y160.83 F9000
G1 X69.68 Y148.68 E654.013 F1080
G1 X69.29 Y148.5 F9000
G1 X57.14 Y160.64 E654.871 F1080
G1 X56.76 Y160.46 F9000
G1 X68.91 Y148.31 E655.728 F1080
G1 X68.53 Y148.13 F9000
G1 X56.38 Y160.28 E656.585 F1080
G1 X56 Y160.09 F9000
G1 X68.15 Y147.94 E657.442 F1080
G1 X67.77 Y147.76 F9000
G1 X55.62 Y159.91 E658.299 F1080
G1 X55.24 Y159.72 F9000
G1 X67.39 Y147.57 E659.157 F1080
G1 X67 Y147.39 F9000
G1 X54.86 Y159.54 E660.014 F1080
G1 X54.47 Y159.36 F9000
G1 X66.62 Y147.21 E660.871 F1080
G1 X66.24 Y147.02 F9000
G1 X54.09 Y159.17 E661.728 F1080
G1 X53.71 Y158.99 F9000
G1 X65.86 Y146.84 E662.585 F1080
G1 X65.48 Y146.65 F9000
G1 X53.33 Y158.8 E663.443 F1080
G1 X52.95 Y158.62 F9000
G1 X65.1 Y146.47 E664.3 F1080
G1 X64.72 Y146.29 F9000
G1 X52.57 Y158.44 E665.157 F1080
G1 X52.18 Y158.25 F9000
G1 X64.33 Y146.1 E666.014 F1080
G1 X63.95 Y145.92 F9000
G1 X51.8 Y158.07 E666.872 F1080
G1 X51.42 Y157.88 F9000
G1 X63.57 Y145.73 E667.729 F1080
G1 X63.19 Y145.55 F9000
G1 X51.04 Y157.7 E668.586 F1080
G1 X50.66 Y157.52 F9000
G1 X62.81 Y145.36 E669.444 F1080
G1 X62.43 Y145.18 F9000
G1 X50.28 Y157.33 E670.301 F1080
G1 X49.89 Y157.15 F9000
G1 X62.04 Y145 E671.158 F1080
G1 X61.66 Y144.81 F9000
G1 X49.51 Y156.96 E672.015 F1080
G1 X49.13 Y156.78 F9000
G1 X61.28 Y144.63 E672.872 F1080
G1 X60.9 Y144.44 F9000
G1 X48.75 Y156.59 E673.73 F1080
G1 X48.37 Y156.41 F9000
G1 X60.79 Y143.99 E674.606 F1080
G1 Y143.43 F9000
G1 X47.99 Y156.23 E675.509 F1080
G1 X47.6 Y156.04 F9000
G1 X60.79 Y142.86 E676.439 F1080
G1 Y142.3 F9000
G1 X47.22 Y155.86 E677.396 F1080
G1 X46.84 Y155.67 F9000
G1 X60.79 Y141.73 E678.38 F1080
G1 Y141.16 F9000
G1 X46.46 Y155.49 E679.39 F1080
G1 X46.08 Y155.31 F9000
G1 X60.79 Y140.6 E680.428 F1080
G1 Y140.03 F9000
G1 X45.7 Y155.12 E681.493 F1080
G1 X45.31 Y154.94 F9000
G1 X60.79 Y139.47 E682.584 F1080
G1 Y138.9 F9000
G1 X44.93 Y154.75 E683.703 F1080
G1 X44.56 Y154.56 F9000
G1 X60.79 Y138.34 E684.847 F1080
G1 Y137.77 F9000
G1 X44.56 Y153.99 E685.992 F1080
G1 Y153.43 F9000
G1 X60.79 Y137.2 E687.136 F1080
G1 Y136.64 F9000
G1 X44.56 Y152.86 E688.281 F1080
G1 Y152.29 F9000
G1 X60.79 Y136.07 E689.425 F1080
G1 Y135.51 F9000
G1 X44.56 Y151.73 E690.57 F1080
G1 Y151.16 F9000
G1 X60.79 Y134.94 E691.714 F1080
G1 Y134.38 F9000
G1 X44.56 Y150.6 E692.859 F1080
G1 Y150.03 F9000
G1 X60.79 Y133.81 E694.003 F1080
G1 Y133.25 F9000
G1 X44.56 Y149.47 E695.148 F1080
G1 Y148.9 F9000
G1 X60.79 Y132.68 E696.292 F1080
G1 Y132.11 F9000
G1 X44.56 Y148.33 E697.437 F1080
G1 Y147.77 F9000
G1 X60.79 Y131.55 E698.581 F1080
G1 Y130.98 F9000
G1 X44.56 Y147.2 E699.726 F1080
G1 Y146.64 F9000
G1 X60.79 Y130.42 E700.87 F1080
G1 Y129.85 F9000
G1 X44.56 Y146.07 E702.015 F1080
G1 Y145.51 F9000
G1 X60.79 Y129.29 E703.159 F1080
G1 Y128.72 F9000
G1 X44.56 Y144.94 E704.304 F1080
G1 Y144.37 F9000
G1 X60.79 Y128.15 E705.448 F1080
G1 Y127.59 F9000
G1 X44.56 Y143.81 E706.593 F1080
G1 Y143.24 F9000
G1 X60.79 Y127.02 E707.737 F1080
G1 Y126.46 F9000
G1 X44.56 Y142.68 E708.882 F1080
G1 Y142.11 F9000
G1 X60.79 Y125.89 E710.026 F1080
G1 Y125.33 F9000
G1 X44.56 Y141.55 E711.171 F1080
G1 Y140.98 F9000
G1 X60.79 Y124.76 E712.316 F1080
G1 Y124.19 F9000
G1 X44.56 Y140.42 E713.46 F1080
G1 Y139.85 F9000
G1 X60.79 Y123.63 E714.605 F1080
G1 Y123.06 F9000
G1 X44.56 Y139.28 E715.749 F1080
G1 Y138.72 F9000
G1 X60.79 Y122.5 E716.894 F1080
G1 Y121.93 F9000
G1 X44.56 Y138.15 E718.038 F1080
G1 Y137.59 F9000
G1 X60.79 Y121.37 E719.183 F1080
G1 Y120.8 F9000
G1 X44.56 Y137.02 E720.327 F1080
G1 Y136.46 F9000
G1 X60.79 Y120.23 E721.472 F1080
G1 Y119.67 F9000
G1 X44.56 Y135.89 E722.616 F1080
G1 Y135.32 F9000
G1 X60.79 Y119.1 E723.761 F1080
G1 Y118.54 F9000
G1 X44.56 Y134.76 E724.905 F1080
G1 Y134.19 F9000
G1 X60.79 Y117.97 E726.05 F1080
G1 Y117.41 F9000
G1 X44.56 Y133.63 E727.194 F1080
G1 Y133.06 F9000
G1 X60.79 Y116.84 E728.339 F1080
G1 Y116.27 F9000
G1 X44.56 Y132.5 E729.483 F1080
G1 Y131.93 F9000
G1 X60.79 Y115.71 E730.628 F1080
G1 Y115.14 F9000
G1 X44.56 Y131.36 E731.772 F1080
G1 Y130.8 F9000
G1 X60.79 Y114.58 E732.917 F1080
G1 Y114.01 F9000
G1 X44.56 Y130.23 E734.061 F1080
G1 Y129.67 F9000
G1 X60.79 Y113.45 E735.206 F1080
G1 Y112.88 F9000
G1 X44.56 Y129.1 E736.35 F1080
G1 Y128.54 F9000
G1 X60.79 Y112.31 E737.495 F1080
G1 Y111.75 F9000
G1 X44.56 Y127.97 E738.639 F1080
G1 Y127.4 F9000
G1 X60.79 Y111.18 E739.784 F1080
G1 Y110.62 F9000
G1 X44.56 Y126.84 E740.928 F1080
G1 Y126.27 F9000
G1 X60.79 Y110.05 E742.073 F1080
G1 E739.073 F1800
G1 Z0.8
G1 X44.56 Y125.71 F9000
G1 Z0.3
G1 E742.073 F1800
G1 X92.74 Y77.53 E745.472 F1080
G1 X92.27 Y77.43 F9000
G1 X44.56 Y125.14 E748.838 F1080
G1 Y124.58 F9000
G1 X91.8 Y77.34 E752.171 F1080
G1 X91.33 Y77.24 F9000
G1 X44.56 Y124.01 E755.471 F1080
G1 Y123.44 F9000
G1 X90.86 Y77.15 E758.737 F1080
G1 X89.88 Y77.56 F9000
G1 X44.56 Y122.88 E761.934 F1080
G1 Y122.31 F9000
G1 X88.79 Y78.09 E765.054 F1080
G1 X87.69 Y78.62 F9000
G1 X44.56 Y121.75 E768.097 F1080
G1 Y121.18 F9000
G1 X86.6 Y79.15 E771.063 F1080
G1 X85.51 Y79.67 F9000
G1 X44.56 Y120.62 E773.952 F1080
G1 Y120.05 F9000
G1 X84.41 Y80.2 E776.764 F1080
G1 X83.32 Y80.73 F9000
G1 X44.56 Y119.48 E779.498 F1080
G1 Y118.92 F9000
G1 X82.23 Y81.25 E782.156 F1080
G1 X81.14 Y81.78 F9000
G1 X44.56 Y118.35 E784.736 F1080
G1 Y117.79 F9000
G1 X80.04 Y82.31 E787.239 F1080
G1 X78.95 Y82.84 F9000
G1 X44.56 Y117.22 E789.666 F1080
G1 Y116.66 F9000
G1 X77.86 Y83.36 E792.015 F1080
G1 X76.76 Y83.89 F9000
G1 X44.56 Y116.09 E794.287 F1080
G1 Y115.52 F9000
G1 X75.67 Y84.42 E796.481 F1080
G1 X74.58 Y84.94 F9000
G1 X44.56 Y114.96 E798.599 F1080
G1 Y114.39 F9000
G1 X73.49 Y85.47 E800.64 F1080
G1 X72.39 Y86 F9000
G1 X44.56 Y113.83 E802.603 F1080
G1 Y113.26 F9000
G1 X71.3 Y86.53 E804.49 F1080
G1 X70.21 Y87.05 F9000
G1 X44.56 Y112.7 E806.299 F1080
G1 Y112.13 F9000
G1 X69.11 Y87.58 E808.031 F1080
G1 X68.02 Y88.11 F9000
G1 X44.56 Y111.57 E809.686 F1080
G1 Y111 F9000
G1 X66.93 Y88.63 E811.264 F1080
G1 X65.84 Y89.16 F9000
G1 X44.56 Y110.43 E812.765 F1080
G1 Y109.87 F9000
G1 X64.74 Y89.69 E814.189 F1080
G1 X63.65 Y90.22 F9000
G1 X44.56 Y109.3 E815.536 F1080
G1 Y108.74 F9000
G1 X62.56 Y90.74 E816.805 F1080
G1 X61.46 Y91.27 F9000
G1 X44.56 Y108.17 E817.998 F1080
G1 Y107.61 F9000
G1 X60.37 Y91.8 E819.113 F1080
G1 X59.28 Y92.32 F9000
G1 X44.56 Y107.04 E820.151 F1080
G1 Y106.47 F9000
G1 X58.19 Y92.85 E821.112 F1080
G1 X57.09 Y93.38 F9000
G1 X44.56 Y105.91 E821.996 F1080
G1 Y105.34 F9000
G1 X56 Y93.91 E822.803 F1080
G1 X54.91 Y94.43 F9000
G1 X44.56 Y104.78 E823.533 F1080
G1 Y104.21 F9000
G1 X53.82 Y94.96 E824.186 F1080
G1 X52.72 Y95.49 F9000
G1 X44.56 Y103.65 E824.761 F1080
G1 Y103.08 F9000
G1 X51.63 Y96.01 E825.26 F1080
G1 X50.54 Y96.54 F9000
G1 X44.56 Y102.51 E825.681 F1080
G1 Y101.95 F9000
G1 X49.44 Y97.07 E826.026 F1080
G1 X48.35 Y97.6 F9000
G1 X44.56 Y101.38 E826.293 F1080
G1 Y100.82 F9000
G1 X47.26 Y98.12 E826.483 F1080
G1 X46.16 Y98.65 F9000
G1 X44.56 Y100.25 E826.596 F1080
G1 Y99.69 F9000
G1 X45.07 Y99.18 E826.632 F1080
G1 E823.632 F1800
G1 Z0.8
G1 X61.73 Y110.2 F9000
G1 X62.23 Y110.52
G1 X62.53 Y110.67
G1 X63.67 Y111.42
G1 X63.87 Y111.55
; TYPE:WALL-OUTER
G1 Z0.3
G1 E826.632 F1800
G1 X93.31 Y97.35 E828.262 F1080
G1 X164.12 Y111.68 E831.867
G1 Y142.32 E833.395
G1 X93.31 Y156.65 E837
G1 X63.87 Y142.45 E838.63
G1 Y111.59 E840.17
G1 Y111.55
G1 X66.58 Y110.25
G1 X64.27 Y111.8 F9000
; TYPE:WALL-INNER
G1 X93.37 Y97.77 E841.782 F1080
G1 X163.72 Y112.01 E845.363
G1 Y141.99 E846.859
G1 X93.37 Y156.23 E850.44
G1 X64.27 Y142.2 E852.051
G1 Y111.84 E853.566
G1 Y111.8
G1 X64.61 Y112.45 F9000
; TYPE:BOTTOM-FILL
G1 X65.45 Y111.61 E853.625 F1080
G1 X66.55 Y111.08 F9000
G1 X64.61 Y113.01 E853.762 F1080
G1 Y113.58 F9000
G1 X67.64 Y110.55 E853.975 F1080
G1 X68.73 Y110.03 F9000
G1 X64.61 Y114.14 E854.265 F1080
G1 Y114.71 F9000
G1 X69.82 Y109.5 E854.633 F1080
G1 X70.92 Y108.97 F9000
G1 X64.61 Y115.27 E855.078 F1080
G1 Y115.84 F9000
G1 X72.01 Y108.44 E855.599 F1080
G1 X73.1 Y107.92 F9000
G1 X64.61 Y116.41 E856.198 F1080
G1 Y116.97 F9000
G1 X74.19 Y107.39 E856.874 F1080
G1 X75.29 Y106.86 F9000
G1 X64.61 Y117.54 E857.627 F1080
G1 Y118.1 F9000
G1 X76.38 Y106.34 E858.457 F1080
G1 X77.47 Y105.81 F9000
G1 X64.61 Y118.67 E859.365 F1080
G1 Y119.23 F9000
G1 X78.57 Y105.28 E860.349 F1080
G1 X79.66 Y104.76 F9000
G1 X64.61 Y119.8 E861.41 F1080
G1 Y120.37 F9000
G1 X80.75 Y104.23 E862.549 F1080
G1 X81.84 Y103.7 F9000
G1 X64.61 Y120.93 E863.765 F1080
G1 Y121.5 F9000
G1 X82.94 Y103.17 E865.057 F1080
G1 X84.03 Y102.65 F9000
G1 X64.61 Y122.06 E866.427 F1080
G1 Y122.63 F9000
G1 X85.12 Y102.12 E867.874 F1080
G1 X86.22 Y101.59 F9000
G1 X64.61 Y123.19 E869.398 F1080
G1 Y123.76 F9000
G1 X87.31 Y101.07 E870.999 F1080
G1 X88.4 Y100.54 F9000
G1 X64.61 Y124.32 E872.678 F1080
G1 Y124.89 F9000
G1 X89.49 Y100.01 E874.433 F1080
G1 X90.59 Y99.48 F9000
G1 X64.61 Y125.46 E876.265 F1080
G1 Y126.02 F9000
G1 X91.68 Y98.96 E878.175 F1080
G1 X92.77 Y98.43 F9000
G1 X64.61 Y126.59 E880.162 F1080
G1 Y127.15 F9000
G1 X93.61 Y98.16 E882.207 F1080
G1 X94.08 Y98.26 F9000
G1 X64.61 Y127.72 E884.286 F1080
G1 Y128.28 F9000
G1 X94.55 Y98.35 E886.398 F1080
G1 X95.02 Y98.45 F9000
G1 X64.61 Y128.85 E888.543 F1080
G1 Y129.42 F9000
G1 X95.49 Y98.54 E890.721 F1080
G1 X95.96 Y98.64 F9000
G1 X64.61 Y129.98 E892.933 F1080
G1 Y130.55 F9000
G1 X96.43 Y98.73 E895.177 F1080
G1 X96.9 Y98.83 F9000
G1 X64.61 Y131.11 E897.455 F1080
G1 Y131.68 F9000
G1 X97.37 Y98.92 E899.766 F1080
G1 X97.84 Y99.02 F9000
G1 X64.61 Y132.24 E902.111 F1080
G1 Y132.81 F9000
G1 X98.31 Y99.11 E904.488 F1080
G1 X98.78 Y99.21 F9000
G1 X64.61 Y133.38 E906.899 F1080
G1 Y133.94 F9000
G1 X99.25 Y99.3 E909.343 F1080
G1 X99.72 Y99.4 F9000
G1 X64.61 Y134.51 E911.82 F1080
G1 Y135.07 F9000
G1 X100.19 Y99.49 E914.33 F1080
G1 X100.66 Y99.59 F9000
G1 X64.61 Y135.64 E916.873 F1080
G1 Y136.2 F9000
G1 X101.13 Y99.69 E919.45 F1080
G1 X101.6 Y99.78 F9000
G1 X64.61 Y136.77 E922.06 F1080
G1 Y137.34 F9000
G1 X102.07 Y99.88 E924.703 F1080
G1 X102.54 Y99.97 F9000
G1 X64.61 Y137.9 E927.379 F1080
G1 Y138.47 F9000
G1 X103.02 Y100.07 E930.089 F1080
G1 X103.49 Y100.16 F9000
G1 X64.61 Y139.03 E932.831 F1080
G1 Y139.6 F9000
G1 X103.96 Y100.26 E935.607 F1080
G1 X104.43 Y100.35 F9000
G1 X64.61 Y140.16 E938.416 F1080
G1 Y140.73 F9000
G1 X104.9 Y100.45 E941.258 F1080
G1 X105.37 Y100.54 F9000
G1 X64.61 Y141.3 E944.133 F1080
G1 Y141.86 F9000
G1 X105.84 Y100.64 E947.042 F1080
G1 X106.31 Y100.73 F9000
G1 X64.91 Y142.13 E949.963 F1080
G1 X65.29 Y142.31 F9000
G1 X106.78 Y100.83 E952.89 F1080
G1 X107.25 Y100.92 F9000
G1 X65.67 Y142.5 E955.823 F1080
G1 X66.06 Y142.68 F9000
G1 X107.72 Y101.02 E958.763 F1080
G1 X108.19 Y101.11 F9000
G1 X66.44 Y142.87 E961.709 F1080
G1 X66.82 Y143.05 F9000
G1 X108.66 Y101.21 E964.661 F1080
G1 X109.13 Y101.3 F9000
G1 X67.2 Y143.23 E967.619 F1080
G1 X67.58 Y143.42 F9000
G1 X109.6 Y101.4 E970.584 F1080
G1 X110.07 Y101.49 F9000
G1 X67.96 Y143.6 E973.555 F1080
G1 X68.35 Y143.79 F9000
G1 X110.54 Y101.59 E976.532 F1080
G1 X111.01 Y101.68 F9000
G1 X68.73 Y143.97 E979.515 F1080
G1 X69.11 Y144.15 F9000
G1 X111.48 Y101.78 E982.505 F1080
G1 X111.95 Y101.87 F9000
G1 X69.49 Y144.34 E985.501 F1080
G1 X69.87 Y144.52 F9000
G1 X112.42 Y101.97 E988.503 F1080
G1 X112.89 Y102.07 F9000
G1 X70.25 Y144.71 E991.512 F1080
G1 X70.64 Y144.89 F9000
G1 X113.37 Y102.16 E994.527 F1080
G1 X113.84 Y102.26 F9000
G1 X71.02 Y145.07 E997.548 F1080
G1 X71.4 Y145.26 F9000
G1 X114.31 Y102.35 E1000.575 F1080
G1 X114.78 Y102.45 F9000
G1 X71.78 Y145.44 E1003.609 F1080
G1 X72.16 Y145.63 F9000
G1 X115.25 Y102.54 E1006.649 F1080
G1 X115.72 Y102.64 F9000
G1 X72.54 Y145.81 E1009.695 F1080
G1 X72.93 Y145.99 F9000
G1 X116.19 Y102.73 E1012.747 F1080
G1 X116.66 Y102.83 F9000
G1 X73.31 Y146.18 E1015.806 F1080
G1 X73.69 Y146.36 F9000
G1 X117.13 Y102.92 E1018.871 F1080
G1 X117.6 Y103.02 F9000
G1 X74.07 Y146.55 E1021.942 F1080
G1 X74.45 Y146.73 F9000
G1 X118.07 Y103.11 E1025.019 F1080
G1 X118.54 Y103.21 F9000
G1 X74.83 Y146.92 E1028.103 F1080
G1 X75.21 Y147.1 F9000
G1 X119.01 Y103.3 E1031.193 F1080
G1 X119.48 Y103.4 F9000
G1 X75.6 Y147.28 E1034.29 F1080
G1 X75.98 Y147.47 F9000
G1 X119.95 Y103.49 E1037.392 F1080
G1 X120.42 Y103.59 F9000
G1 X76.36 Y147.65 E1040.501 F1080
G1 X76.74 Y147.84 F9000
G1 X120.89 Y103.68 E1043.616 F1080
G1 X121.36 Y103.78 F9000
G1 X77.12 Y148.02 E1046.737 F1080
G1 X77.5 Y148.2 F9000
G1 X121.83 Y103.87 E1049.865 F1080
G1 X122.3 Y103.97 F9000
G1 X77.89 Y148.39 E1052.999 F1080
G1 X78.27 Y148.57 F9000
G1 X122.77 Y104.07 E1056.139 F1080
G1 X123.25 Y104.16 F9000
G1 X78.65 Y148.76 E1059.286 F1080
G1 X79.03 Y148.94 F9000
G1 X123.72 Y104.26 E1062.438 F1080
G1 X124.19 Y104.35 F9000
G1 X79.41 Y149.12 E1065.597 F1080
G1 X79.79 Y149.31 F9000
G1 X124.66 Y104.45 E1068.763 F1080
G1 X125.13 Y104.54 F9000
G1 X80.18 Y149.49 E1071.934 F1080
G1 X80.56 Y149.68 F9000
G1 X125.6 Y104.64 E1075.112 F1080
G1 X126.07 Y104.73 F9000
G1 X80.94 Y149.86 E1078.296 F1080
G1 X81.32 Y150.04 F9000
G1 X126.54 Y104.83 E1081.486 F1080
G1 X127.01 Y104.92 F9000
G1 X81.7 Y150.23 E1084.683 F1080
G1 X82.08 Y150.41 F9000
G1 X127.48 Y105.02 E1087.886 F1080
G1 X127.95 Y105.11 F9000
G1 X82.47 Y150.6 E1091.095 F1080
G1 X82.85 Y150.78 F9000
G1 X128.42 Y105.21 E1094.31 F1080
G1 X128.89 Y105.3 F9000
G1 X83.23 Y150.97 E1097.532 F1080
G1 X83.61 Y151.15 F9000
G1 X129.36 Y105.4 E1100.76 F1080
G1 X129.83 Y105.49 F9000
G1 X83.99 Y151.33 E1103.994 F1080
G1 X84.37 Y151.52 F9000
G1 X130.3 Y105.59 E1107.235 F1080
G1 X130.77 Y105.68 F9000
G1 X84.76 Y151.7 E1110.481 F1080
G1 X85.14 Y151.89 F9000
G1 X131.24 Y105.78 E1113.734 F1080
G1 X131.71 Y105.88 F9000
G1 X85.52 Y152.07 E1116.994 F1080
G1 X85.9 Y152.25 F9000
G1 X132.18 Y105.97 E1120.259 F1080
G1 X132.65 Y106.07 F9000
G1 X86.28 Y152.44 E1123.531 F1080
G1 X86.66 Y152.62 F9000
G1 X133.12 Y106.16 E1126.809 F1080
G1 X133.6 Y106.26 F9000
G1 X87.04 Y152.81 E1130.093 F1080
G1 X87.43 Y152.99 F9000
G1 X134.07 Y106.35 E1133.384 F1080
G1 X134.54 Y106.45 F9000
G1 X87.81 Y153.17 E1136.681 F1080
G1 X88.19 Y153.36 F9000
G1 X135.01 Y106.54 E1139.984 F1080
G1 X135.48 Y106.64 F9000
G1 X88.57 Y153.54 E1143.294 F1080
G1 X88.95 Y153.73 F9000
G1 X135.95 Y106.73 E1146.609 F1080
G1 X136.42 Y106.83 F9000
G1 X89.33 Y153.91 E1149.931 F1080
G1 X89.72 Y154.09 F9000
G1 X136.89 Y106.92 E1153.259 F1080
G1 X137.36 Y107.02 F9000
G1 X90.1 Y154.28 E1156.594 F1080
G1 X90.48 Y154.46 F9000
G1 X137.83 Y107.11 E1159.935 F1080
G1 X138.3 Y107.21 F9000
G1 X90.86 Y154.65 E1163.282 F1080
G1 X91.24 Y154.83 F9000
G1 X138.77 Y107.3 E1166.635 F1080
G1 X139.24 Y107.4 F9000
G1 X91.62 Y155.01 E1169.995 F1080
G1 X92.01 Y155.2 F9000
G1 X139.71 Y107.49 E1173.361 F1080
G1 X140.18 Y107.59 F9000
G1 X92.39 Y155.38 E1176.733 F1080
G1 X92.77 Y155.57 F9000
G1 X140.65 Y107.68 E1180.111 F1080
G1 X141.12 Y107.78 F9000
G1 X93.15 Y155.75 E1183.496 F1080
G1 X93.64 Y155.83 F9000
G1 X141.59 Y107.87 E1186.879 F1080
G1 X142.06 Y107.97 F9000
G1 X94.35 Y155.69 E1190.246 F1080
G1 X95.05 Y155.54 F9000
G1 X142.53 Y108.07 E1193.596 F1080
G1 X143 Y108.16 F9000
G1 X95.76 Y155.4 E1196.929 F1080
G1 X96.47 Y155.26 F9000
G1 X143.47 Y108.26 E1200.245 F1080
G1 X143.95 Y108.35 F9000
G1 X97.18 Y155.11 E1203.545 F1080
G1 X97.89 Y154.97 F9000
G1 X144.42 Y108.45 E1206.827 F1080
G1 X144.89 Y108.54 F9000
G1 X98.6 Y154.83 E1210.093 F1080
G1 X99.31 Y154.68 F9000
G1 X145.36 Y108.64 E1213.341 F1080
G1 X145.83 Y108.73 F9000
G1 X100.02 Y154.54 E1216.573 F1080
G1 X100.73 Y154.4 F9000
G1 X146.3 Y108.83 E1219.788 F1080
G1 X146.77 Y108.92 F9000
G1 X101.44 Y154.25 E1222.987 F1080
G1 X102.15 Y154.11 F9000
G1 X147.24 Y109.02 E1226.168 F1080
G1 X147.71 Y109.11 F9000
G1 X102.86 Y153.96 E1229.333 F1080
G1 X103.57 Y153.82 F9000
G1 X148.18 Y109.21 E1232.48 F1080
G1 X148.65 Y109.3 F9000
G1 X104.27 Y153.68 E1235.611 F1080
G1 X104.98 Y153.53 F9000
G1 X149.12 Y109.4 E1238.725 F1080
G1 X149.59 Y109.49 F9000
G1 X105.69 Y153.39 E1241.822 F1080
G1 X106.4 Y153.25 F9000
G1 X150.06 Y109.59 E1244.903 F1080
G1 X150.53 Y109.68 F9000
G1 X107.11 Y153.1 E1247.966 F1080
G1 X107.82 Y152.96 F9000
G1 X151 Y109.78 E1251.013 F1080
G1 X151.47 Y109.87 F9000
G1 X108.53 Y152.82 E1254.043 F1080
G1 X109.24 Y152.67 F9000
G1 X151.94 Y109.97 E1257.055 F1080
G1 X152.41 Y110.06 F9000
G1 X109.95 Y152.53 E1260.052 F1080
G1 X110.66 Y152.39 F9000
G1 X152.88 Y110.16 E1263.031 F1080
G1 X153.35 Y110.26 F9000
G1 X111.37 Y152.24 E1265.993 F1080
G1 X112.08 Y152.1 F9000
G1 X153.82 Y110.35 E1268.939 F1080
G1 X154.29 Y110.45 F9000
G1 X112.79 Y151.96 E1271.867 F1080
G1 X113.49 Y151.81 F9000
G1 X154.77 Y110.54 E1274.779 F1080
G1 X155.24 Y110.64 F9000
G1 X114.2 Y151.67 E1277.674 F1080
G1 X114.91 Y151.52 F9000
G1 X155.71 Y110.73 E1280.553 F1080
G1 X156.18 Y110.83 F9000
G1 X115.62 Y151.38 E1283.414 F1080
G1 X116.33 Y151.24 F9000
G1 X156.65 Y110.92 E1286.258 F1080
G1 X157.12 Y111.02 F9000
G1 X117.04 Y151.09 E1289.086 F1080
G1 X117.75 Y150.95 F9000
G1 X157.59 Y111.11 E1291.897 F1080
G1 X158.06 Y111.21 F9000
G1 X118.46 Y150.81 E1294.691 F1080
G1 X119.17 Y150.66 F9000
G1 X158.53 Y111.3 E1297.468 F1080
G1 X159 Y111.4 F9000
G1 X119.88 Y150.52 E1300.228 F1080
G1 X120.59 Y150.38 F9000
G1 X159.47 Y111.49 E1302.971 F1080
G1 X159.94 Y111.59 F9000
G1 X121.3 Y150.23 E1305.698 F1080
G1 X122.01 Y150.09 F9000
G1 X160.41 Y111.68 E1308.408 F1080
G1 X160.88 Y111.78 F9000
G1 X122.72 Y149.94 E1311.1 F1080
G1 X123.42 Y149.8 F9000
G1 X161.35 Y111.87 E1313.776 F1080
G1 X161.82 Y111.97 F9000
G1 X124.13 Y149.66 E1316.435 F1080
G1 X124.84 Y149.51 F9000
G1 X162.29 Y112.07 E1319.078 F1080
G1 X162.76 Y112.16 F9000
G1 X125.55 Y149.37 E1321.703 F1080
G1 X126.26 Y149.23 F9000
G1 X163.23 Y112.26 E1324.312 F1080
G1 X163.38 Y112.67 F9000
G1 X126.97 Y149.08 E1326.881 F1080
G1 X127.68 Y148.94 F9000
G1 X163.38 Y113.24 E1329.399 F1080
G1 Y113.81 F9000
G1 X128.39 Y148.8 E1331.868 F1080
G1 X129.1 Y148.65 F9000
G1 X163.38 Y114.37 E1334.287 F1080
G1 Y114.94 F9000
G1 X129.81 Y148.51 E1336.656 F1080
G1 X130.52 Y148.37 F9000
G1 X163.38 Y115.5 E1338.974 F1080
G1 Y116.07 F9000
G1 X131.23 Y148.22 E1341.243 F1080
G1 X131.94 Y148.08 F9000
G1 X163.38 Y116.63 E1343.462 F1080
G1 Y117.2 F9000
G1 X132.64 Y147.94 E1345.63 F1080
G1 X133.35 Y147.79 F9000
G1 X163.38 Y117.77 E1347.749 F1080
G1 Y118.33 F9000
G1 X134.06 Y147.65 E1349.817 F1080
G1 X134.77 Y147.5 F9000
G1 X163.38 Y118.9 E1351.836 F1080
G1 Y119.46 F9000
G1 X135.48 Y147.36 E1353.804 F1080
G1 X136.19 Y147.22 F9000
G1 X163.38 Y120.03 E1355.723 F1080
G1 Y120.59 F9000
G1 X136.9 Y147.07 E1357.591 F1080
G1 X137.61 Y146.93 F9000
G1 X163.38 Y121.16 E1359.409 F1080
G1 Y121.72 F9000
G1 X138.32 Y146.79 E1361.177 F1080
G1 X139.03 Y146.64 F9000
G1 X163.38 Y122.29 E1362.896 F1080
G1 Y122.86 F9000
G1 X139.74 Y146.5 E1364.564 F1080
G1 X140.45 Y146.36 F9000
G1 X163.38 Y123.42 E1366.182 F1080
G1 Y123.99 F9000
G1 X141.16 Y146.21 E1367.75 F1080
G1 X141.86 Y146.07 F9000
G1 X163.38 Y124.55 E1369.268 F1080
G1 Y125.12 F9000
G1 X142.57 Y145.93 E1370.736 F1080
G1 X143.28 Y145.78 F9000
G1 X163.38 Y125.68 E1372.154 F1080
G1 Y126.25 F9000
G1 X143.99 Y145.64 E1373.522 F1080
G1 X144.7 Y145.49 F9000
G1 X163.38 Y126.82 E1374.84 F1080
G1 X163.38 Y127.38 F9000
G1 X145.41 Y145.35 E1376.108 F1080
G1 X146.12 Y145.21 F9000
G1 X163.38 Y127.95 E1377.325 F1080
G1 Y128.51 F9000
G1 X146.83 Y145.06 E1378.493 F1080
G1 X147.54 Y144.92 F9000
G1 X163.38 Y129.08 E1379.611 F1080
G1 Y129.65 F9000
G1 X148.25 Y144.78 E1380.678 F1080
G1 X148.96 Y144.63 F9000
G1 X163.38 Y130.21 E1381.696 F1080
G1 Y130.78 F9000
G1 X149.67 Y144.49 E1382.664 F1080
G1 X150.38 Y144.35 F9000
G1 X163.38 Y131.34 E1383.581 F1080
G1 Y131.91 F9000
G1 X151.09 Y144.2 E1384.449 F1080
G1 X151.79 Y144.06 F9000
G1 X163.38 Y132.47 E1385.266 F1080
G1 Y133.04 F9000
G1 X152.5 Y143.92 E1386.033 F1080
G1 X153.21 Y143.77 F9000
G1 X163.38 Y133.6 E1386.751 F1080
G1 Y134.17 F9000
G1 X153.92 Y143.63 E1387.418 F1080
G1 X154.63 Y143.48 F9000
G1 X163.38 Y134.74 E1388.035 F1080
G1 Y135.3 F9000
G1 X155.34 Y143.34 E1388.602 F1080
G1 X156.05 Y143.2 F9000
G1 X163.38 Y135.87 E1389.119 F1080
G1 Y136.43 F9000
G1 X156.76 Y143.05 E1389.587 F1080
G1 X157.47 Y142.91 F9000
G1 X163.38 Y137 E1390.004 F1080
G1 Y137.56 F9000
G1 X158.18 Y142.77 E1390.371 F1080
G1 X158.89 Y142.62 F9000
G1 X163.38 Y138.13 E1390.688 F1080
G1 Y138.7 F9000
G1 X159.6 Y142.48 E1390.955 F1080
G1 X160.31 Y142.34 F9000
G1 X163.38 Y139.26 E1391.171 F1080
G1 Y139.83 F9000
G1 X161.01 Y142.19 E1391.338 F1080
G1 X161.72 Y142.05 F9000
G1 X163.38 Y140.39 E1391.455 F1080
G1 Y140.96 F9000
G1 X162.43 Y141.91 E1391.522 F1080
G1 X163.14 Y141.76 F9000
G1 X163.38 Y141.52 E1391.539 F1080
; Layer Change GCode
; LAYER:1
; LAYER_HEIGHT:0.3
; TYPE:FILL
G1 X164.04 Y142.25 Z0.6 F9000
; TYPE:WALL-INNER
G1 X159.32 Y143.2 E1391.779 F3600
G1 X154.61 Y144.16 E1392.019
G1 X149.89 Y145.11 E1392.259
G1 X145.18 Y146.06 E1392.498
G1 X140.47 Y147.02 E1392.738
G1 X135.75 Y147.97 E1392.978
G1 X131.04 Y148.93 E1393.218
G1 X126.32 Y149.88 E1393.458
G1 X121.61 Y150.83 E1393.698
G1 X116.9 Y151.79 E1393.938
G1 X112.18 Y152.74 E1394.178
G1 X107.47 Y153.69 E1394.418
G1 X102.75 Y154.65 E1394.658
G1 X98.04 Y155.6 E1394.898
G1 X93.33 Y156.56 E1395.138
G1 X89.13 Y154.53 E1395.37
G1 X84.94 Y152.51 E1395.602
G1 X80.74 Y150.49 E1395.835
G1 X76.55 Y148.46 E1396.067
G1 X72.35 Y146.44 E1396.3
G1 X68.16 Y144.42 E1396.532
G1 X63.96 Y142.39 E1396.764
G1 Y138 E1396.984
G1 Y133.6 E1397.203
G1 Y129.2 E1397.423
G1 Y124.8 E1397.642
G1 Y120.4 E1397.861
G1 Y116 E1398.081
G1 Y111.61 E1398.3
G1 X68.16 Y109.58 E1398.533
G1 X72.35 Y107.56 E1398.765
G1 X76.55 Y105.54 E1398.997
G1 X80.74 Y103.51 E1399.23
G1 X84.94 Y101.49 E1399.462
G1 X89.13 Y99.47 E1399.694
G1 X93.33 Y97.44 E1399.927
G1 X98.04 Y98.4 E1400.167
G1 X102.75 Y99.35 E1400.407
G1 X107.47 Y100.31 E1400.646
G1 X112.18 Y101.26 E1400.886
G1 X116.9 Y102.21 E1401.126
G1 X121.61 Y103.17 E1401.366
G1 X126.32 Y104.12 E1401.606
G1 X131.04 Y105.07 E1401.846
G1 X135.75 Y106.03 E1402.086
G1 X140.47 Y106.98 E1402.326
G1 X145.18 Y107.94 E1402.566
G1 X149.89 Y108.89 E1402.806
G1 X154.61 Y109.84 E1403.046
G1 X159.32 Y110.8 E1403.286
G1 X164.04 Y111.75 E1403.526
G1 Y116.1 E1403.743
G1 Y120.45 E1403.96
G1 Y124.8 E1404.177
G1 Y129.16 E1404.394
G1 Y133.51 E1404.611
G1 Y137.86 E1404.828
G1 Y142.21 E1405.045
G1 X164.04 Y142.25
G1 X164.44 Y142.58 F9000
; TYPE:WALL-OUTER
G1 X159.69 Y143.54 E1405.287 F3000
G1 X154.95 Y144.5 E1405.528
G1 X150.2 Y145.46 E1405.77
G1 X145.46 Y146.42 E1406.011
G1 X140.71 Y147.38 E1406.253
G1 X135.97 Y148.34 E1406.494
G1 X131.23 Y149.3 E1406.736
G1 X126.48 Y150.25 E1406.977
G1 X121.74 Y151.21 E1407.219
G1 X116.99 Y152.17 E1407.46
G1 X112.25 Y153.13 E1407.702
G1 X107.51 Y154.09 E1407.943
G1 X102.76 Y155.05 E1408.185
G1 X98.02 Y156.01 E1408.426
G1 X93.27 Y156.97 E1408.668
G1 X89.03 Y154.93 E1408.903
G1 X84.79 Y152.88 E1409.138
G1 X80.54 Y150.83 E1409.373
G1 X76.3 Y148.79 E1409.608
G1 X72.05 Y146.74 E1409.843
G1 X67.81 Y144.69 E1410.078
G1 X63.56 Y142.65 E1410.313
G1 Y138.17 E1410.536
G1 Y133.7 E1410.759
G1 Y129.23 E1410.982
G1 Y124.76 E1411.205
G1 Y120.29 E1411.428
G1 Y115.82 E1411.651
G1 Y111.35 E1411.874
G1 X67.81 Y109.31 E1412.109
G1 X72.05 Y107.26 E1412.345
G1 X76.3 Y105.21 E1412.58
G1 X80.54 Y103.17 E1412.815
G1 X84.79 Y101.12 E1413.05
G1 X89.03 Y99.07 E1413.285
G1 X93.27 Y97.03 E1413.52
G1 X98.02 Y97.98 E1413.761
G1 X102.76 Y98.94 E1414.003
G1 X107.51 Y99.9 E1414.244
G1 X112.25 Y100.86 E1414.486
G1 X116.99 Y101.82 E1414.727
G1 X121.74 Y102.78 E1414.969
G1 X126.48 Y103.74 E1415.21
G1 X131.23 Y104.7 E1415.452
G1 X135.97 Y105.66 E1415.693
G1 X140.71 Y106.62 E1415.935
G1 X145.46 Y107.58 E1416.176
G1 X150.2 Y108.54 E1416.418
G1 X154.95 Y109.5 E1416.659
G1 X159.69 Y110.46 E1416.901
G1 X164.44 Y111.42 E1417.142
G1 Y115.87 E1417.364
G1 Y120.31 E1417.586
G1 Y124.76 E1417.807
G1 Y129.2 E1418.029
G1 Y133.65 E1418.251
G1 Y138.09 E1418.473
G1 Y142.54 E1418.694
G1 X164.44 Y142.58
G1 X161.5 Y143.17
G1 X164.04 Y142.25 F9000
G1 E1415.694 F1800
G1 Z1.1
G1 X163.95 Y134.74 F9000
G1 X163.86 Y127.23
G1 X163.78 Y119.73
G1 X163.69 Y112.22
; TYPE:FILL
G1 Z0.6
G1 E1418.694 F1800
G1 X163.46 Y111.98 E1418.711 F3600
G1 X162.75 Y111.84 F9000
G1 X163.69 Y112.78 E1418.778 F3600
G1 Y113.35 F9000
G1 X162.04 Y111.69 E1418.895 F3600
G1 X161.33 Y111.55 F9000
G1 X163.69 Y113.91 E1419.062 F3600
G1 Y114.48 F9000
G1 X160.62 Y111.41 E1419.279 F3600
G1 X159.91 Y111.26 F9000
G1 X163.69 Y115.05 E1419.546 F3600
G1 Y115.61 F9000
G1 X161.45 Y113.37 E1419.704 F3600
G1 X159.2 Y111.12 E1419.863
G1 X158.49 Y110.98 F9000
G1 X161.09 Y113.58 E1420.046 F3600
G1 X163.69 Y116.18 E1420.23
G1 X163.69 Y116.74 F9000
G1 X160.74 Y113.79 E1420.438 F3600
G1 X157.78 Y110.83 E1420.647
G1 X157.07 Y110.69 F9000
G1 X160.38 Y114 E1420.88 F3600
G1 X163.69 Y117.31 E1421.114
G1 X163.69 Y117.87 F9000
G1 X161.25 Y115.43 E1421.286 F3600
G1 X158.81 Y112.99 E1421.458
G1 X156.37 Y110.54 E1421.631
G1 X155.66 Y110.4 F9000
G1 X158.34 Y113.08 E1421.82 F3600
G1 X161.01 Y115.76 E1422.009
G1 X163.69 Y118.44 E1422.198
G1 X163.69 Y119.01 F9000
G1 X160.78 Y116.09 E1422.404 F3600
G1 X157.86 Y113.17 E1422.609
G1 X154.95 Y110.26 E1422.815
G1 X154.24 Y110.11 F9000
G1 X157.39 Y113.27 E1423.037 F3600
G1 X160.54 Y116.42 E1423.26
G1 X163.69 Y119.57 E1423.482
G1 X163.69 Y120.14 F9000
G1 X160.31 Y116.75 E1423.721 F3600
G1 X156.92 Y113.36 E1423.961
G1 X153.53 Y109.97 E1424.2
G1 X152.82 Y109.83 F9000
G1 X155.54 Y112.55 E1424.391 F3600
G1 X158.26 Y115.26 E1424.583
G1 X160.98 Y117.98 E1424.775
G1 X163.69 Y120.7 E1424.967
G1 X163.69 Y121.27 F9000
G1 X160.8 Y118.37 E1425.171 F3600
G1 X157.9 Y115.48 E1425.376
G1 X155.01 Y112.58 E1425.58
G1 X152.11 Y109.68 E1425.784
G1 X151.4 Y109.54 F9000
G1 X154.47 Y112.61 E1426.001 F3600
G1 X157.55 Y115.69 E1426.218
G1 X160.62 Y118.76 E1426.435
G1 X163.69 Y121.83 E1426.652
G1 X163.69 Y122.4 F9000
G1 X160.44 Y119.15 E1426.881 F3600
G1 X157.19 Y115.9 E1427.11
G1 X153.94 Y112.65 E1427.34
G1 X150.69 Y109.4 E1427.569
G1 X149.98 Y109.25 F9000
G1 X153.41 Y112.68 E1427.811 F3600
G1 X156.84 Y116.11 E1428.053
G1 X160.27 Y119.54 E1428.295
G1 X163.69 Y122.97 E1428.536
G1 X163.69 Y123.53 F9000
G1 X160.81 Y120.65 E1428.74 F3600
G1 X157.93 Y117.76 E1428.943
G1 X155.04 Y114.88 E1429.147
G1 X152.16 Y111.99 E1429.35
G1 X149.27 Y109.11 E1429.554
G1 X148.56 Y108.97 F9000
G1 X151.59 Y111.99 E1429.767 F3600
G1 X154.62 Y115.02 E1429.981
G1 X157.64 Y118.04 E1430.194
G1 X160.67 Y121.07 E1430.408
G1 X163.69 Y124.1 E1430.621
G1 X163.69 Y124.66 F9000
G1 X160.53 Y121.49 E1430.845 F3600
G1 X157.36 Y118.33 E1431.068
G1 X154.19 Y115.16 E1431.292
G1 X151.02 Y111.99 E1431.515
G1 X147.86 Y108.82 E1431.739
G1 X147.15 Y108.68 F9000
G1 X150.46 Y111.99 E1431.972 F3600
G1 X153.77 Y115.3 E1432.206
G1 X157.07 Y118.61 E1432.439
G1 X160.38 Y121.92 E1432.673
G1 X163.69 Y125.23 E1432.907
G1 X163.69 Y125.79 F9000
G1 X160.24 Y122.34 E1433.15 F3600
G1 X156.79 Y118.89 E1433.394
G1 X153.34 Y115.44 E1433.637
G1 X149.89 Y111.99 E1433.881
G1 X146.44 Y108.54 E1434.124
G1 X145.73 Y108.39 F9000
G1 X148.72 Y111.39 E1434.335 F3600
G1 X151.72 Y114.38 E1434.547
G1 X154.71 Y117.38 E1434.758
G1 X157.71 Y120.37 E1434.969
G1 X160.7 Y123.36 E1435.181
G1 X163.69 Y126.36 E1435.392
G1 X163.69 Y126.92 F9000
G1 X160.58 Y123.81 E1435.611 F3600
G1 X157.47 Y120.7 E1435.831
G1 X154.36 Y117.59 E1436.051
G1 X151.24 Y114.47 E1436.27
G1 X148.13 Y111.36 E1436.49
G1 X145.02 Y108.25 E1436.71
G1 X144.31 Y108.11 F9000
G1 X147.54 Y111.34 E1436.937 F3600
G1 X150.77 Y114.57 E1437.165
G1 X154 Y117.8 E1437.393
G1 X157.23 Y121.03 E1437.621
G1 X160.46 Y124.26 E1437.849
G1 X163.69 Y127.49 E1438.077
G1 X163.69 Y128.06 F9000
G1 X160.34 Y124.71 E1438.314 F3600
G1 X157 Y121.36 E1438.55
G1 X153.65 Y118.01 E1438.786
G1 X150.3 Y114.66 E1439.022
G1 X146.95 Y111.31 E1439.259
G1 X143.6 Y107.96 E1439.495
G1 X142.89 Y107.82 F9000
G1 X146.36 Y111.29 E1439.74 F3600
G1 X149.82 Y114.75 E1439.984
G1 X153.29 Y118.22 E1440.229
G1 X156.76 Y121.69 E1440.474
G1 X160.23 Y125.15 E1440.718
G1 X163.69 Y128.62 E1440.963
G1 X163.69 Y129.19 F9000
G1 X160.62 Y126.11 E1441.18 F3600
G1 X157.55 Y123.04 E1441.397
G1 X154.47 Y119.97 E1441.613
G1 X151.4 Y116.89 E1441.83
G1 X148.33 Y113.82 E1442.047
G1 X145.25 Y110.75 E1442.264
G1 X142.18 Y107.67 E1442.481
G1 X141.47 Y107.53 F9000
G1 X144.65 Y110.71 E1442.705 F3600
G1 X147.82 Y113.88 E1442.929
G1 X151 Y117.05 E1443.153
G1 X154.17 Y120.23 E1443.377
G1 X157.34 Y123.4 E1443.601
G1 X160.52 Y126.58 E1443.825
G1 X163.69 Y129.75 E1444.049
G1 X163.69 Y130.32 F9000
G1 X160.42 Y127.04 E1444.28 F3600
G1 X157.14 Y123.77 E1444.511
G1 X153.87 Y120.49 E1444.742
G1 X150.59 Y117.22 E1444.973
G1 X147.31 Y113.94 E1445.204
G1 X144.04 Y110.66 E1445.435
G1 X140.76 Y107.39 E1445.667
G1 X140.05 Y107.24 F9000
G1 X143.43 Y110.62 E1445.905 F3600
G1 X146.81 Y114 E1446.143
G1 X150.19 Y117.38 E1446.381
G1 X153.56 Y120.75 E1446.62
G1 X156.94 Y124.13 E1446.858
G1 X160.32 Y127.51 E1447.096
G1 X163.69 Y130.88 E1447.334
G1 X163.69 Y131.45 F9000
G1 X160.22 Y127.97 E1447.58 F3600
G1 X156.74 Y124.49 E1447.825
G1 X153.26 Y121.01 E1448.071
G1 X149.78 Y117.54 E1448.316
G1 X146.3 Y114.06 E1448.562
G1 X142.82 Y110.58 E1448.807
G1 X139.35 Y107.1 E1449.052
G1 X138.64 Y106.96 F9000
G1 X141.77 Y110.09 E1449.273 F3600
G1 X144.9 Y113.22 E1449.494
G1 X148.03 Y116.35 E1449.715
G1 X151.17 Y119.49 E1449.936
G1 X154.3 Y122.62 E1450.157
G1 X157.43 Y125.75 E1450.378
G1 X160.56 Y128.88 E1450.599
G1 X163.69 Y132.02 E1450.82
G1 X163.69 Y132.58 F9000
G1 X160.47 Y129.36 E1451.048 F3600
G1 X157.25 Y126.14 E1451.275
G1 X154.03 Y122.92 E1451.502
G1 X150.81 Y119.7 E1451.729
G1 X147.59 Y116.48 E1451.957
G1 X144.37 Y113.26 E1452.184
G1 X141.15 Y110.03 E1452.411
G1 X137.93 Y106.81 E1452.638
G1 X137.22 Y106.67 F9000
G1 X140.53 Y109.98 E1452.872 F3600
G1 X143.84 Y113.29 E1453.105
G1 X147.15 Y116.6 E1453.339
G1 X150.46 Y119.91 E1453.573
G1 X153.77 Y123.22 E1453.806
G1 X157.07 Y126.53 E1454.04
G1 X160.38 Y129.84 E1454.273
G1 X163.69 Y133.15 E1454.507
G1 X163.69 Y133.71 F9000
G1 X160.3 Y130.31 E1454.746 F3600
G1 X156.9 Y126.92 E1454.986
G1 X153.5 Y123.52 E1455.226
G1 X150.1 Y120.12 E1455.466
G1 X146.7 Y116.72 E1455.705
G1 X143.3 Y113.32 E1455.945
G1 X139.91 Y109.93 E1456.185
G1 X136.51 Y106.53 E1456.425
G1 X135.8 Y106.38 F9000
G1 X139.29 Y109.87 E1456.671 F3600
G1 X142.77 Y113.36 E1456.917
G1 X146.26 Y116.84 E1457.163
G1 X149.75 Y120.33 E1457.409
G1 X153.23 Y123.82 E1457.655
G1 X156.72 Y127.3 E1457.901
G1 X160.21 Y130.79 E1458.147
G1 X163.69 Y134.28 E1458.393
G1 X163.69 Y134.84 F9000
G1 X160.52 Y131.67 E1458.617 F3600
G1 X157.34 Y128.49 E1458.841
G1 X154.16 Y125.31 E1459.066
G1 X150.98 Y122.13 E1459.29
G1 X147.8 Y118.95 E1459.514
G1 X144.62 Y115.77 E1459.738
G1 X141.45 Y112.6 E1459.963
G1 X138.27 Y109.42 E1460.187
G1 X135.09 Y106.24 E1460.411
G1 X134.38 Y106.1 F9000
G1 X137.64 Y109.35 E1460.641 F3600
G1 X140.89 Y112.61 E1460.871
G1 X144.15 Y115.87 E1461.1
G1 X147.41 Y119.12 E1461.33
G1 X150.67 Y122.38 E1461.56
G1 X153.92 Y125.64 E1461.79
G1 X157.18 Y128.9 E1462.02
G1 X160.44 Y132.15 E1462.25
G1 X163.69 Y135.41 E1462.479
G1 X163.69 Y135.98 F9000
G1 X160.36 Y132.64 E1462.715 F3600
G1 X157.02 Y129.3 E1462.95
G1 X153.69 Y125.97 E1463.185
G1 X150.35 Y122.63 E1463.421
G1 X147.01 Y119.3 E1463.656
G1 X143.68 Y115.96 E1463.892
G1 X140.34 Y112.62 E1464.127
G1 X137.01 Y109.29 E1464.362
G1 X133.67 Y105.95 E1464.598
G1 X132.96 Y105.81 F9000
G1 X136.38 Y109.22 E1464.839 F3600
G1 X139.79 Y112.64 E1465.079
G1 X143.21 Y116.05 E1465.32
G1 X146.62 Y119.47 E1465.561
G1 X150.04 Y122.88 E1465.802
G1 X153.45 Y126.3 E1466.043
G1 X156.86 Y129.71 E1466.284
G1 X160.28 Y133.13 E1466.525
G1 X163.69 Y136.54 E1466.766
G1 X163.69 Y137.11 F9000
G1 X160.2 Y133.61 E1467.012 F3600
G1 X156.71 Y130.12 E1467.259
G1 X153.21 Y126.63 E1467.505
G1 X149.72 Y123.13 E1467.752
G1 X146.23 Y119.64 E1467.998
G1 X142.73 Y116.15 E1468.245
G1 X139.24 Y112.65 E1468.491
G1 X135.75 Y109.16 E1468.738
G1 X132.25 Y105.67 E1468.984
G1 X131.54 Y105.52 F9000
G1 X134.76 Y108.74 E1469.211 F3600
G1 X137.97 Y111.95 E1469.438
G1 X141.19 Y115.17 E1469.665
G1 X144.4 Y118.38 E1469.892
G1 X147.62 Y121.6 E1470.118
G1 X150.83 Y124.81 E1470.345
G1 X154.05 Y128.03 E1470.572
G1 X157.26 Y131.24 E1470.799
G1 X160.48 Y134.46 E1471.026
G1 X163.69 Y137.67 E1471.253
G1 X163.69 Y138.24 F9000
G1 X160.41 Y134.95 E1471.484 F3600
G1 X157.12 Y131.67 E1471.716
G1 X153.84 Y128.38 E1471.948
G1 X150.55 Y125.09 E1472.18
G1 X147.26 Y121.81 E1472.412
G1 X143.98 Y118.52 E1472.644
G1 X140.69 Y115.24 E1472.875
G1 X137.41 Y111.95 E1473.107
G1 X134.12 Y108.66 E1473.339
G1 X130.84 Y105.38 E1473.571
G1 X130.13 Y105.24 F9000
G1 X133.48 Y108.59 E1473.808 F3600
G1 X136.84 Y111.95 E1474.045
G1 X140.2 Y115.31 E1474.282
G1 X143.55 Y118.66 E1474.518
G1 X146.91 Y122.02 E1474.755
G1 X150.27 Y125.38 E1474.992
G1 X153.62 Y128.73 E1475.229
G1 X156.98 Y132.09 E1475.466
G1 X160.34 Y135.45 E1475.703
G1 X163.69 Y138.8 E1475.939
G1 X163.69 Y139.37 F9000
G1 X160.27 Y135.94 E1476.181 F3600
G1 X156.84 Y132.51 E1476.423
G1 X153.41 Y129.09 E1476.665
G1 X149.98 Y125.66 E1476.907
G1 X146.56 Y122.23 E1477.149
G1 X143.13 Y118.8 E1477.391
G1 X139.7 Y115.38 E1477.632
G1 X136.27 Y111.95 E1477.874
G1 X132.84 Y108.52 E1478.116
G1 X129.42 Y105.09 E1478.358
G1 X128.71 Y104.95 F9000
G1 X132.21 Y108.45 E1478.605 F3600
G1 X135.7 Y111.95 E1478.852
G1 X139.2 Y115.44 E1479.098
G1 X142.7 Y118.94 E1479.345
G1 X146.2 Y122.44 E1479.592
G1 X149.7 Y125.94 E1479.839
G1 X153.2 Y129.44 E1480.086
G1 X156.7 Y132.94 E1480.333
G1 X160.2 Y136.44 E1480.58
G1 X163.69 Y139.94 E1480.826
G1 X163.69 Y140.5 F9000
G1 X160.45 Y137.26 E1481.055 F3600
G1 X157.2 Y134.01 E1481.284
G1 X153.96 Y130.77 E1481.513
G1 X150.71 Y127.52 E1481.742
G1 X147.47 Y124.28 E1481.971
G1 X144.22 Y121.03 E1482.2
G1 X140.98 Y117.79 E1482.429
G1 X137.73 Y114.54 E1482.658
G1 X134.49 Y111.3 E1482.887
G1 X131.24 Y108.05 E1483.116
G1 X128 Y104.81 E1483.345
G1 X127.29 Y104.66 F9000
G1 X130.6 Y107.97 E1483.578 F3600
G1 X133.91 Y111.28 E1483.812
G1 X137.22 Y114.59 E1484.046
G1 X140.53 Y117.9 E1484.279
G1 X143.84 Y121.21 E1484.513
G1 X147.15 Y124.52 E1484.746
G1 X150.46 Y127.83 E1484.98
G1 X153.77 Y131.14 E1485.213
G1 X157.07 Y134.45 E1485.447
G1 X160.38 Y137.76 E1485.68
G1 X163.69 Y141.07 E1485.914
G1 X163.69 Y141.63 F9000
G1 X160.32 Y138.26 E1486.152 F3600
G1 X156.95 Y134.88 E1486.39
G1 X153.57 Y131.51 E1486.628
G1 X150.2 Y128.14 E1486.866
G1 X146.82 Y124.76 E1487.104
G1 X143.45 Y121.39 E1487.342
G1 X140.08 Y118.01 E1487.58
G1 X136.7 Y114.64 E1487.818
G1 X133.33 Y111.27 E1488.056
G1 X129.95 Y107.89 E1488.294
G1 X126.58 Y104.52 E1488.532
G1 X125.87 Y104.37 F9000
G1 X129.29 Y107.8 E1488.774 F3600
G1 X132.71 Y111.22 E1489.015
G1 X136.13 Y114.64 E1489.256
G1 X139.56 Y118.06 E1489.498
G1 X142.98 Y121.48 E1489.739
G1 X146.4 Y124.9 E1489.981
G1 X149.82 Y128.32 E1490.222
G1 X153.24 Y131.74 E1490.463
G1 X156.66 Y135.17 E1490.705
G1 X160.08 Y138.59 E1490.946
G1 X163.51 Y142.01 E1491.188
G1 X163.03 Y142.1 F9000
G1 X159.59 Y138.66 E1491.43 F3600
G1 X156.15 Y135.22 E1491.673
G1 X152.71 Y131.78 E1491.916
G1 X149.26 Y128.33 E1492.159
G1 X145.82 Y124.89 E1492.402
G1 X142.38 Y121.45 E1492.645
G1 X138.93 Y118 E1492.888
G1 X135.49 Y114.56 E1493.131
G1 X132.05 Y111.12 E1493.374
G1 X128.6 Y107.67 E1493.617
G1 X125.16 Y104.23 E1493.86
G1 X124.45 Y104.09 F9000
G1 X127.92 Y107.55 E1494.104 F3600
G1 X131.38 Y111.02 E1494.349
G1 X134.85 Y114.48 E1494.593
G1 X138.31 Y117.95 E1494.837
G1 X141.78 Y121.41 E1495.082
G1 X145.24 Y124.88 E1495.326
G1 X148.7 Y128.34 E1495.571
G1 X152.17 Y131.8 E1495.815
G1 X155.63 Y135.27 E1496.06
G1 X159.1 Y138.73 E1496.304
G1 X162.56 Y142.2 E1496.549
G1 X162.09 Y142.29 F9000
G1 X158.61 Y138.81 E1496.795 F3600
G1 X155.12 Y135.32 E1497.041
G1 X151.63 Y131.83 E1497.287
G1 X148.15 Y128.35 E1497.533
G1 X144.66 Y124.86 E1497.779
G1 X141.17 Y121.38 E1498.025
G1 X137.69 Y117.89 E1498.271
G1 X134.2 Y114.4 E1498.517
G1 X130.72 Y110.92 E1498.762
G1 X127.23 Y107.43 E1499.008
G1 X123.74 Y103.94 E1499.254
G1 X123.03 Y103.8 F9000
G1 X126.54 Y107.31 E1499.502 F3600
G1 X130.05 Y110.82 E1499.749
G1 X133.56 Y114.33 E1499.997
G1 X137.07 Y117.83 E1500.245
G1 X140.57 Y121.34 E1500.492
G1 X144.08 Y124.85 E1500.74
G1 X147.59 Y128.36 E1500.987
G1 X151.1 Y131.87 E1501.235
G1 X154.61 Y135.37 E1501.482
G1 X158.11 Y138.88 E1501.73
G1 X161.62 Y142.39 E1501.977
G1 X161.15 Y142.48 F9000
G1 X157.62 Y138.95 E1502.226 F3600
G1 X154.09 Y135.42 E1502.475
G1 X150.56 Y131.89 E1502.724
G1 X147.03 Y128.37 E1502.973
G1 X143.5 Y124.84 E1503.222
G1 X139.97 Y121.31 E1503.471
G1 X136.44 Y117.78 E1503.72
G1 X132.91 Y114.25 E1503.969
G1 X129.38 Y110.72 E1504.218
G1 X125.85 Y107.19 E1504.468
G1 X122.33 Y103.66 E1504.717
G1 X121.62 Y103.51 F9000
G1 X124.87 Y106.77 E1504.946 F3600
G1 X128.13 Y110.03 E1505.176
G1 X131.38 Y113.28 E1505.406
G1 X134.64 Y116.54 E1505.635
G1 X137.89 Y119.79 E1505.865
G1 X141.15 Y123.05 E1506.095
G1 X144.4 Y126.3 E1506.324
G1 X147.66 Y129.56 E1506.554
G1 X150.92 Y132.81 E1506.784
G1 X154.17 Y136.07 E1507.013
G1 X157.43 Y139.32 E1507.243
G1 X160.68 Y142.58 E1507.473
G1 X160.21 Y142.68 F9000
G1 X156.94 Y139.4 E1507.704 F3600
G1 X153.66 Y136.12 E1507.935
G1 X150.39 Y132.85 E1508.166
G1 X147.11 Y129.57 E1508.397
G1 X143.83 Y126.3 E1508.628
G1 X140.56 Y123.02 E1508.859
G1 X137.28 Y119.75 E1509.091
G1 X134.01 Y116.47 E1509.322
G1 X130.73 Y113.2 E1509.553
G1 X127.46 Y109.92 E1509.784
G1 X124.18 Y106.65 E1510.015
G1 X120.91 Y103.37 E1510.246
G1 X120.2 Y103.23 F9000
G1 X123.49 Y106.52 E1510.479 F3600
G1 X126.79 Y109.82 E1510.711
G1 X130.08 Y113.11 E1510.944
G1 X133.38 Y116.41 E1511.176
G1 X136.67 Y119.7 E1511.409
G1 X139.97 Y123 E1511.641
G1 X143.26 Y126.29 E1511.874
G1 X146.56 Y129.59 E1512.106
G1 X149.86 Y132.88 E1512.339
G1 X153.15 Y136.18 E1512.571
G1 X156.45 Y139.47 E1512.804
G1 X159.74 Y142.77 E1513.036
G1 X159.27 Y142.87 F9000
G1 X155.95 Y139.55 E1513.27 F3600
G1 X152.64 Y136.23 E1513.504
G1 X149.32 Y132.92 E1513.738
G1 X146.01 Y129.6 E1513.972
G1 X142.69 Y126.29 E1514.206
G1 X139.38 Y122.97 E1514.44
G1 X136.06 Y119.66 E1514.673
G1 X132.75 Y116.34 E1514.907
G1 X129.43 Y113.03 E1515.141
G1 X126.12 Y109.71 E1515.375
G1 X122.8 Y106.4 E1515.609
G1 X119.49 Y103.08 E1515.843
G1 X118.78 Y102.94 F9000
G1 X122.11 Y106.27 E1516.078 F3600
G1 X125.45 Y109.61 E1516.314
G1 X128.78 Y112.94 E1516.549
G1 X132.12 Y116.28 E1516.784
G1 X135.45 Y119.61 E1517.019
G1 X138.79 Y122.95 E1517.255
G1 X142.12 Y126.28 E1517.49
G1 X145.46 Y129.62 E1517.725
G1 X148.79 Y132.95 E1517.961
G1 X152.13 Y136.29 E1518.196
G1 X155.46 Y139.62 E1518.431
G1 X158.8 Y142.96 E1518.667
G1 X158.33 Y143.06 F9000
G1 X154.97 Y139.7 E1518.903 F3600
G1 X151.62 Y136.35 E1519.14
G1 X148.26 Y132.99 E1519.377
G1 X144.91 Y129.64 E1519.613
G1 X141.55 Y126.28 E1519.85
G1 X138.2 Y122.93 E1520.087
G1 X134.84 Y119.57 E1520.324
G1 X131.49 Y116.22 E1520.56
G1 X128.13 Y112.86 E1520.797
G1 X124.78 Y109.51 E1521.034
G1 X121.42 Y106.15 E1521.27
G1 X118.07 Y102.8 E1521.507
G1 X117.36 Y102.65 F9000
G1 X120.73 Y106.03 E1521.745 F3600
G1 X124.11 Y109.4 E1521.983
G1 X127.48 Y112.78 E1522.222
G1 X130.86 Y116.15 E1522.46
G1 X134.23 Y119.53 E1522.698
G1 X137.61 Y122.9 E1522.936
G1 X140.98 Y126.28 E1523.174
G1 X144.36 Y129.65 E1523.412
G1 X147.73 Y133.03 E1523.65
G1 X151.11 Y136.4 E1523.888
G1 X154.48 Y139.78 E1524.127
G1 X157.86 Y143.15 E1524.365
G1 X157.39 Y143.25 F9000
G1 X153.99 Y139.85 E1524.604 F3600
G1 X150.6 Y136.46 E1524.844
G1 X147.2 Y133.06 E1525.083
G1 X143.81 Y129.67 E1525.323
G1 X140.41 Y126.27 E1525.562
G1 X137.02 Y122.88 E1525.802
G1 X133.62 Y119.48 E1526.041
G1 X130.23 Y116.09 E1526.281
G1 X126.84 Y112.69 E1526.52
G1 X123.44 Y109.3 E1526.76
G1 X120.05 Y105.9 E1526.999
G1 X116.65 Y102.51 E1527.239
G1 X115.94 Y102.37 F9000
G1 X119.36 Y105.78 E1527.48 F3600
G1 X122.77 Y109.19 E1527.721
G1 X126.19 Y112.61 E1527.962
G1 X129.6 Y116.02 E1528.203
G1 X133.02 Y119.44 E1528.443
G1 X136.43 Y122.85 E1528.684
G1 X139.84 Y126.27 E1528.925
G1 X143.26 Y129.68 E1529.166
G1 X146.67 Y133.1 E1529.407
G1 X150.09 Y136.51 E1529.648
G1 X153.5 Y139.93 E1529.889
G1 X156.92 Y143.34 E1530.13
G1 X156.45 Y143.44 F9000
G1 X153.01 Y140 E1530.372 F3600
G1 X149.58 Y136.57 E1530.615
G1 X146.14 Y133.13 E1530.857
G1 X142.71 Y129.7 E1531.099
G1 X139.27 Y126.26 E1531.342
G1 X135.84 Y122.83 E1531.584
G1 X132.4 Y119.39 E1531.826
G1 X128.97 Y115.96 E1532.069
G1 X125.54 Y112.53 E1532.311
G1 X122.1 Y109.09 E1532.553
G1 X118.67 Y105.66 E1532.795
G1 X115.23 Y102.22 E1533.038
G1 X114.52 Y102.08 F9000
G1 X117.98 Y105.53 E1533.282 F3600
G1 X121.43 Y108.99 E1533.525
G1 X124.89 Y112.44 E1533.769
G1 X128.34 Y115.9 E1534.013
G1 X131.8 Y119.35 E1534.256
G1 X135.25 Y122.81 E1534.5
G1 X138.7 Y126.26 E1534.744
G1 X142.16 Y129.71 E1534.988
G1 X145.61 Y133.17 E1535.231
G1 X149.07 Y136.62 E1535.475
G1 X152.52 Y140.08 E1535.719
G1 X155.98 Y143.53 E1535.963
G1 X155.51 Y143.63 F9000
G1 X152.03 Y140.15 E1536.208 F3600
G1 X148.56 Y136.68 E1536.453
G1 X145.08 Y133.2 E1536.698
G1 X141.61 Y129.73 E1536.943
G1 X138.13 Y126.26 E1537.188
G1 X134.66 Y122.78 E1537.433
G1 X131.19 Y119.31 E1537.678
G1 X127.71 Y115.83 E1537.924
G1 X124.24 Y112.36 E1538.169
G1 X120.76 Y108.88 E1538.414
G1 X117.29 Y105.41 E1538.659
G1 X113.82 Y101.94 E1538.904
G1 X113.11 Y101.79 F9000
G1 X116.6 Y105.29 E1539.151 F3600
G1 X120.09 Y108.78 E1539.397
G1 X123.59 Y112.27 E1539.644
G1 X127.08 Y115.77 E1539.89
G1 X130.58 Y119.26 E1540.137
G1 X134.07 Y122.76 E1540.383
G1 X137.56 Y126.25 E1540.63
G1 X141.06 Y129.75 E1540.876
G1 X144.55 Y133.24 E1541.123
G1 X148.05 Y136.73 E1541.369
G1 X151.54 Y140.23 E1541.616
G1 X155.04 Y143.72 E1541.863
G1 X154.57 Y143.82 F9000
G1 X151.05 Y140.3 E1542.11 F3600
G1 X147.54 Y136.79 E1542.358
G1 X144.02 Y133.27 E1542.606
G1 X140.51 Y129.76 E1542.854
G1 X136.99 Y126.25 E1543.102
G1 X133.48 Y122.73 E1543.35
G1 X129.97 Y119.22 E1543.598
G1 X126.45 Y115.7 E1543.846
G1 X122.94 Y112.19 E1544.094
G1 X119.42 Y108.68 E1544.342
G1 X115.91 Y105.16 E1544.59
G1 X112.4 Y101.65 E1544.838
G1 X111.69 Y101.51 F9000
G1 X115.22 Y105.04 E1545.087 F3600
G1 X118.76 Y108.57 E1545.336
G1 X122.29 Y112.11 E1545.586
G1 X125.82 Y115.64 E1545.835
G1 X129.36 Y119.18 E1546.084
G1 X132.89 Y122.71 E1546.334
G1 X136.43 Y126.24 E1546.583
G1 X139.96 Y129.78 E1546.832
G1 X143.49 Y133.31 E1547.082
G1 X147.03 Y136.85 E1547.331
G1 X150.56 Y140.38 E1547.581
G1 X154.1 Y143.91 E1547.83
G1 X153.62 Y144.01 F9000
G1 X150.34 Y140.73 E1548.061 F3600
G1 X147.06 Y137.45 E1548.293
G1 X143.78 Y134.17 E1548.524
G1 X140.5 Y130.89 E1548.756
G1 X137.22 Y127.6 E1548.987
G1 X133.94 Y124.32 E1549.219
G1 X130.66 Y121.04 E1549.45
G1 X127.38 Y117.76 E1549.681
G1 X124.1 Y114.48 E1549.913
G1 X120.82 Y111.2 E1550.144
G1 X117.54 Y107.92 E1550.376
G1 X114.26 Y104.64 E1550.607
G1 X110.98 Y101.36 E1550.839
G1 X110.27 Y101.22 F9000
G1 X113.57 Y104.52 E1551.072 F3600
G1 X116.87 Y107.82 E1551.304
G1 X120.17 Y111.11 E1551.537
G1 X123.46 Y114.41 E1551.77
G1 X126.76 Y117.71 E1552.003
G1 X130.06 Y121.01 E1552.235
G1 X133.36 Y124.31 E1552.468
G1 X136.66 Y127.61 E1552.701
G1 X139.96 Y130.91 E1552.934
G1 X143.26 Y134.21 E1553.166
G1 X146.56 Y137.51 E1553.399
G1 X149.86 Y140.8 E1553.632
G1 X153.15 Y144.1 E1553.865
G1 X152.68 Y144.2 F9000
G1 X149.37 Y140.88 E1554.099 F3600
G1 X146.05 Y137.56 E1554.333
G1 X142.73 Y134.25 E1554.567
G1 X139.41 Y130.93 E1554.801
G1 X136.1 Y127.61 E1555.035
G1 X132.78 Y124.29 E1555.269
G1 X129.46 Y120.98 E1555.503
G1 X126.15 Y117.66 E1555.737
G1 X122.83 Y114.34 E1555.971
G1 X119.51 Y111.03 E1556.205
G1 X116.19 Y107.71 E1556.439
G1 X112.88 Y104.39 E1556.673
G1 X109.56 Y101.07 E1556.907
G1 X108.85 Y100.93 F9000
G1 X112.19 Y104.27 E1557.143 F3600
G1 X115.52 Y107.6 E1557.378
G1 X118.86 Y110.94 E1557.613
G1 X122.19 Y114.27 E1557.849
G1 X125.53 Y117.61 E1558.084
G1 X128.86 Y120.94 E1558.319
G1 X132.2 Y124.28 E1558.555
G1 X135.53 Y127.62 E1558.79
G1 X138.87 Y130.95 E1559.025
G1 X142.21 Y134.29 E1559.261
G1 X145.54 Y137.62 E1559.496
G1 X148.88 Y140.96 E1559.731
G1 X152.21 Y144.29 E1559.967
G1 X151.74 Y144.39 F9000
G1 X148.39 Y141.04 E1560.203 F3600
G1 X145.03 Y137.68 E1560.44
G1 X141.68 Y134.33 E1560.677
G1 X138.33 Y130.97 E1560.913
G1 X134.97 Y127.62 E1561.15
G1 X131.62 Y124.27 E1561.386
G1 X128.26 Y120.91 E1561.623
G1 X124.91 Y117.56 E1561.86
G1 X121.56 Y114.2 E1562.096
G1 X118.2 Y110.85 E1562.333
G1 X114.85 Y107.5 E1562.57
G1 X111.49 Y104.14 E1562.806
G1 X108.14 Y100.79 E1563.043
G1 X107.43 Y100.64 F9000
G1 X110.8 Y104.02 E1563.281 F3600
G1 X114.18 Y107.39 E1563.519
G1 X117.55 Y110.76 E1563.757
G1 X120.92 Y114.13 E1563.995
G1 X124.29 Y117.5 E1564.233
G1 X127.67 Y120.88 E1564.471
G1 X131.04 Y124.25 E1564.708
G1 X134.41 Y127.62 E1564.946
G1 X137.78 Y130.99 E1565.184
G1 X141.16 Y134.37 E1565.422
G1 X144.53 Y137.74 E1565.66
G1 X147.9 Y141.11 E1565.898
G1 X151.27 Y144.48 E1566.136
G1 X150.8 Y144.58 F9000
G1 X147.41 Y141.19 E1566.375 F3600
G1 X144.02 Y137.8 E1566.615
G1 X140.63 Y134.41 E1566.854
G1 X137.24 Y131.02 E1567.093
G1 X133.85 Y127.63 E1567.332
G1 X130.46 Y124.23 E1567.571
G1 X127.07 Y120.84 E1567.811
G1 X123.68 Y117.45 E1568.05
G1 X120.28 Y114.06 E1568.289
G1 X116.89 Y110.67 E1568.528
G1 X113.5 Y107.28 E1568.768
G1 X110.11 Y103.89 E1569.007
G1 X106.72 Y100.5 E1569.246
G1 X106.01 Y100.36 F9000
G1 X109.42 Y103.77 E1569.487 F3600
G1 X112.83 Y107.18 E1569.727
G1 X116.24 Y110.58 E1569.968
G1 X119.65 Y113.99 E1570.208
G1 X123.06 Y117.4 E1570.449
G1 X126.47 Y120.81 E1570.689
G1 X129.88 Y124.22 E1570.93
G1 X133.29 Y127.63 E1571.17
G1 X136.69 Y131.04 E1571.411
G1 X140.1 Y134.45 E1571.651
G1 X143.51 Y137.86 E1571.892
G1 X146.92 Y141.27 E1572.132
G1 X150.33 Y144.67 E1572.373
G1 X149.86 Y144.77 F9000
G1 X146.43 Y141.34 E1572.615 F3600
G1 X143.01 Y137.91 E1572.857
G1 X139.58 Y134.49 E1573.098
G1 X136.15 Y131.06 E1573.34
G1 X132.72 Y127.63 E1573.582
G1 X129.3 Y124.21 E1573.824
G1 X125.87 Y120.78 E1574.066
G1 X122.44 Y117.35 E1574.307
G1 X119.01 Y113.92 E1574.549
G1 X115.59 Y110.5 E1574.791
G1 X112.16 Y107.07 E1575.033
G1 X108.73 Y103.64 E1575.275
G1 X105.31 Y100.21 E1575.516
G1 X104.6 Y100.07 F9000
G1 X108.04 Y103.52 E1575.76 F3600
G1 X111.49 Y106.96 E1576.003
G1 X114.93 Y110.41 E1576.246
G1 X118.38 Y113.85 E1576.489
G1 X121.82 Y117.3 E1576.732
G1 X125.27 Y120.74 E1576.975
G1 X128.72 Y124.19 E1577.218
G1 X132.16 Y127.64 E1577.461
G1 X135.61 Y131.08 E1577.705
G1 X139.05 Y134.53 E1577.948
G1 X142.5 Y137.97 E1578.191
G1 X145.94 Y141.42 E1578.434
G1 X149.39 Y144.86 E1578.677
G1 X148.92 Y144.96 F9000
G1 X145.45 Y141.49 E1578.921 F3600
G1 X141.99 Y138.03 E1579.166
G1 X138.53 Y134.57 E1579.41
G1 X135.06 Y131.1 E1579.655
G1 X131.6 Y127.64 E1579.899
G1 X128.13 Y124.17 E1580.143
G1 X124.67 Y120.71 E1580.388
G1 X121.21 Y117.25 E1580.632
G1 X117.74 Y113.78 E1580.877
G1 X114.28 Y110.32 E1581.121
G1 X110.81 Y106.85 E1581.365
G1 X107.35 Y103.39 E1581.61
G1 X103.89 Y99.93 E1581.854
G1 X103.18 Y99.78 F9000
G1 X106.66 Y103.27 E1582.1 F3600
G1 X110.14 Y106.75 E1582.346
G1 X113.62 Y110.23 E1582.591
G1 X117.11 Y113.71 E1582.837
G1 X120.59 Y117.2 E1583.083
G1 X124.07 Y120.68 E1583.329
G1 X127.55 Y124.16 E1583.574
G1 X131.04 Y127.64 E1583.82
G1 X134.52 Y131.13 E1584.066
G1 X138 Y134.61 E1584.311
G1 X141.48 Y138.09 E1584.557
G1 X144.97 Y141.57 E1584.803
G1 X148.45 Y145.06 E1585.048
G1 X147.98 Y145.15 F9000
G1 X144.48 Y141.65 E1585.295 F3600
G1 X140.98 Y138.15 E1585.542
G1 X137.48 Y134.65 E1585.789
G1 X133.98 Y131.15 E1586.036
G1 X130.47 Y127.65 E1586.283
G1 X126.97 Y124.14 E1586.53
G1 X123.47 Y120.64 E1586.777
G1 X119.97 Y117.14 E1587.025
G1 X116.47 Y113.64 E1587.272
G1 X112.97 Y110.14 E1587.519
G1 X109.47 Y106.64 E1587.766
G1 X105.97 Y103.14 E1588.013
G1 X102.47 Y99.64 E1588.26
G1 X101.76 Y99.5 F9000
G1 X105.28 Y103.02 E1588.508 F3600
G1 X108.8 Y106.53 E1588.756
G1 X112.32 Y110.05 E1589.004
G1 X115.84 Y113.57 E1589.253
G1 X119.35 Y117.09 E1589.501
G1 X122.87 Y120.61 E1589.749
G1 X126.39 Y124.13 E1589.998
G1 X129.91 Y127.65 E1590.246
G1 X133.43 Y131.17 E1590.494
G1 X136.95 Y134.69 E1590.742
G1 X140.47 Y138.21 E1590.991
G1 X143.99 Y141.73 E1591.239
G1 X147.51 Y145.25 E1591.487
G1 X147.04 Y145.34 F9000
G1 X143.75 Y142.06 E1591.719 F3600
G1 X140.47 Y138.77 E1591.951
G1 X137.18 Y135.49 E1592.183
G1 X133.9 Y132.2 E1592.414
G1 X130.61 Y128.92 E1592.646
G1 X127.33 Y125.63 E1592.878
G1 X124.04 Y122.35 E1593.11
G1 X120.76 Y119.06 E1593.341
G1 X117.47 Y115.78 E1593.573
G1 X114.19 Y112.49 E1593.805
G1 X110.9 Y109.21 E1594.037
G1 X107.62 Y105.92 E1594.269
G1 X104.33 Y102.64 E1594.5
G1 X101.05 Y99.35 E1594.732
G1 X100.34 Y99.21 F9000
G1 X103.64 Y102.51 E1594.965 F3600
G1 X106.94 Y105.81 E1595.198
G1 X110.25 Y109.11 E1595.431
G1 X113.55 Y112.42 E1595.664
G1 X116.85 Y115.72 E1595.897
G1 X120.15 Y119.02 E1596.13
G1 X123.45 Y122.32 E1596.363
G1 X126.75 Y125.62 E1596.596
G1 X130.06 Y128.93 E1596.829
G1 X133.36 Y132.23 E1597.062
G1 X136.66 Y135.53 E1597.295
G1 X139.96 Y138.83 E1597.528
G1 X143.26 Y142.13 E1597.761
G1 X146.57 Y145.44 E1597.994
G1 X146.1 Y145.53 F9000
G1 X142.78 Y142.21 E1598.228 F3600
G1 X139.46 Y138.89 E1598.462
G1 X136.14 Y135.57 E1598.696
G1 X132.82 Y132.26 E1598.93
G1 X129.5 Y128.94 E1599.164
G1 X126.18 Y125.62 E1599.399
G1 X122.86 Y122.3 E1599.633
G1 X119.54 Y118.98 E1599.867
G1 X116.23 Y115.66 E1600.101
G1 X112.91 Y112.34 E1600.335
G1 X109.59 Y109.02 E1600.569
G1 X106.27 Y105.7 E1600.804
G1 X102.95 Y102.38 E1601.038
G1 X99.63 Y99.07 E1601.272
G1 X98.92 Y98.92 F9000
G1 X102.26 Y102.26 E1601.507 F3600
G1 X105.59 Y105.59 E1601.743
G1 X108.93 Y108.93 E1601.978
G1 X112.27 Y112.27 E1602.213
G1 X115.6 Y115.6 E1602.449
G1 X118.94 Y118.94 E1602.684
G1 X122.27 Y122.27 E1602.92
G1 X125.61 Y125.61 E1603.155
G1 X128.95 Y128.95 E1603.39
G1 X132.28 Y132.28 E1603.626
G1 X135.62 Y135.62 E1603.861
G1 X138.95 Y138.95 E1604.096
G1 X142.29 Y142.29 E1604.332
G1 X145.63 Y145.63 E1604.567
G1 X145.16 Y145.72 F9000
G1 X141.8 Y142.37 E1604.804 F3600
G1 X138.45 Y139.01 E1605.04
G1 X135.1 Y135.66 E1605.277
G1 X131.74 Y132.31 E1605.513
G1 X128.39 Y128.96 E1605.75
G1 X125.04 Y125.6 E1605.987
G1 X121.68 Y122.25 E1606.223
G1 X118.33 Y118.9 E1606.46
G1 X114.98 Y115.54 E1606.696
G1 X111.62 Y112.19 E1606.933
G1 X108.27 Y108.84 E1607.17
G1 X104.92 Y105.48 E1607.406
G1 X101.57 Y102.13 E1607.643
G1 X98.21 Y98.78 E1607.879
G1 X97.5 Y98.64 F9000
G1 X100.87 Y102.01 E1608.117 F3600
G1 X104.24 Y105.38 E1608.355
G1 X107.61 Y108.75 E1608.593
G1 X110.98 Y112.12 E1608.83
G1 X114.35 Y115.49 E1609.068
G1 X117.72 Y118.86 E1609.306
G1 X121.09 Y122.23 E1609.544
G1 X124.46 Y125.6 E1609.781
G1 X127.83 Y128.97 E1610.019
G1 X131.2 Y132.34 E1610.257
G1 X134.57 Y135.71 E1610.495
G1 X137.94 Y139.08 E1610.733
G1 X141.31 Y142.45 E1610.97
G1 X144.69 Y145.82 E1611.208
G1 X144.22 Y145.91 F9000
G1 X140.83 Y142.52 E1611.447 F3600
G1 X137.44 Y139.14 E1611.686
G1 X134.05 Y135.75 E1611.925
G1 X130.67 Y132.36 E1612.164
G1 X127.28 Y128.98 E1612.403
G1 X123.89 Y125.59 E1612.642
G1 X120.51 Y122.2 E1612.881
G1 X117.12 Y118.81 E1613.12
G1 X113.73 Y115.43 E1613.359
G1 X110.34 Y112.04 E1613.598
G1 X106.96 Y108.65 E1613.837
G1 X103.57 Y105.27 E1614.076
G1 X100.18 Y101.88 E1614.315
G1 X96.79 Y98.49 E1614.554
G1 X96.09 Y98.35 F9000
G1 X99.49 Y101.75 E1614.794 F3600
G1 X102.89 Y105.16 E1615.034
G1 X106.3 Y108.56 E1615.274
G1 X109.7 Y111.96 E1615.515
G1 X113.11 Y115.37 E1615.755
G1 X116.51 Y118.77 E1615.995
G1 X119.91 Y122.18 E1616.235
G1 X123.32 Y125.58 E1616.475
G1 X126.72 Y128.99 E1616.716
G1 X130.13 Y132.39 E1616.956
G1 X133.53 Y135.79 E1617.196
G1 X136.94 Y139.2 E1617.436
G1 X140.34 Y142.6 E1617.676
G1 X143.74 Y146.01 E1617.916
G1 X143.27 Y146.1 F9000
G1 X139.85 Y142.68 E1618.158 F3600
G1 X136.43 Y139.26 E1618.399
G1 X133.01 Y135.84 E1618.641
G1 X129.59 Y132.42 E1618.882
G1 X126.17 Y129 E1619.123
G1 X122.75 Y125.57 E1619.365
G1 X119.32 Y122.15 E1619.606
G1 X115.9 Y118.73 E1619.848
G1 X112.48 Y115.31 E1620.089
G1 X109.06 Y111.89 E1620.33
G1 X105.64 Y108.47 E1620.572
G1 X102.22 Y105.05 E1620.813
G1 X98.8 Y101.63 E1621.054
G1 X95.38 Y98.21 E1621.296
G1 X94.67 Y98.06 F9000
G1 X98.11 Y101.5 E1621.538 F3600
G1 X101.54 Y104.94 E1621.781
G1 X104.98 Y108.38 E1622.024
G1 X108.42 Y111.81 E1622.266
G1 X111.86 Y115.25 E1622.509
G1 X115.3 Y118.69 E1622.751
G1 X118.74 Y122.13 E1622.994
G1 X122.17 Y125.57 E1623.237
G1 X125.61 Y129.01 E1623.479
G1 X129.05 Y132.44 E1623.722
G1 X132.49 Y135.88 E1623.964
G1 X135.93 Y139.32 E1624.207
G1 X139.36 Y142.76 E1624.449
G1 X142.8 Y146.2 E1624.692
G1 X142.33 Y146.29 F9000
G1 X138.88 Y142.84 E1624.936 F3600
G1 X135.42 Y139.38 E1625.18
G1 X131.97 Y135.93 E1625.423
G1 X128.51 Y132.47 E1625.667
G1 X125.06 Y129.02 E1625.911
G1 X121.6 Y125.56 E1626.155
G1 X118.15 Y122.11 E1626.399
G1 X114.69 Y118.65 E1626.642
G1 X111.23 Y115.19 E1626.886
G1 X107.78 Y111.74 E1627.13
G1 X104.32 Y108.28 E1627.374
G1 X100.87 Y104.83 E1627.618
G1 X97.41 Y101.37 E1627.861
G1 X93.96 Y97.92 E1628.105
G1 X93.31 Y97.83 F9000
G1 X96.77 Y101.3 E1628.35 F3600
G1 X100.24 Y104.77 E1628.595
G1 X103.71 Y108.24 E1628.839
G1 X107.18 Y111.7 E1629.084
G1 X110.65 Y115.17 E1629.329
G1 X114.12 Y118.64 E1629.573
G1 X117.58 Y122.11 E1629.818
G1 X121.05 Y125.58 E1630.063
G1 X124.52 Y129.05 E1630.308
G1 X127.99 Y132.51 E1630.552
G1 X131.46 Y135.98 E1630.797
G1 X134.93 Y139.45 E1631.042
G1 X138.39 Y142.92 E1631.286
G1 X141.86 Y146.39 E1631.531
G1 X141.39 Y146.48 F9000
G1 X137.93 Y143.02 E1631.775 F3600
G1 X134.47 Y139.56 E1632.02
G1 X131.01 Y136.1 E1632.264
G1 X127.54 Y132.63 E1632.508
G1 X124.08 Y129.17 E1632.752
G1 X120.62 Y125.71 E1632.997
G1 X117.16 Y122.25 E1633.241
G1 X113.7 Y118.79 E1633.485
G1 X110.23 Y115.32 E1633.729
G1 X106.77 Y111.86 E1633.974
G1 X103.31 Y108.4 E1634.218
G1 X99.85 Y104.94 E1634.462
G1 X96.39 Y101.48 E1634.706
G1 X92.92 Y98.01 E1634.951
G1 X92.54 Y98.2 F9000
G1 X96 Y101.65 E1635.195 F3600
G1 X99.45 Y105.11 E1635.438
G1 X102.91 Y108.57 E1635.682
G1 X106.36 Y112.02 E1635.926
G1 X109.82 Y115.48 E1636.17
G1 X113.28 Y118.93 E1636.414
G1 X116.73 Y122.39 E1636.657
G1 X120.19 Y125.84 E1636.901
G1 X123.64 Y129.3 E1637.145
G1 X127.1 Y132.76 E1637.389
G1 X130.55 Y136.21 E1637.633
G1 X134.01 Y139.67 E1637.877
G1 X137.47 Y143.12 E1638.12
G1 X140.92 Y146.58 E1638.364
G1 X140.45 Y146.67 F9000
G1 X137 Y143.22 E1638.608 F3600
G1 X133.55 Y139.77 E1638.851
G1 X130.1 Y136.33 E1639.094
G1 X126.65 Y132.88 E1639.338
G1 X123.2 Y129.43 E1639.581
G1 X119.75 Y125.98 E1639.824
G1 X116.31 Y122.53 E1640.068
G1 X112.86 Y119.08 E1640.311
G1 X109.41 Y115.63 E1640.555
G1 X105.96 Y112.18 E1640.798
G1 X102.51 Y108.73 E1641.041
G1 X99.06 Y105.28 E1641.285
G1 X95.61 Y101.83 E1641.528
G1 X92.16 Y98.38 E1641.771
G1 X91.78 Y98.57 F9000
G1 X95.22 Y102.01 E1642.014 F3600
G1 X98.66 Y105.45 E1642.257
G1 X102.11 Y108.9 E1642.5
G1 X105.55 Y112.34 E1642.743
G1 X108.99 Y115.78 E1642.986
G1 X112.44 Y119.22 E1643.229
G1 X115.88 Y122.67 E1643.472
G1 X119.32 Y126.11 E1643.715
G1 X122.77 Y129.55 E1643.958
G1 X126.21 Y133 E1644.201
G1 X129.65 Y136.44 E1644.443
G1 X133.09 Y139.88 E1644.686
G1 X136.54 Y143.33 E1644.929
G1 X139.98 Y146.77 E1645.172
G1 X139.51 Y146.86 F9000
G1 X136.07 Y143.43 E1645.415 F3600
G1 X132.64 Y139.99 E1645.657
G1 X129.2 Y136.55 E1645.9
G1 X125.76 Y133.12 E1646.142
G1 X122.33 Y129.68 E1646.385
G1 X118.89 Y126.24 E1646.627
G1 X115.45 Y122.81 E1646.87
G1 X112.02 Y119.37 E1647.112
G1 X108.58 Y115.93 E1647.354
G1 X105.14 Y112.5 E1647.597
G1 X101.71 Y109.06 E1647.839
G1 X98.27 Y105.62 E1648.082
G1 X94.83 Y102.19 E1648.324
G1 X91.4 Y98.75 E1648.567
G1 X91.02 Y98.94 F9000
G1 X94.45 Y102.37 E1648.809 F3600
G1 X97.88 Y105.8 E1649.051
G1 X101.31 Y109.23 E1649.293
G1 X104.74 Y112.66 E1649.535
G1 X108.17 Y116.09 E1649.777
G1 X111.6 Y119.52 E1650.019
G1 X115.03 Y122.95 E1650.261
G1 X118.46 Y126.38 E1650.503
G1 X121.89 Y129.81 E1650.745
G1 X125.32 Y133.24 E1650.987
G1 X128.75 Y136.67 E1651.229
G1 X132.18 Y140.1 E1651.471
G1 X135.61 Y143.53 E1651.713
G1 X139.04 Y146.96 E1651.955
G1 X138.57 Y147.05 F9000
G1 X135.14 Y143.63 E1652.197 F3600
G1 X131.72 Y140.21 E1652.438
G1 X128.3 Y136.78 E1652.68
G1 X124.87 Y133.36 E1652.921
G1 X121.45 Y129.93 E1653.163
G1 X118.02 Y126.51 E1653.405
G1 X114.6 Y123.09 E1653.646
G1 X111.18 Y119.66 E1653.888
G1 X107.75 Y116.24 E1654.129
G1 X104.33 Y112.81 E1654.371
G1 X100.91 Y109.39 E1654.612
G1 X97.48 Y105.97 E1654.854
G1 X94.06 Y102.54 E1655.096
G1 X90.63 Y99.12 E1655.337
G1 X90.25 Y99.3 F9000
G1 X93.67 Y102.72 E1655.578 F3600
G1 X97.09 Y106.14 E1655.819
G1 X100.5 Y109.56 E1656.061
G1 X103.92 Y112.97 E1656.302
G1 X107.34 Y116.39 E1656.543
G1 X110.76 Y119.81 E1656.784
G1 X114.18 Y123.23 E1657.025
G1 X117.59 Y126.64 E1657.266
G1 X121.01 Y130.06 E1657.507
G1 X124.43 Y133.48 E1657.748
G1 X127.85 Y136.9 E1657.99
G1 X131.26 Y140.31 E1658.231
G1 X134.68 Y143.73 E1658.472
G1 X138.1 Y147.15 E1658.713
G1 X137.63 Y147.24 F9000
G1 X134.22 Y143.83 E1658.954 F3600
G1 X130.8 Y140.42 E1659.194
G1 X127.39 Y137.01 E1659.435
G1 X123.98 Y133.6 E1659.676
G1 X120.57 Y130.19 E1659.916
G1 X117.16 Y126.78 E1660.157
G1 X113.75 Y123.37 E1660.398
G1 X110.34 Y119.95 E1660.638
G1 X106.93 Y116.54 E1660.879
G1 X103.52 Y113.13 E1661.12
G1 X100.1 Y109.72 E1661.36
G1 X96.69 Y106.31 E1661.601
G1 X93.28 Y102.9 E1661.842
G1 X89.87 Y99.49 E1662.082
G1 X89.49 Y99.67 F9000
G1 X92.89 Y103.08 E1662.323 F3600
G1 X96.3 Y106.48 E1662.563
G1 X99.7 Y109.89 E1662.803
G1 X103.11 Y113.29 E1663.043
G1 X106.51 Y116.7 E1663.284
G1 X109.92 Y120.1 E1663.524
G1 X113.32 Y123.51 E1663.764
G1 X116.73 Y126.91 E1664.004
G1 X120.13 Y130.31 E1664.245
G1 X123.54 Y133.72 E1664.485
G1 X126.94 Y137.12 E1664.725
G1 X130.35 Y140.53 E1664.965
G1 X133.75 Y143.93 E1665.205
G1 X137.16 Y147.34 E1665.446
G1 X136.69 Y147.43 F9000
G1 X133.29 Y144.04 E1665.686 F3600
G1 X129.89 Y140.64 E1665.925
G1 X126.49 Y137.24 E1666.165
G1 X123.09 Y133.84 E1666.405
G1 X119.69 Y130.44 E1666.645
G1 X116.3 Y127.04 E1666.884
G1 X112.9 Y123.64 E1667.124
G1 X109.5 Y120.25 E1667.364
G1 X106.1 Y116.85 E1667.604
G1 X102.7 Y113.45 E1667.844
G1 X99.3 Y110.05 E1668.083
G1 X95.9 Y106.65 E1668.323
G1 X92.51 Y103.25 E1668.563
G1 X89.11 Y99.85 E1668.803
G1 X88.73 Y100.04 F9000
G1 X92.12 Y103.43 E1669.042 F3600
G1 X95.51 Y106.82 E1669.281
G1 X98.9 Y110.22 E1669.521
G1 X102.29 Y113.61 E1669.76
G1 X105.69 Y117 E1669.999
G1 X109.08 Y120.39 E1670.239
G1 X112.47 Y123.78 E1670.478
G1 X115.86 Y127.18 E1670.717
G1 X119.25 Y130.57 E1670.957
G1 X122.65 Y133.96 E1671.196
G1 X126.04 Y137.35 E1671.435
G1 X129.43 Y140.75 E1671.675
G1 X132.82 Y144.14 E1671.914
G1 X136.22 Y147.53 E1672.153
G1 X135.75 Y147.63 F9000
G1 X132.36 Y144.24 E1672.392 F3600
G1 X128.97 Y140.85 E1672.631
G1 X125.59 Y137.47 E1672.87
G1 X122.2 Y134.08 E1673.109
G1 X118.82 Y130.7 E1673.348
G1 X115.43 Y127.31 E1673.587
G1 X112.05 Y123.92 E1673.826
G1 X108.66 Y120.54 E1674.065
G1 X105.27 Y117.15 E1674.303
G1 X101.89 Y113.77 E1674.542
G1 X98.5 Y110.38 E1674.781
G1 X95.12 Y106.99 E1675.02
G1 X91.73 Y103.61 E1675.259
G1 X88.34 Y100.22 E1675.498
G1 X87.96 Y100.41 F9000
G1 X91.34 Y103.79 E1675.736 F3600
G1 X94.72 Y107.17 E1675.975
G1 X98.1 Y110.55 E1676.213
G1 X101.48 Y113.93 E1676.452
G1 X104.86 Y117.3 E1676.69
G1 X108.24 Y120.68 E1676.929
G1 X111.62 Y124.06 E1677.167
G1 X115 Y127.44 E1677.405
G1 X118.38 Y130.82 E1677.644
G1 X121.76 Y134.2 E1677.882
G1 X125.14 Y137.58 E1678.121
G1 X128.52 Y140.96 E1678.359
G1 X131.9 Y144.34 E1678.598
G1 X135.28 Y147.72 E1678.836
G1 X134.8 Y147.82 F9000
G1 X131.43 Y144.44 E1679.074 F3600
G1 X128.06 Y141.07 E1679.312
G1 X124.68 Y137.7 E1679.55
G1 X121.31 Y134.32 E1679.788
G1 X117.94 Y130.95 E1680.026
G1 X114.57 Y127.58 E1680.264
G1 X111.19 Y124.2 E1680.502
G1 X107.82 Y120.83 E1680.74
G1 X104.45 Y117.46 E1680.978
G1 X101.07 Y114.08 E1681.216
G1 X97.7 Y110.71 E1681.454
G1 X94.33 Y107.34 E1681.692
G1 X90.95 Y103.96 E1681.93
G1 X87.58 Y100.59 E1682.168
G1 X87.2 Y100.78 F9000
G1 X90.57 Y104.14 E1682.406 F3600
G1 X93.93 Y107.51 E1682.643
G1 X97.3 Y110.88 E1682.881
G1 X100.67 Y114.24 E1683.118
G1 X104.03 Y117.61 E1683.356
G1 X107.4 Y120.98 E1683.593
G1 X110.77 Y124.34 E1683.831
G1 X114.13 Y127.71 E1684.068
G1 X117.5 Y131.08 E1684.306
G1 X120.87 Y134.44 E1684.543
G1 X124.23 Y137.81 E1684.781
G1 X127.6 Y141.18 E1685.018
G1 X130.97 Y144.54 E1685.256
G1 X134.33 Y147.91 E1685.494
G1 X133.86 Y148.01 F9000
G1 X130.5 Y144.64 E1685.731 F3600
G1 X127.14 Y141.28 E1685.968
G1 X123.78 Y137.92 E1686.205
G1 X120.42 Y134.56 E1686.442
G1 X117.06 Y131.2 E1686.679
G1 X113.7 Y127.84 E1686.916
G1 X110.34 Y124.48 E1687.153
G1 X106.98 Y121.12 E1687.39
G1 X103.62 Y117.76 E1687.627
G1 X100.26 Y114.4 E1687.865
G1 X96.9 Y111.04 E1688.102
G1 X93.54 Y107.68 E1688.339
G1 X90.18 Y104.32 E1688.576
G1 X86.82 Y100.96 E1688.813
G1 X86.44 Y101.14 F9000
G1 X89.79 Y104.5 E1689.05 F3600
G1 X93.14 Y107.85 E1689.286
G1 X96.5 Y111.21 E1689.523
G1 X99.85 Y114.56 E1689.76
G1 X103.21 Y117.91 E1689.996
G1 X106.56 Y121.27 E1690.233
G1 X109.91 Y124.62 E1690.469
G1 X113.27 Y127.98 E1690.706
G1 X116.62 Y131.33 E1690.943
G1 X119.98 Y134.68 E1691.179
G1 X123.33 Y138.04 E1691.416
G1 X126.68 Y141.39 E1691.653
G1 X130.04 Y144.75 E1691.889
G1 X133.39 Y148.1 E1692.126
G1 X132.92 Y148.2 F9000
G1 X129.57 Y144.85 E1692.362 F3600
G1 X126.23 Y141.5 E1692.598
G1 X122.88 Y138.15 E1692.835
G1 X119.53 Y134.8 E1693.071
G1 X116.18 Y131.46 E1693.307
G1 X112.84 Y128.11 E1693.543
G1 X109.49 Y124.76 E1693.779
G1 X106.14 Y121.41 E1694.016
G1 X102.79 Y118.07 E1694.252
G1 X99.44 Y114.72 E1694.488
G1 X96.1 Y111.37 E1694.724
G1 X92.75 Y108.02 E1694.96
G1 X89.4 Y104.67 E1695.197
G1 X86.05 Y101.33 E1695.433
G1 X85.67 Y101.51 F9000
G1 X89.01 Y104.85 E1695.669 F3600
G1 X92.36 Y108.19 E1695.904
G1 X95.7 Y111.54 E1696.14
G1 X99.04 Y114.88 E1696.376
G1 X102.38 Y118.22 E1696.612
G1 X105.72 Y121.56 E1696.847
G1 X109.06 Y124.9 E1697.083
G1 X112.4 Y128.24 E1697.319
G1 X115.75 Y131.58 E1697.555
G1 X119.09 Y134.93 E1697.79
G1 X122.43 Y138.27 E1698.026
G1 X125.77 Y141.61 E1698.262
G1 X129.11 Y144.95 E1698.498
G1 X132.45 Y148.29 E1698.733
G1 X131.98 Y148.39 F9000
G1 X128.65 Y145.05 E1698.969 F3600
G1 X125.31 Y141.72 E1699.204
G1 X121.98 Y138.38 E1699.439
G1 X118.64 Y135.05 E1699.675
G1 X115.31 Y131.71 E1699.91
G1 X111.97 Y128.38 E1700.145
G1 X108.64 Y125.04 E1700.381
G1 X105.3 Y121.71 E1700.616
G1 X101.97 Y118.37 E1700.851
G1 X98.63 Y115.04 E1701.086
G1 X95.3 Y111.7 E1701.322
G1 X91.96 Y108.37 E1701.557
G1 X88.63 Y105.03 E1701.792
G1 X85.29 Y101.7 E1702.028
G1 X84.91 Y101.88 F9000
G1 X88.24 Y105.21 E1702.263 F3600
G1 X91.57 Y108.54 E1702.497
G1 X94.9 Y111.87 E1702.732
G1 X98.22 Y115.19 E1702.967
G1 X101.55 Y118.52 E1703.202
G1 X104.88 Y121.85 E1703.437
G1 X108.21 Y125.18 E1703.672
G1 X111.54 Y128.51 E1703.907
G1 X114.87 Y131.84 E1704.141
G1 X118.2 Y135.17 E1704.376
G1 X121.52 Y138.49 E1704.611
G1 X124.85 Y141.82 E1704.846
G1 X128.18 Y145.15 E1705.081
G1 X131.51 Y148.48 E1705.316
G1 X131.04 Y148.58 F9000
G1 X127.72 Y145.25 E1705.55 F3600
G1 X124.4 Y141.93 E1705.785
G1 X121.07 Y138.61 E1706.019
G1 X117.75 Y135.29 E1706.253
G1 X114.43 Y131.97 E1706.488
G1 X111.11 Y128.64 E1706.722
G1 X107.78 Y125.32 E1706.957
G1 X104.46 Y122 E1707.191
G1 X101.14 Y118.68 E1707.425
G1 X97.82 Y115.35 E1707.66
G1 X94.5 Y112.03 E1707.894
G1 X91.17 Y108.71 E1708.129
G1 X87.85 Y105.39 E1708.363
G1 X84.53 Y102.06 E1708.597
G1 X84.15 Y102.25 F9000
G1 X87.46 Y105.56 E1708.831 F3600
G1 X90.78 Y108.88 E1709.065
G1 X94.09 Y112.2 E1709.299
G1 X97.41 Y115.51 E1709.533
G1 X100.73 Y118.83 E1709.767
G1 X104.04 Y122.14 E1710.001
G1 X107.36 Y125.46 E1710.235
G1 X110.67 Y128.78 E1710.469
G1 X113.99 Y132.09 E1710.703
G1 X117.31 Y135.41 E1710.937
G1 X120.62 Y138.72 E1711.171
G1 X123.94 Y142.04 E1711.405
G1 X127.25 Y145.36 E1711.639
G1 X130.57 Y148.67 E1711.873
G1 X130.1 Y148.77 F9000
G1 X126.79 Y145.46 E1712.106 F3600
G1 X123.48 Y142.15 E1712.34
G1 X120.17 Y138.84 E1712.573
G1 X116.86 Y135.53 E1712.807
G1 X113.55 Y132.22 E1713.04
G1 X110.24 Y128.91 E1713.274
G1 X106.93 Y125.6 E1713.507
G1 X103.62 Y122.29 E1713.741
G1 X100.31 Y118.98 E1713.975
G1 X97 Y115.67 E1714.208
G1 X93.69 Y112.36 E1714.442
G1 X90.38 Y109.05 E1714.675
G1 X87.07 Y105.74 E1714.909
G1 X83.76 Y102.43 E1715.142
G1 X83.38 Y102.62 F9000
G1 X86.69 Y105.92 E1715.375 F3600
G1 X89.99 Y109.22 E1715.608
G1 X93.29 Y112.53 E1715.841
G1 X96.6 Y115.83 E1716.074
G1 X99.9 Y119.13 E1716.307
G1 X103.2 Y122.44 E1716.54
G1 X106.51 Y125.74 E1716.774
G1 X109.81 Y129.04 E1717.007
G1 X113.11 Y132.35 E1717.24
G1 X116.42 Y135.65 E1717.473
G1 X119.72 Y138.95 E1717.706
G1 X123.02 Y142.26 E1717.939
G1 X126.33 Y145.56 E1718.172
G1 X129.63 Y148.86 E1718.405
G1 X129.16 Y148.96 F9000
G1 X125.86 Y145.66 E1718.638 F3600
G1 X122.56 Y142.36 E1718.87
G1 X119.27 Y139.07 E1719.103
G1 X115.97 Y135.77 E1719.335
G1 X112.67 Y132.47 E1719.568
G1 X109.38 Y129.18 E1719.801
G1 X106.08 Y125.88 E1720.033
G1 X102.78 Y122.58 E1720.266
G1 X99.49 Y119.28 E1720.499
G1 X96.19 Y115.99 E1720.731
G1 X92.89 Y112.69 E1720.964
G1 X89.59 Y109.39 E1721.196
G1 X86.3 Y106.1 E1721.429
G1 X83 Y102.8 E1721.662
G1 X82.62 Y102.98 F9000
G1 X85.91 Y106.27 E1721.894 F3600
G1 X89.2 Y109.57 E1722.126
G1 X92.49 Y112.86 E1722.358
G1 X95.78 Y116.15 E1722.59
G1 X99.07 Y119.44 E1722.823
G1 X102.36 Y122.73 E1723.055
G1 X105.65 Y126.02 E1723.287
G1 X108.94 Y129.31 E1723.519
G1 X112.23 Y132.6 E1723.751
G1 X115.53 Y135.89 E1723.983
G1 X118.82 Y139.18 E1724.216
G1 X122.11 Y142.47 E1724.448
G1 X125.4 Y145.76 E1724.68
G1 X128.69 Y149.05 E1724.912
G1 X128.22 Y149.15 F9000
G1 X124.93 Y145.86 E1725.144 F3600
G1 X121.65 Y142.58 E1725.376
G1 X118.36 Y139.3 E1725.607
G1 X115.08 Y136.01 E1725.839
G1 X111.8 Y132.73 E1726.071
G1 X108.51 Y129.44 E1726.302
G1 X105.23 Y126.16 E1726.534
G1 X101.94 Y122.87 E1726.766
G1 X98.66 Y119.59 E1726.998
G1 X95.37 Y116.31 E1727.229
G1 X92.09 Y113.02 E1727.461
G1 X88.81 Y109.74 E1727.693
G1 X85.52 Y106.45 E1727.925
G1 X82.24 Y103.17 E1728.156
G1 X81.86 Y103.35 F9000
G1 X85.39 Y106.88 E1728.405 F3600
G1 X88.92 Y110.41 E1728.654
G1 X92.45 Y113.94 E1728.903
G1 X95.98 Y117.47 E1729.153
G1 X99.51 Y121 E1729.402
G1 X103.04 Y124.53 E1729.651
G1 X106.57 Y128.06 E1729.9
G1 X110.1 Y131.59 E1730.149
G1 X113.63 Y135.12 E1730.398
G1 X117.16 Y138.65 E1730.647
G1 X120.69 Y142.18 E1730.896
G1 X124.22 Y145.71 E1731.145
G1 X127.75 Y149.24 E1731.394
G1 X127.28 Y149.34 F9000
G1 X123.75 Y145.81 E1731.643 F3600
G1 X120.23 Y142.29 E1731.891
G1 X116.71 Y138.77 E1732.14
G1 X113.18 Y135.25 E1732.388
G1 X109.66 Y131.72 E1732.637
G1 X106.14 Y128.2 E1732.886
G1 X102.61 Y124.68 E1733.134
G1 X99.09 Y121.15 E1733.383
G1 X95.57 Y117.63 E1733.631
G1 X92.04 Y114.11 E1733.88
G1 X88.52 Y110.58 E1734.129
G1 X85 Y107.06 E1734.377
G1 X81.47 Y103.54 E1734.626
G1 X81.09 Y103.72 F9000
G1 X84.61 Y107.24 E1734.874 F3600
G1 X88.13 Y110.75 E1735.122
G1 X91.64 Y114.27 E1735.37
G1 X95.16 Y117.79 E1735.618
G1 X98.67 Y121.3 E1735.866
G1 X102.19 Y124.82 E1736.114
G1 X105.71 Y128.33 E1736.362
G1 X109.22 Y131.85 E1736.611
G1 X112.74 Y135.37 E1736.859
G1 X116.26 Y138.88 E1737.107
G1 X119.77 Y142.4 E1737.355
G1 X123.29 Y145.92 E1737.603
G1 X126.81 Y149.43 E1737.851
G1 X126.34 Y149.53 F9000
G1 X122.83 Y146.02 E1738.099 F3600
G1 X119.32 Y142.51 E1738.346
G1 X115.81 Y139 E1738.594
G1 X112.3 Y135.49 E1738.841
G1 X108.79 Y131.98 E1739.089
G1 X105.28 Y128.47 E1739.337
G1 X101.77 Y124.96 E1739.584
G1 X98.26 Y121.45 E1739.832
G1 X94.75 Y117.94 E1740.08
G1 X91.24 Y114.43 E1740.327
G1 X87.73 Y110.92 E1740.575
G1 X84.22 Y107.41 E1740.822
G1 X80.71 Y103.9 E1741.07
G1 X80.33 Y104.09 F9000
G1 X83.83 Y107.59 E1741.317 F3600
G1 X87.34 Y111.09 E1741.564
G1 X90.84 Y114.6 E1741.811
G1 X94.34 Y118.1 E1742.059
G1 X97.84 Y121.6 E1742.306
G1 X101.35 Y125.1 E1742.553
G1 X104.85 Y128.61 E1742.8
G1 X108.35 Y132.11 E1743.047
G1 X111.85 Y135.61 E1743.294
G1 X115.36 Y139.12 E1743.541
G1 X118.86 Y142.62 E1743.789
G1 X122.36 Y146.12 E1744.036
G1 X125.87 Y149.62 E1744.283
G1 X125.39 Y149.72 F9000
G1 X121.9 Y146.22 E1744.529 F3600
G1 X118.4 Y142.73 E1744.776
G1 X114.91 Y139.23 E1745.023
G1 X111.41 Y135.74 E1745.269
G1 X107.91 Y132.24 E1745.516
G1 X104.42 Y128.74 E1745.763
G1 X100.92 Y125.25 E1746.009
G1 X97.43 Y121.75 E1746.256
G1 X93.93 Y118.26 E1746.503
G1 X90.44 Y114.76 E1746.749
G1 X86.94 Y111.26 E1746.996
G1 X83.44 Y107.77 E1747.243
G1 X79.95 Y104.27 E1747.489
G1 X79.57 Y104.46 F9000
G1 X83.06 Y107.95 E1747.736 F3600
G1 X86.54 Y111.43 E1747.982
G1 X90.03 Y114.92 E1748.228
G1 X93.52 Y118.41 E1748.474
G1 X97.01 Y121.9 E1748.72
G1 X100.5 Y125.39 E1748.966
G1 X103.99 Y128.88 E1749.213
G1 X107.48 Y132.37 E1749.459
G1 X110.97 Y135.86 E1749.705
G1 X114.46 Y139.35 E1749.951
G1 X117.95 Y142.84 E1750.197
G1 X121.43 Y146.32 E1750.443
G1 X124.92 Y149.81 E1750.69
G1 X124.45 Y149.91 F9000
G1 X120.97 Y146.43 E1750.935 F3600
G1 X117.49 Y142.94 E1751.181
G1 X114.01 Y139.46 E1751.427
G1 X110.52 Y135.98 E1751.672
G1 X107.04 Y132.5 E1751.918
G1 X103.56 Y129.02 E1752.164
G1 X100.08 Y125.53 E1752.409
G1 X96.6 Y122.05 E1752.655
G1 X93.11 Y118.57 E1752.901
G1 X89.63 Y115.09 E1753.146
G1 X86.15 Y111.61 E1753.392
G1 X82.67 Y108.12 E1753.638
G1 X79.19 Y104.64 E1753.883
G1 X78.8 Y104.83 F9000
G1 X82.28 Y108.3 E1754.129 F3600
G1 X85.75 Y111.78 E1754.374
G1 X89.23 Y115.25 E1754.619
G1 X92.7 Y118.73 E1754.864
G1 X96.18 Y122.2 E1755.11
G1 X99.66 Y125.68 E1755.355
G1 X103.13 Y129.15 E1755.6
G1 X106.61 Y132.63 E1755.845
G1 X110.08 Y136.1 E1756.09
G1 X113.56 Y139.58 E1756.336
G1 X117.03 Y143.05 E1756.581
G1 X120.51 Y146.53 E1756.826
G1 X123.98 Y150 E1757.071
G1 X123.51 Y150.1 F9000
G1 X120.04 Y146.63 E1757.316 F3600
G1 X116.58 Y143.16 E1757.561
G1 X113.11 Y139.69 E1757.805
G1 X109.64 Y136.23 E1758.05
G1 X106.17 Y132.76 E1758.295
G1 X102.7 Y129.29 E1758.54
G1 X99.23 Y125.82 E1758.784
G1 X95.76 Y122.35 E1759.029
G1 X92.3 Y118.88 E1759.274
G1 X88.83 Y115.41 E1759.518
G1 X85.36 Y111.95 E1759.763
G1 X81.89 Y108.48 E1760.008
G1 X78.42 Y105.01 E1760.253
G1 X78.04 Y105.19 F9000
G1 X81.5 Y108.65 E1760.497 F3600
G1 X84.96 Y112.12 E1760.741
G1 X88.43 Y115.58 E1760.985
G1 X91.89 Y119.04 E1761.23
G1 X95.35 Y122.5 E1761.474
G1 X98.81 Y125.96 E1761.718
G1 X102.27 Y129.42 E1761.962
G1 X105.73 Y132.89 E1762.207
G1 X109.2 Y136.35 E1762.451
G1 X112.66 Y139.81 E1762.695
G1 X116.12 Y143.27 E1762.939
G1 X119.58 Y146.73 E1763.184
G1 X123.04 Y150.2 E1763.428
G1 X122.57 Y150.29 F9000
G1 X119.12 Y146.84 E1763.672 F3600
G1 X115.66 Y143.38 E1763.915
G1 X112.21 Y139.93 E1764.159
G1 X108.75 Y136.47 E1764.403
G1 X105.3 Y133.02 E1764.647
G1 X101.84 Y129.56 E1764.89
G1 X98.39 Y126.11 E1765.134
G1 X94.93 Y122.65 E1765.378
G1 X91.48 Y119.2 E1765.622
G1 X88.02 Y115.74 E1765.865
G1 X84.57 Y112.29 E1766.109
G1 X81.11 Y108.83 E1766.353
G1 X77.66 Y105.38 E1766.597
G1 X77.28 Y105.56 F9000
G1 X80.72 Y109.01 E1766.84 F3600
G1 X84.17 Y112.46 E1767.083
G1 X87.62 Y115.91 E1767.327
G1 X91.07 Y119.35 E1767.57
G1 X94.52 Y122.8 E1767.813
G1 X97.96 Y126.25 E1768.056
G1 X101.41 Y129.7 E1768.3
G1 X104.86 Y133.15 E1768.543
G1 X108.31 Y136.59 E1768.786
G1 X111.76 Y140.04 E1769.029
G1 X115.2 Y143.49 E1769.273
G1 X118.65 Y146.94 E1769.516
G1 X122.1 Y150.39 E1769.759
G1 X121.63 Y150.48 F9000
G1 X118.19 Y147.04 E1770.002 F3600
G1 X114.75 Y143.6 E1770.245
G1 X111.31 Y140.16 E1770.488
G1 X107.87 Y136.72 E1770.73
G1 X104.42 Y133.27 E1770.973
G1 X100.98 Y129.83 E1771.216
G1 X97.54 Y126.39 E1771.459
G1 X94.1 Y122.95 E1771.702
G1 X90.66 Y119.51 E1771.944
G1 X87.22 Y116.07 E1772.187
G1 X83.78 Y112.63 E1772.43
G1 X80.34 Y109.19 E1772.673
G1 X76.89 Y105.74 E1772.916
G1 X76.51 Y105.93 F9000
G1 X79.95 Y109.36 E1773.158 F3600
G1 X83.38 Y112.8 E1773.4
G1 X86.82 Y116.23 E1773.643
G1 X90.25 Y119.67 E1773.885
G1 X93.68 Y123.1 E1774.127
G1 X97.12 Y126.54 E1774.37
G1 X100.55 Y129.97 E1774.612
G1 X103.99 Y133.4 E1774.854
G1 X107.42 Y136.84 E1775.096
G1 X110.86 Y140.27 E1775.339
G1 X114.29 Y143.71 E1775.581
G1 X117.73 Y147.14 E1775.823
G1 X121.16 Y150.58 E1776.066
G1 X120.69 Y150.67 F9000
G1 X117.26 Y147.24 E1776.308 F3600
G1 X113.83 Y143.82 E1776.549
