; Generated with MatterSlice 2.22.04
; filamentDiameter = 1.75
; extrusionWidth = 0.4
; firstLayerExtrusionWidth = 0.4
; layerThickness = 0.3
; firstLayerThickness = 0.3
; automatic settings before start_gcode
G21 ; set units to millimeters
M107 ; fan off
M140 S50 ; start heating the bed
M104 T0 S210 ; start heating T0
M190 S50 ; wait for bed temperature to be reached
T0 ; set the active extruder to 0
; settings from start_gcode
G28 X0 Y0 Z0 ; home all axes
G1 Z5 F5000
M109 S210 ; set the extruder temp and wait
G28 X0 Y0 Z0 ; Home Z again in case there was filament on nozzle
G29 ; probe the bed
; automatic settings after start_gcode
T0 ; set the active extruder to 0
G90 ; use absolute coordinates
G92 E0 ; reset the expected extruder position
M82 ; use absolute distance for extrusion
; Layer count: 7
; Layer Change GCode
; LAYER:0
; LAYER_HEIGHT:0.3
; TYPE:FILL
M400
M107
G1 X27.65 Y59.25 Z0.8 F9000
G1 X200.65 Y59.26
G1 Y78.94
G1 X204.15
; TYPE:SKIRT
G1 Z0.3
G1 F1800
G1 Y175.06 E4.795 F1080
G1 X88.05 Y198.55 E10.705
G1 X23.85 Y167.58 E14.261
G1 Y86.42 E18.31
G1 X88.05 Y55.45 E21.867
G1 X204.15 Y78.94 E27.776
G1 X203.75 Y79.27 F9000
G1 Y174.73 E32.539 F1080
G1 X88.11 Y198.14 E38.425
G1 X24.25 Y167.33 E41.962
G1 Y86.67 E45.987
G1 X88.11 Y55.86 E49.524
G1 X203.75 Y79.27 E55.41
G1 E52.41 F1800
G1 Z0.8
G1 X203.29 Y79.65 F9000
G1 X200.65
G1 X199.95 Y81.52
G1 X197.55 Y84.34
G1 X196.65 Y84.94
G1 X197.35 Y84.5
; TYPE:WALL-OUTER
G1 Z0.3
G1 E55.41 F1800
G1 Y169.5 E59.651 F1080
G1 X88.95 Y191.44 E65.168
G1 X30.65 Y163.31 E68.398
G1 Y90.69 E72.021
G1 X88.95 Y62.56 E75.25
G1 X197.31 Y84.5 E80.766
G1 X197.35 Y84.5
G1 Y87.5
G1 X196.95 Y84.83 F9000
; TYPE:WALL-INNER
G1 Y169.17 E84.974 F1080
G1 X89 Y191.02 E90.468
G1 X31.05 Y163.06 E93.678
G1 Y90.94 E97.277
G1 X89 Y62.98 E100.487
G1 X196.91 Y84.82 E105.979
G1 X196.95 Y84.83
G1 E102.979 F1800
G1 Z0.8
G1 X196.5 Y85.13 F9000
G1 X178.7 Y99.76
; TYPE:WALL-OUTER
G1 Z0.3
G1 E105.979 F1800
G1 Y154.24 E108.698 F1080
G1 X91.4 Y171.91 E113.142
G1 X49.3 Y151.6 E115.474
G1 Y102.4 E117.928
G1 X91.4 Y82.09 E120.26
G1 X178.66 Y99.75 E124.702
G1 X178.7 Y99.76
G1 Y102.76
G1 X179.1 Y99.43 F9000
; TYPE:WALL-INNER
G1 Y154.57 E127.453 F1080
G1 X91.35 Y172.33 E131.92
G1 X48.9 Y151.85 E134.271
G1 Y102.15 E136.751
G1 X91.35 Y81.67 E139.102
G1 X179.06 Y99.42 E143.567
G1 X179.1 Y99.43
G1 E140.567 F1800
G1 Z0.8
G1 X196.61 Y168.82 F9000
; TYPE:BOTTOM-FILL
G1 Z0.3
G1 E143.567 F1800
G1 X196.52 Y168.91 E143.573 F1080
G1 X196.61 Y168.26 F9000
G1 X195.82 Y169.05 E143.629 F1080
G1 X195.11 Y169.2 F9000
G1 X196.61 Y167.69 E143.735 F1080
G1 Y167.13 F9000
G1 X194.4 Y169.34 E143.891 F1080
G1 X193.69 Y169.48 F9000
G1 X196.61 Y166.56 E144.097 F1080
G1 Y166 F9000
G1 X192.98 Y169.63 E144.353 F1080
G1 X192.27 Y169.77 F9000
G1 X196.61 Y165.43 E144.659 F1080
G1 Y164.86 F9000
G1 X191.56 Y169.91 E145.015 F1080
G1 X190.85 Y170.06 F9000
G1 X196.61 Y164.3 E145.422 F1080
G1 Y163.73 F9000
G1 X190.14 Y170.2 E145.878 F1080
G1 X189.43 Y170.34 F9000
G1 X196.61 Y163.17 E146.384 F1080
G1 Y162.6 F9000
G1 X188.72 Y170.49 E146.941 F1080
G1 X188.01 Y170.63 F9000
G1 X196.61 Y162.04 E147.547 F1080
G1 Y161.47 F9000
G1 X187.3 Y170.77 E148.203 F1080
G1 X186.6 Y170.92 F9000
G1 X196.61 Y160.9 E148.91 F1080
G1 Y160.34 F9000
G1 X185.89 Y171.06 E149.666 F1080
G1 X185.18 Y171.2 F9000
G1 X196.61 Y159.77 E150.473 F1080
G1 Y159.21 F9000
G1 X184.47 Y171.35 E151.329 F1080
G1 X183.76 Y171.49 F9000
G1 X196.61 Y158.64 E152.236 F1080
G1 Y158.08 F9000
G1 X183.05 Y171.64 E153.193 F1080
G1 X182.34 Y171.78 F9000
G1 X196.61 Y157.51 E154.199 F1080
G1 Y156.95 F9000
G1 X181.63 Y171.92 E155.256 F1080
G1 X180.92 Y172.07 F9000
G1 X196.61 Y156.38 E156.363 F1080
G1 Y155.81 F9000
G1 X180.21 Y172.21 E157.52 F1080
G1 X179.5 Y172.35 F9000
G1 X196.61 Y155.25 E158.727 F1080
G1 Y154.68 F9000
G1 X178.79 Y172.5 E159.983 F1080
G1 X178.08 Y172.64 F9000
G1 X196.61 Y154.12 E161.29 F1080
G1 Y153.55 F9000
G1 X177.38 Y172.78 E162.647 F1080
G1 X176.67 Y172.93 F9000
G1 X196.61 Y152.99 E164.054 F1080
G1 Y152.42 F9000
G1 X175.96 Y173.07 E165.511 F1080
G1 X175.25 Y173.21 F9000
G1 X196.61 Y151.85 E167.019 F1080
G1 Y151.29 F9000
G1 X174.54 Y173.36 E168.576 F1080
G1 X173.83 Y173.5 F9000
G1 X196.61 Y150.72 E170.183 F1080
G1 Y150.16 F9000
G1 X173.12 Y173.64 E171.84 F1080
G1 X172.41 Y173.79 F9000
G1 X196.61 Y149.59 E173.547 F1080
G1 Y149.03 F9000
G1 X171.7 Y173.93 E175.305 F1080
G1 X170.99 Y174.08 F9000
G1 X196.61 Y148.46 E177.112 F1080
G1 Y147.89 F9000
G1 X170.28 Y174.22 E178.969 F1080
G1 X169.57 Y174.36 F9000
G1 X196.61 Y147.33 E180.877 F1080
G1 Y146.76 F9000
G1 X168.86 Y174.51 E182.834 F1080
G1 X168.16 Y174.65 F9000
G1 X196.61 Y146.2 E184.842 F1080
G1 Y145.63 F9000
G1 X167.45 Y174.79 E186.899 F1080
G1 X166.74 Y174.94 F9000
G1 X196.61 Y145.07 E189.007 F1080
G1 Y144.5 F9000
G1 X166.03 Y175.08 E191.164 F1080
G1 X165.32 Y175.22 F9000
G1 X196.61 Y143.93 E193.372 F1080
G1 Y143.37 F9000
G1 X164.61 Y175.37 E195.63 F1080
G1 X163.9 Y175.51 F9000
G1 X196.61 Y142.8 E197.937 F1080
G1 Y142.24 F9000
G1 X163.19 Y175.65 E200.295 F1080
G1 X162.48 Y175.8 F9000
G1 X196.61 Y141.67 E202.703 F1080
G1 Y141.11 F9000
G1 X161.77 Y175.94 E205.161 F1080
G1 X161.06 Y176.09 F9000
G1 X196.61 Y140.54 E207.669 F1080
G1 Y139.97 F9000
G1 X160.35 Y176.23 E210.227 F1080
G1 X159.64 Y176.37 F9000
G1 X196.61 Y139.41 E212.835 F1080
G1 Y138.84 F9000
G1 X158.94 Y176.52 E215.493 F1080
G1 X158.23 Y176.66 F9000
G1 X196.61 Y138.28 E218.201 F1080
G1 Y137.71 F9000
G1 X157.52 Y176.8 E220.959 F1080
G1 X156.81 Y176.95 F9000
G1 X178.77 Y154.99 E222.508 F1080
G1 X179.44 Y154.31 F9000
G1 X196.61 Y137.15 E223.72 F1080
G1 Y136.58 F9000
G1 X179.44 Y153.75 E224.931 F1080
G1 Y153.18 F9000
G1 X196.61 Y136.01 E226.142 F1080
G1 Y135.45 F9000
G1 X179.44 Y152.62 E227.354 F1080
G1 Y152.05 F9000
G1 X196.61 Y134.88 E228.565 F1080
G1 Y134.32 F9000
G1 X179.44 Y151.49 E229.776 F1080
G1 Y150.92 F9000
G1 X196.61 Y133.75 E230.988 F1080
G1 Y133.19 F9000
G1 X179.44 Y150.35 E232.199 F1080
G1 Y149.79 F9000
G1 X196.61 Y132.62 E233.41 F1080
G1 Y132.06 F9000
G1 X179.44 Y149.22 E234.622 F1080
G1 Y148.66 F9000
G1 X196.61 Y131.49 E235.833 F1080
G1 Y130.92 F9000
G1 X179.44 Y148.09 E237.044 F1080
G1 Y147.53 F9000
G1 X196.61 Y130.36 E238.256 F1080
G1 Y129.79 F9000
G1 X179.44 Y146.96 E239.467 F1080
G1 Y146.4 F9000
G1 X196.61 Y129.23 E240.678 F1080
G1 Y128.66 F9000
G1 X179.44 Y145.83 E241.89 F1080
G1 Y145.26 F9000
G1 X196.61 Y128.1 E243.101 F1080
G1 Y127.53 F9000
G1 X179.44 Y144.7 E244.312 F1080
G1 Y144.13 F9000
G1 X196.61 Y126.96 E245.524 F1080
G1 Y126.4 F9000
G1 X179.44 Y143.57 E246.735 F1080
G1 Y143 F9000
G1 X196.61 Y125.83 E247.947 F1080
G1 Y125.27 F9000
G1 X179.44 Y142.44 E249.158 F1080
G1 Y141.87 F9000
G1 X196.61 Y124.7 E250.369 F1080
G1 Y124.13 F9000
G1 X179.44 Y141.3 E251.581 F1080
G1 Y140.74 F9000
G1 X196.61 Y123.57 E252.792 F1080
G1 Y123 F9000
G1 X179.44 Y140.17 E254.003 F1080
G1 Y139.61 F9000
G1 X196.61 Y122.44 E255.215 F1080
G1 Y121.87 F9000
G1 X179.44 Y139.04 E256.426 F1080
G1 Y138.48 F9000
G1 X196.61 Y121.31 E257.638 F1080
G1 Y120.74 F9000
G1 X179.44 Y137.91 E258.849 F1080
G1 Y137.34 F9000
G1 X196.61 Y120.17 E260.06 F1080
G1 Y119.61 F9000
G1 X179.44 Y136.78 E261.272 F1080
G1 Y136.21 F9000
G1 X196.61 Y119.04 E262.483 F1080
G1 Y118.48 F9000
G1 X179.44 Y135.65 E263.694 F1080
G1 Y135.08 F9000
G1 X196.61 Y117.91 E264.906 F1080
G1 Y117.35 F9000
G1 X179.44 Y134.52 E266.117 F1080
G1 Y133.95 F9000
G1 X196.61 Y116.78 E267.329 F1080
G1 Y116.22 F9000
G1 X179.44 Y133.38 E268.54 F1080
G1 Y132.82 F9000
G1 X196.61 Y115.65 E269.751 F1080
G1 Y115.08 F9000
G1 X179.44 Y132.25 E270.963 F1080
G1 Y131.69 F9000
G1 X196.61 Y114.52 E272.174 F1080
G1 Y113.95 F9000
G1 X179.44 Y131.12 E273.385 F1080
G1 Y130.56 F9000
G1 X196.61 Y113.39 E274.597 F1080
G1 Y112.82 F9000
G1 X179.44 Y129.99 E275.808 F1080
G1 Y129.42 F9000
G1 X196.61 Y112.26 E277.02 F1080
G1 Y111.69 F9000
G1 X179.44 Y128.86 E278.231 F1080
G1 Y128.29 F9000
G1 X196.61 Y111.12 E279.442 F1080
G1 Y110.56 F9000
G1 X179.44 Y127.73 E280.654 F1080
G1 Y127.16 F9000
G1 X196.61 Y109.99 E281.865 F1080
G1 Y109.43 F9000
G1 X179.44 Y126.6 E283.076 F1080
G1 Y126.03 F9000
G1 X196.61 Y108.86 E284.288 F1080
G1 Y108.3 F9000
G1 X179.44 Y125.47 E285.499 F1080
G1 Y124.9 F9000
G1 X196.61 Y107.73 E286.711 F1080
G1 Y107.16 F9000
G1 X179.44 Y124.33 E287.922 F1080
G1 Y123.77 F9000
G1 X196.61 Y106.6 E289.134 F1080
G1 Y106.03 F9000
G1 X179.44 Y123.2 E290.345 F1080
G1 Y122.64 F9000
G1 X196.61 Y105.47 E291.557 F1080
G1 Y104.9 F9000
G1 X179.44 Y122.07 E292.768 F1080
G1 Y121.51 F9000
G1 X196.61 Y104.34 E293.979 F1080
G1 Y103.77 F9000
G1 X179.44 Y120.94 E295.191 F1080
G1 Y120.37 F9000
G1 X196.61 Y103.2 E296.402 F1080
G1 Y102.64 F9000
G1 X179.44 Y119.81 E297.614 F1080
G1 Y119.24 F9000
G1 X196.61 Y102.07 E298.825 F1080
G1 Y101.51 F9000
G1 X179.44 Y118.68 E300.037 F1080
G1 Y118.11 F9000
G1 X196.61 Y100.94 E301.248 F1080
G1 Y100.38 F9000
G1 X179.44 Y117.55 E302.459 F1080
G1 Y116.98 F9000
G1 X196.61 Y99.81 E303.671 F1080
G1 Y99.24 F9000
G1 X179.44 Y116.41 E304.882 F1080
G1 Y115.85 F9000
G1 X196.61 Y98.68 E306.094 F1080
G1 Y98.11 F9000
G1 X179.44 Y115.28 E307.305 F1080
G1 Y114.72 F9000
G1 X196.61 Y97.55 E308.517 F1080
G1 Y96.98 F9000
G1 X179.44 Y114.15 E309.728 F1080
G1 Y113.59 F9000
G1 X196.61 Y96.42 E310.94 F1080
G1 Y95.85 F9000
G1 X179.44 Y113.02 E312.151 F1080
G1 Y112.45 F9000
G1 X196.61 Y95.28 E313.362 F1080
G1 Y94.72 F9000
G1 X179.44 Y111.89 E314.574 F1080
G1 Y111.32 F9000
G1 X196.61 Y94.15 E315.785 F1080
G1 Y93.59 F9000
G1 X179.44 Y110.76 E316.997 F1080
G1 Y110.19 F9000
G1 X196.61 Y93.02 E318.208 F1080
G1 Y92.46 F9000
G1 X179.44 Y109.63 E319.42 F1080
G1 Y109.06 F9000
G1 X196.61 Y91.89 E320.631 F1080
G1 Y91.32 F9000
G1 X179.44 Y108.49 E321.842 F1080
G1 Y107.93 F9000
G1 X196.61 Y90.76 E323.054 F1080
G1 Y90.19 F9000
G1 X179.44 Y107.36 E324.265 F1080
G1 Y106.8 F9000
G1 X196.61 Y89.63 E325.477 F1080
G1 Y89.06 F9000
G1 X179.44 Y106.23 E326.688 F1080
G1 Y105.67 F9000
G1 X196.61 Y88.5 E327.9 F1080
G1 Y87.93 F9000
G1 X179.44 Y105.1 E329.111 F1080
G1 Y104.54 F9000
G1 X196.61 Y87.37 E330.322 F1080
G1 Y86.8 F9000
G1 X179.44 Y103.97 E331.534 F1080
G1 Y103.4 F9000
G1 X196.61 Y86.23 E332.745 F1080
G1 Y85.67 F9000
G1 X179.44 Y102.84 E333.957 F1080
G1 Y102.27 F9000
G1 X196.6 Y85.11 E335.168 F1080
G1 X196.13 Y85.01 F9000
G1 X179.44 Y101.71 E336.346 F1080
G1 Y101.14 F9000
G1 X195.66 Y84.92 E337.491 F1080
G1 X195.19 Y84.82 F9000
G1 X179.44 Y100.58 E338.602 F1080
G1 Y100.01 F9000
G1 X194.72 Y84.73 E339.68 F1080
G1 X194.25 Y84.63 F9000
G1 X179.44 Y99.44 E340.726 F1080
G1 X179.21 Y99.1 F9000
G1 X193.78 Y84.54 E341.753 F1080
G1 X193.31 Y84.44 F9000
G1 X178.74 Y99.01 E342.781 F1080
G1 X178.27 Y98.91 F9000
G1 X192.84 Y84.35 E343.809 F1080
G1 X192.37 Y84.25 F9000
G1 X177.8 Y98.82 E344.837 F1080
G1 X177.33 Y98.72 F9000
G1 X191.9 Y84.15 E345.865 F1080
G1 X191.43 Y84.06 F9000
G1 X176.86 Y98.63 E346.893 F1080
G1 X176.39 Y98.53 F9000
G1 X190.96 Y83.96 E347.921 F1080
G1 X190.49 Y83.87 F9000
G1 X175.92 Y98.44 E348.948 F1080
G1 X175.45 Y98.34 F9000
G1 X190.02 Y83.77 E349.976 F1080
G1 X189.55 Y83.68 F9000
G1 X174.98 Y98.25 E351.004 F1080
G1 X174.51 Y98.15 F9000
G1 X189.08 Y83.58 E352.032 F1080
G1 X188.61 Y83.49 F9000
G1 X174.04 Y98.06 E353.06 F1080
G1 X173.57 Y97.96 F9000
G1 X188.14 Y83.39 E354.088 F1080
G1 X187.67 Y83.3 F9000
G1 X173.1 Y97.87 E355.116 F1080
G1 X172.63 Y97.77 F9000
G1 X187.19 Y83.2 E356.144 F1080
G1 X186.72 Y83.11 F9000
G1 X172.16 Y97.68 E357.171 F1080
G1 X171.69 Y97.58 F9000
G1 X186.25 Y83.01 E358.199 F1080
G1 X185.78 Y82.92 F9000
G1 X171.22 Y97.49 E359.227 F1080
G1 X170.74 Y97.39 F9000
G1 X185.31 Y82.82 E360.255 F1080
G1 X184.84 Y82.73 F9000
G1 X170.27 Y97.3 E361.283 F1080
G1 X169.8 Y97.2 F9000
G1 X184.37 Y82.63 E362.311 F1080
G1 X183.9 Y82.54 F9000
G1 X169.33 Y97.1 E363.339 F1080
G1 X168.86 Y97.01 F9000
G1 X183.43 Y82.44 E364.367 F1080
G1 X182.96 Y82.35 F9000
G1 X168.39 Y96.91 E365.394 F1080
G1 X167.92 Y96.82 F9000
G1 X182.49 Y82.25 E366.422 F1080
G1 X182.02 Y82.16 F9000
G1 X167.45 Y96.72 E367.45 F1080
G1 X166.98 Y96.63 F9000
G1 X181.55 Y82.06 E368.478 F1080
G1 X181.08 Y81.96 F9000
G1 X166.51 Y96.53 E369.506 F1080
G1 X166.04 Y96.44 F9000
G1 X180.61 Y81.87 E370.534 F1080
G1 X180.14 Y81.77 F9000
G1 X165.57 Y96.34 E371.562 F1080
G1 X165.1 Y96.25 F9000
G1 X179.67 Y81.68 E372.59 F1080
G1 X179.2 Y81.58 F9000
G1 X164.63 Y96.15 E373.618 F1080
G1 X164.16 Y96.06 F9000
G1 X178.73 Y81.49 E374.645 F1080
G1 X178.26 Y81.39 F9000
G1 X163.69 Y95.96 E375.673 F1080
G1 X163.22 Y95.87 F9000
G1 X177.79 Y81.3 E376.701 F1080
G1 X177.31 Y81.2 F9000
G1 X162.75 Y95.77 E377.729 F1080
G1 X162.28 Y95.68 F9000
G1 X176.84 Y81.11 E378.757 F1080
G1 X176.37 Y81.01 F9000
G1 X161.81 Y95.58 E379.785 F1080
G1 X161.33 Y95.49 F9000
G1 X175.9 Y80.92 E380.813 F1080
G1 X175.43 Y80.82 F9000
G1 X160.86 Y95.39 E381.841 F1080
G1 X160.39 Y95.3 F9000
G1 X174.96 Y80.73 E382.869 F1080
G1 X174.49 Y80.63 F9000
G1 X159.92 Y95.2 E383.897 F1080
G1 X159.45 Y95.11 F9000
G1 X174.02 Y80.54 E384.924 F1080
G1 X173.55 Y80.44 F9000
G1 X158.98 Y95.01 E385.952 F1080
G1 X158.51 Y94.91 F9000
G1 X173.08 Y80.35 E386.98 F1080
G1 X172.61 Y80.25 F9000
G1 X158.04 Y94.82 E388.008 F1080
G1 X157.57 Y94.72 F9000
G1 X172.14 Y80.16 E389.036 F1080
G1 X171.67 Y80.06 F9000
G1 X157.1 Y94.63 E390.064 F1080
G1 X156.63 Y94.53 F9000
G1 X171.2 Y79.97 E391.092 F1080
G1 X170.73 Y79.87 F9000
G1 X156.16 Y94.44 E392.12 F1080
G1 X155.69 Y94.34 F9000
G1 X170.26 Y79.78 E393.148 F1080
G1 X169.79 Y79.68 F9000
G1 X155.22 Y94.25 E394.175 F1080
G1 X154.75 Y94.15 F9000
G1 X169.32 Y79.58 E395.203 F1080
G1 X168.85 Y79.49 F9000
G1 X154.28 Y94.06 E396.231 F1080
G1 X153.81 Y93.96 F9000
G1 X168.38 Y79.39 E397.259 F1080
G1 X167.91 Y79.3 F9000
G1 X153.34 Y93.87 E398.287 F1080
G1 X152.87 Y93.77 F9000
G1 X167.44 Y79.2 E399.315 F1080
G1 X166.96 Y79.11 F9000
G1 X152.4 Y93.68 E400.343 F1080
G1 X151.93 Y93.58 F9000
G1 X166.49 Y79.01 E401.371 F1080
G1 X166.02 Y78.92 F9000
G1 X151.46 Y93.49 E402.399 F1080
G1 X150.98 Y93.39 F9000
G1 X165.55 Y78.82 E403.427 F1080
G1 X165.08 Y78.73 F9000
G1 X150.51 Y93.3 E404.454 F1080
G1 X150.04 Y93.2 F9000
G1 X164.61 Y78.63 E405.482 F1080
G1 X164.14 Y78.54 F9000
G1 X149.57 Y93.11 E406.51 F1080
G1 X149.1 Y93.01 F9000
G1 X163.67 Y78.44 E407.538 F1080
G1 X163.2 Y78.35 F9000
G1 X148.63 Y92.92 E408.566 F1080
G1 X148.16 Y92.82 F9000
G1 X162.73 Y78.25 E409.594 F1080
G1 X162.26 Y78.16 F9000
G1 X147.69 Y92.73 E410.622 F1080
G1 X147.22 Y92.63 F9000
G1 X161.79 Y78.06 E411.65 F1080
G1 X161.32 Y77.97 F9000
G1 X146.75 Y92.53 E412.678 F1080
G1 X146.28 Y92.44 F9000
G1 X160.85 Y77.87 E413.706 F1080
G1 X160.38 Y77.78 F9000
G1 X145.81 Y92.34 E414.733 F1080
G1 X145.34 Y92.25 F9000
G1 X159.91 Y77.68 E415.761 F1080
G1 X159.44 Y77.59 F9000
G1 X144.87 Y92.15 E416.789 F1080
G1 X144.4 Y92.06 F9000
G1 X158.97 Y77.49 E417.817 F1080
G1 X158.5 Y77.39 F9000
G1 X143.93 Y91.96 E418.845 F1080
G1 X143.46 Y91.87 F9000
G1 X158.03 Y77.3 E419.873 F1080
G1 X157.56 Y77.2 F9000
G1 X142.99 Y91.77 E420.901 F1080
G1 X142.52 Y91.68 F9000
G1 X157.08 Y77.11 E421.929 F1080
G1 X156.61 Y77.01 F9000
G1 X142.05 Y91.58 E422.957 F1080
G1 X141.57 Y91.49 F9000
G1 X156.14 Y76.92 E423.985 F1080
G1 X155.67 Y76.82 F9000
G1 X141.1 Y91.39 E425.013 F1080
G1 X140.63 Y91.3 F9000
G1 X155.2 Y76.73 E426.04 F1080
G1 X154.73 Y76.63 F9000
G1 X140.16 Y91.2 E427.068 F1080
G1 X139.69 Y91.11 F9000
G1 X154.26 Y76.54 E428.096 F1080
G1 X153.79 Y76.44 F9000
G1 X139.22 Y91.01 E429.124 F1080
G1 X138.75 Y90.92 F9000
G1 X153.32 Y76.35 E430.152 F1080
G1 X152.85 Y76.25 F9000
G1 X138.28 Y90.82 E431.18 F1080
G1 X137.81 Y90.73 F9000
G1 X152.38 Y76.16 E432.208 F1080
G1 X151.91 Y76.06 F9000
G1 X137.34 Y90.63 E433.236 F1080
G1 X136.87 Y90.54 F9000
G1 X151.44 Y75.97 E434.264 F1080
G1 X150.97 Y75.87 F9000
G1 X136.4 Y90.44 E435.292 F1080
G1 X135.93 Y90.34 F9000
G1 X150.5 Y75.78 E436.32 F1080
G1 X150.03 Y75.68 F9000
G1 X135.46 Y90.25 E437.347 F1080
G1 X134.99 Y90.15 F9000
G1 X149.56 Y75.59 E438.375 F1080
G1 X149.09 Y75.49 F9000
G1 X134.52 Y90.06 E439.403 F1080
G1 X134.05 Y89.96 F9000
G1 X148.62 Y75.4 E440.431 F1080
G1 X148.15 Y75.3 F9000
G1 X133.58 Y89.87 E441.459 F1080
G1 X133.11 Y89.77 F9000
G1 X147.68 Y75.2 E442.487 F1080
G1 X147.2 Y75.11 F9000
G1 X132.64 Y89.68 E443.515 F1080
G1 X132.17 Y89.58 F9000
G1 X146.73 Y75.01 E444.543 F1080
G1 X146.26 Y74.92 F9000
G1 X131.7 Y89.49 E445.571 F1080
G1 X131.22 Y89.39 F9000
G1 X145.79 Y74.82 E446.599 F1080
G1 X145.32 Y74.73 F9000
G1 X130.75 Y89.3 E447.627 F1080
G1 X130.28 Y89.2 F9000
G1 X144.85 Y74.63 E448.655 F1080
G1 X144.38 Y74.54 F9000
G1 X129.81 Y89.11 E449.682 F1080
G1 X129.34 Y89.01 F9000
G1 X143.91 Y74.44 E450.71 F1080
G1 X143.44 Y74.35 F9000
G1 X128.87 Y88.92 E451.738 F1080
G1 X128.4 Y88.82 F9000
G1 X142.97 Y74.25 E452.766 F1080
G1 X142.5 Y74.16 F9000
G1 X127.93 Y88.73 E453.794 F1080
G1 X127.46 Y88.63 F9000
G1 X142.03 Y74.06 E454.822 F1080
G1 X141.56 Y73.97 F9000
G1 X126.99 Y88.54 E455.85 F1080
G1 X126.52 Y88.44 F9000
G1 X141.09 Y73.87 E456.878 F1080
G1 X140.62 Y73.78 F9000
G1 X126.05 Y88.35 E457.906 F1080
G1 X125.58 Y88.25 F9000
G1 X140.15 Y73.68 E458.934 F1080
G1 X139.68 Y73.59 F9000
G1 X125.11 Y88.16 E459.962 F1080
G1 X124.64 Y88.06 F9000
G1 X139.21 Y73.49 E460.99 F1080
G1 X138.74 Y73.4 F9000
G1 X124.17 Y87.96 E462.017 F1080
G1 X123.7 Y87.87 F9000
G1 X138.27 Y73.3 E463.045 F1080
G1 X137.8 Y73.21 F9000
G1 X123.23 Y87.77 E464.073 F1080
G1 X122.76 Y87.68 F9000
G1 X137.33 Y73.11 E465.101 F1080
G1 X136.85 Y73.01 F9000
G1 X122.29 Y87.58 E466.129 F1080
G1 X121.81 Y87.49 F9000
G1 X136.38 Y72.92 E467.157 F1080
G1 X135.91 Y72.82 F9000
G1 X121.34 Y87.39 E468.185 F1080
G1 X120.87 Y87.3 F9000
G1 X135.44 Y72.73 E469.213 F1080
G1 X134.97 Y72.63 F9000
G1 X120.4 Y87.2 E470.241 F1080
G1 X119.93 Y87.11 F9000
G1 X134.5 Y72.54 E471.269 F1080
G1 X134.03 Y72.44 F9000
G1 X119.46 Y87.01 E472.297 F1080
G1 X118.99 Y86.92 F9000
G1 X133.56 Y72.35 E473.325 F1080
G1 X133.09 Y72.25 F9000
G1 X118.52 Y86.82 E474.353 F1080
G1 X118.05 Y86.73 F9000
G1 X132.62 Y72.16 E475.381 F1080
G1 X132.15 Y72.06 F9000
G1 X117.58 Y86.63 E476.409 F1080
G1 X117.11 Y86.54 F9000
G1 X131.68 Y71.97 E477.436 F1080
G1 X131.21 Y71.87 F9000
G1 X116.64 Y86.44 E478.464 F1080
G1 X116.17 Y86.35 F9000
G1 X130.74 Y71.78 E479.492 F1080
G1 X130.27 Y71.68 F9000
G1 X115.7 Y86.25 E480.52 F1080
G1 X115.23 Y86.16 F9000
G1 X129.8 Y71.59 E481.548 F1080
G1 X129.33 Y71.49 F9000
G1 X114.76 Y86.06 E482.576 F1080
G1 X114.29 Y85.97 F9000
G1 X128.86 Y71.4 E483.604 F1080
G1 X128.39 Y71.3 F9000
G1 X113.82 Y85.87 E484.632 F1080
G1 X113.35 Y85.77 F9000
G1 X127.92 Y71.21 E485.66 F1080
G1 X127.45 Y71.11 F9000
G1 X112.88 Y85.68 E486.688 F1080
G1 X112.41 Y85.58 F9000
G1 X126.97 Y71.02 E487.716 F1080
G1 X126.5 Y70.92 F9000
G1 X111.94 Y85.49 E488.744 F1080
G1 X111.46 Y85.39 F9000
G1 X126.03 Y70.82 E489.772 F1080
G1 X125.56 Y70.73 F9000
G1 X110.99 Y85.3 E490.8 F1080
G1 X110.52 Y85.2 F9000
G1 X125.09 Y70.63 E491.828 F1080
G1 X124.62 Y70.54 F9000
G1 X110.05 Y85.11 E492.855 F1080
G1 X109.58 Y85.01 F9000
G1 X124.15 Y70.44 E493.883 F1080
G1 X123.68 Y70.35 F9000
G1 X109.11 Y84.92 E494.911 F1080
G1 X108.64 Y84.82 F9000
G1 X123.21 Y70.25 E495.939 F1080
G1 X122.74 Y70.16 F9000
G1 X108.17 Y84.73 E496.967 F1080
G1 X107.7 Y84.63 F9000
G1 X122.27 Y70.06 E497.995 F1080
G1 X121.8 Y69.97 F9000
G1 X107.23 Y84.54 E499.023 F1080
G1 X106.76 Y84.44 F9000
G1 X121.33 Y69.87 E500.051 F1080
G1 X120.86 Y69.78 F9000
G1 X106.29 Y84.35 E501.079 F1080
G1 X105.82 Y84.25 F9000
G1 X120.39 Y69.68 E502.107 F1080
G1 X119.92 Y69.59 F9000
G1 X105.35 Y84.16 E503.135 F1080
G1 X104.88 Y84.06 F9000
G1 X119.45 Y69.49 E504.163 F1080
G1 X118.98 Y69.4 F9000
G1 X104.41 Y83.97 E505.191 F1080
G1 X103.94 Y83.87 F9000
G1 X118.51 Y69.3 E506.219 F1080
G1 X118.04 Y69.21 F9000
G1 X103.47 Y83.78 E507.247 F1080
G1 X103 Y83.68 F9000
G1 X117.56 Y69.11 E508.275 F1080
G1 X117.09 Y69.02 F9000
G1 X102.53 Y83.58 E509.303 F1080
G1 X102.06 Y83.49 F9000
G1 X116.62 Y68.92 E510.33 F1080
G1 X116.15 Y68.83 F9000
G1 X101.58 Y83.39 E511.358 F1080
G1 X101.11 Y83.3 F9000
G1 X115.68 Y68.73 E512.386 F1080
G1 X115.21 Y68.63 F9000
G1 X100.64 Y83.2 E513.414 F1080
G1 X100.17 Y83.11 F9000
G1 X114.74 Y68.54 E514.442 F1080
G1 X114.27 Y68.44 F9000
G1 X99.7 Y83.01 E515.47 F1080
G1 X99.23 Y82.92 F9000
G1 X113.8 Y68.35 E516.498 F1080
G1 X113.33 Y68.25 F9000
G1 X98.76 Y82.82 E517.526 F1080
G1 X98.29 Y82.73 F9000
G1 X112.86 Y68.16 E518.554 F1080
G1 X112.39 Y68.06 F9000
G1 X97.82 Y82.63 E519.582 F1080
G1 X97.35 Y82.54 F9000
G1 X111.92 Y67.97 E520.61 F1080
G1 X111.45 Y67.87 F9000
G1 X96.88 Y82.44 E521.638 F1080
G1 X96.41 Y82.35 F9000
G1 X110.98 Y67.78 E522.666 F1080
G1 X110.51 Y67.68 F9000
G1 X95.94 Y82.25 E523.694 F1080
G1 X95.47 Y82.16 F9000
G1 X110.04 Y67.59 E524.722 F1080
G1 X109.57 Y67.49 F9000
G1 X95 Y82.06 E525.75 F1080
G1 X94.53 Y81.97 F9000
G1 X109.1 Y67.4 E526.778 F1080
G1 X108.63 Y67.3 F9000
G1 X94.06 Y81.87 E527.806 F1080
G1 X93.59 Y81.78 F9000
G1 X108.16 Y67.21 E528.834 F1080
G1 X107.69 Y67.11 F9000
G1 X93.12 Y81.68 E529.861 F1080
G1 X92.65 Y81.59 F9000
G1 X107.22 Y67.02 E530.889 F1080
G1 X106.74 Y66.92 F9000
G1 X92.17 Y81.49 E531.917 F1080
G1 X91.7 Y81.4 F9000
G1 X106.27 Y66.83 E532.945 F1080
G1 X105.8 Y66.73 F9000
G1 X91.15 Y81.39 E533.979 F1080
G1 X90.06 Y81.91 F9000
G1 X105.33 Y66.63 E535.057 F1080
G1 X104.86 Y66.54 F9000
G1 X88.96 Y82.44 E536.179 F1080
G1 X87.87 Y82.97 F9000
G1 X104.39 Y66.44 E537.345 F1080
G1 X103.92 Y66.35 F9000
G1 X86.78 Y83.49 E538.555 F1080
G1 X85.68 Y84.02 F9000
G1 X103.45 Y66.25 E539.808 F1080
G1 X102.98 Y66.16 F9000
G1 X84.59 Y84.55 E541.106 F1080
G1 X83.5 Y85.08 F9000
G1 X102.51 Y66.06 E542.447 F1080
G1 X102.04 Y65.97 F9000
G1 X82.4 Y85.6 E543.832 F1080
G1 X81.31 Y86.13 F9000
G1 X101.57 Y65.87 E545.262 F1080
G1 X101.1 Y65.78 F9000
G1 X80.22 Y86.66 E546.735 F1080
G1 X79.13 Y87.19 F9000
G1 X100.63 Y65.68 E548.252 F1080
G1 X100.16 Y65.59 F9000
G1 X78.03 Y87.71 E549.813 F1080
G1 X76.94 Y88.24 F9000
G1 X99.69 Y65.49 E551.418 F1080
G1 X99.22 Y65.4 F9000
G1 X75.85 Y88.77 E553.067 F1080
G1 X74.75 Y89.3 F9000
G1 X98.75 Y65.3 E554.76 F1080
G1 X98.28 Y65.21 F9000
G1 X73.66 Y89.82 E556.497 F1080
G1 X72.57 Y90.35 F9000
G1 X97.81 Y65.11 E558.277 F1080
G1 X97.34 Y65.02 F9000
G1 X71.47 Y90.88 E560.102 F1080
G1 X70.38 Y91.4 F9000
G1 X96.86 Y64.92 E561.971 F1080
G1 X96.39 Y64.83 F9000
G1 X69.29 Y91.93 E563.883 F1080
G1 X68.2 Y92.46 F9000
G1 X95.92 Y64.73 E565.839 F1080
G1 X95.45 Y64.64 F9000
G1 X67.1 Y92.99 E567.84 F1080
G1 X66.01 Y93.51 F9000
G1 X94.98 Y64.54 E569.884 F1080
G1 X94.51 Y64.45 F9000
G1 X64.92 Y94.04 E571.972 F1080
G1 X63.82 Y94.57 F9000
G1 X94.04 Y64.35 E574.104 F1080
G1 X93.57 Y64.25 F9000
G1 X62.73 Y95.1 E576.28 F1080
G1 X61.64 Y95.62 F9000
G1 X93.1 Y64.16 E578.5 F1080
G1 X92.63 Y64.06 F9000
G1 X60.54 Y96.15 E580.764 F1080
G1 X59.45 Y96.68 F9000
G1 X92.16 Y63.97 E583.072 F1080
G1 X91.69 Y63.87 F9000
G1 X58.36 Y97.21 E585.423 F1080
G1 X57.27 Y97.73 F9000
G1 X91.22 Y63.78 E587.819 F1080
G1 X90.75 Y63.68 F9000
G1 X56.17 Y98.26 E590.258 F1080
G1 X55.08 Y98.79 F9000
G1 X90.28 Y63.59 E592.742 F1080
G1 X89.81 Y63.49 F9000
G1 X53.99 Y99.31 E595.269 F1080
G1 X52.89 Y99.84 F9000
G1 X89.34 Y63.4 E597.841 F1080
G1 X88.63 Y63.54 F9000
G1 X51.8 Y100.37 E600.439 F1080
G1 X50.71 Y100.9 F9000
G1 X87.54 Y64.06 E603.038 F1080
G1 X86.45 Y64.59 F9000
G1 X49.61 Y101.42 E605.637 F1080
G1 E602.637 F1800
G1 Z0.8
G1 X48.9 Y101.92 F9000
G1 X48.6 Y150.87
G1 X49.44 Y152.34
G1 X91.43 Y172.45
G1 X96.22 Y172.1
G1 X156.1 Y177.09
G1 Z0.3
G1 E605.637 F1800
G1 X178.06 Y155.13 E607.186 F1080
G1 X177.35 Y155.27 F9000
G1 X155.39 Y177.23 E608.736 F1080
G1 X154.68 Y177.38 F9000
G1 X176.64 Y155.42 E610.285 F1080
G1 X175.93 Y155.56 F9000
G1 X153.97 Y177.52 E611.835 F1080
G1 X153.26 Y177.66 F9000
G1 X175.22 Y155.7 E613.384 F1080
G1 X174.51 Y155.85 F9000
G1 X152.55 Y177.81 E614.933 F1080
G1 X151.84 Y177.95 F9000
G1 X173.8 Y155.99 E616.483 F1080
G1 X173.1 Y156.13 F9000
G1 X151.13 Y178.09 E618.032 F1080
G1 X150.43 Y178.24 F9000
G1 X172.39 Y156.28 E619.582 F1080
G1 X171.68 Y156.42 F9000
G1 X149.72 Y178.38 E621.131 F1080
G1 X149.01 Y178.52 F9000
G1 X170.97 Y156.56 E622.681 F1080
G1 X170.26 Y156.71 F9000
G1 X148.3 Y178.67 E624.23 F1080
G1 X147.59 Y178.81 F9000
G1 X169.55 Y156.85 E625.78 F1080
G1 X168.84 Y156.99 F9000
G1 X146.88 Y178.96 E627.329 F1080
G1 X146.17 Y179.1 F9000
G1 X168.13 Y157.14 E628.879 F1080
G1 X167.42 Y157.28 F9000
G1 X145.46 Y179.24 E630.428 F1080
G1 X144.75 Y179.39 F9000
G1 X166.71 Y157.42 E631.978 F1080
G1 X166 Y157.57 F9000
G1 X144.04 Y179.53 E633.527 F1080
G1 X143.33 Y179.67 F9000
G1 X165.29 Y157.71 E635.077 F1080
G1 X164.59 Y157.86 F9000
G1 X142.62 Y179.82 E636.626 F1080
G1 X141.91 Y179.96 F9000
G1 X163.88 Y158 E638.176 F1080
G1 X163.17 Y158.14 F9000
G1 X141.21 Y180.1 E639.725 F1080
G1 X140.5 Y180.25 F9000
G1 X162.46 Y158.29 E641.275 F1080
G1 X161.75 Y158.43 F9000
G1 X139.79 Y180.39 E642.824 F1080
G1 X139.08 Y180.53 F9000
G1 X161.04 Y158.57 E644.374 F1080
G1 X160.33 Y158.72 F9000
G1 X138.37 Y180.68 E645.923 F1080
G1 X137.66 Y180.82 F9000
G1 X159.62 Y158.86 E647.473 F1080
G1 X158.91 Y159 F9000
G1 X136.95 Y180.96 E649.022 F1080
G1 X136.24 Y181.11 F9000
G1 X158.2 Y159.15 E650.572 F1080
G1 X157.49 Y159.29 F9000
G1 X135.53 Y181.25 E652.121 F1080
G1 X134.82 Y181.4 F9000
G1 X156.78 Y159.43 E653.671 F1080
G1 X156.07 Y159.58 F9000
G1 X134.11 Y181.54 E655.22 F1080
G1 X133.4 Y181.68 F9000
G1 X155.37 Y159.72 E656.77 F1080
G1 X154.66 Y159.86 F9000
G1 X132.69 Y181.83 E658.319 F1080
G1 X131.99 Y181.97 F9000
G1 X153.95 Y160.01 E659.869 F1080
G1 X153.24 Y160.15 F9000
G1 X131.28 Y182.11 E661.418 F1080
G1 X130.57 Y182.26 F9000
G1 X152.53 Y160.29 E662.968 F1080
G1 X151.82 Y160.44 F9000
G1 X129.86 Y182.4 E664.517 F1080
G1 X129.15 Y182.54 F9000
G1 X151.11 Y160.58 E666.067 F1080
G1 X150.4 Y160.73 F9000
G1 X128.44 Y182.69 E667.616 F1080
G1 X127.73 Y182.83 F9000
G1 X149.69 Y160.87 E669.166 F1080
G1 X148.98 Y161.01 F9000
G1 X127.02 Y182.97 E670.715 F1080
G1 X126.31 Y183.12 F9000
G1 X148.27 Y161.16 E672.265 F1080
G1 X147.56 Y161.3 F9000
G1 X125.6 Y183.26 E673.815 F1080
G1 X124.89 Y183.41 F9000
G1 X146.86 Y161.44 E675.364 F1080
G1 X146.15 Y161.59 F9000
G1 X124.18 Y183.55 E676.914 F1080
G1 X123.47 Y183.69 F9000
G1 X145.44 Y161.73 E678.463 F1080
G1 X144.73 Y161.87 F9000
G1 X122.77 Y183.84 E680.013 F1080
G1 X122.06 Y183.98 F9000
G1 X144.02 Y162.02 E681.562 F1080
G1 X143.31 Y162.16 F9000
G1 X121.35 Y184.12 E683.112 F1080
G1 X120.64 Y184.27 F9000
G1 X142.6 Y162.3 E684.661 F1080
G1 X141.89 Y162.45 F9000
G1 X119.93 Y184.41 E686.211 F1080
G1 X119.22 Y184.55 F9000
G1 X141.18 Y162.59 E687.76 F1080
G1 X140.47 Y162.73 F9000
G1 X118.51 Y184.7 E689.31 F1080
G1 X117.8 Y184.84 F9000
G1 X139.76 Y162.88 E690.86 F1080
G1 X139.05 Y163.02 F9000
G1 X117.09 Y184.98 E692.409 F1080
G1 X116.38 Y185.13 F9000
G1 X138.34 Y163.17 E693.959 F1080
G1 X137.64 Y163.31 F9000
G1 X115.67 Y185.27 E695.508 F1080
G1 X114.96 Y185.41 F9000
G1 X136.93 Y163.45 E697.058 F1080
G1 X136.22 Y163.6 F9000
G1 X114.26 Y185.56 E698.607 F1080
G1 X113.55 Y185.7 F9000
G1 X135.51 Y163.74 E700.157 F1080
G1 X134.8 Y163.88 F9000
G1 X112.84 Y185.85 E701.706 F1080
G1 X112.13 Y185.99 F9000
G1 X134.09 Y164.03 E703.256 F1080
G1 X133.38 Y164.17 F9000
G1 X111.42 Y186.13 E704.806 F1080
G1 X110.71 Y186.28 F9000
G1 X132.67 Y164.31 E706.355 F1080
G1 X131.96 Y164.46 F9000
G1 X110 Y186.42 E707.905 F1080
G1 X109.29 Y186.56 F9000
G1 X131.25 Y164.6 E709.454 F1080
G1 X130.54 Y164.74 F9000
G1 X108.58 Y186.71 E711.004 F1080
G1 X107.87 Y186.85 F9000
G1 X129.83 Y164.89 E712.554 F1080
G1 X129.13 Y165.03 F9000
G1 X107.16 Y186.99 E714.103 F1080
G1 X106.45 Y187.14 F9000
G1 X128.42 Y165.17 E715.653 F1080
G1 X127.71 Y165.32 F9000
G1 X105.74 Y187.28 E717.202 F1080
G1 X105.04 Y187.42 F9000
G1 X127 Y165.46 E718.752 F1080
G1 X126.29 Y165.61 F9000
G1 X104.33 Y187.57 E720.301 F1080
G1 X103.62 Y187.71 F9000
G1 X125.58 Y165.75 E721.851 F1080
G1 X124.87 Y165.89 F9000
G1 X102.91 Y187.85 E723.401 F1080
G1 X102.2 Y188 F9000
G1 X124.16 Y166.04 E724.95 F1080
G1 X123.45 Y166.18 F9000
G1 X101.49 Y188.14 E726.5 F1080
G1 X100.78 Y188.29 F9000
G1 X122.74 Y166.32 E728.049 F1080
G1 X122.03 Y166.47 F9000
G1 X100.07 Y188.43 E729.599 F1080
G1 X99.36 Y188.57 F9000
G1 X121.32 Y166.61 E731.149 F1080
G1 X120.61 Y166.75 F9000
G1 X98.65 Y188.72 E732.698 F1080
G1 X97.94 Y188.86 F9000
G1 X119.91 Y166.9 E734.248 F1080
G1 X119.2 Y167.04 F9000
G1 X97.23 Y189 E735.797 F1080
G1 X96.52 Y189.15 F9000
G1 X118.49 Y167.18 E737.347 F1080
G1 X117.78 Y167.33 F9000
G1 X95.82 Y189.29 E738.897 F1080
G1 X95.11 Y189.43 F9000
G1 X117.07 Y167.47 E740.446 F1080
G1 X116.36 Y167.61 F9000
G1 X94.4 Y189.58 E741.996 F1080
G1 X93.69 Y189.72 F9000
G1 X115.65 Y167.76 E743.546 F1080
G1 X114.94 Y167.9 F9000
G1 X92.98 Y189.86 E745.095 F1080
G1 X92.27 Y190.01 F9000
G1 X114.23 Y168.04 E746.645 F1080
G1 X113.52 Y168.19 F9000
G1 X91.56 Y190.15 E748.194 F1080
G1 X90.85 Y190.3 F9000
G1 X112.81 Y168.33 E749.744 F1080
G1 X112.1 Y168.48 F9000
G1 X90.14 Y190.44 E751.294 F1080
G1 X89.43 Y190.58 F9000
G1 X111.4 Y168.62 E752.843 F1080
G1 X110.69 Y168.76 F9000
G1 X88.87 Y190.58 E754.383 F1080
G1 X88.49 Y190.39 F9000
G1 X109.98 Y168.91 E755.899 F1080
G1 X109.27 Y169.05 F9000
G1 X88.11 Y190.21 E757.392 F1080
G1 X87.73 Y190.03 F9000
G1 X108.56 Y169.19 E758.861 F1080
G1 X107.85 Y169.34 F9000
G1 X87.34 Y189.84 E760.308 F1080
G1 X86.96 Y189.66 F9000
G1 X107.14 Y169.48 E761.732 F1080
G1 X106.43 Y169.62 F9000
G1 X86.58 Y189.47 E763.132 F1080
G1 X86.2 Y189.29 F9000
G1 X105.72 Y169.77 E764.51 F1080
G1 X105.01 Y169.91 F9000
G1 X85.82 Y189.1 E765.864 F1080
G1 X85.44 Y188.92 F9000
G1 X104.3 Y170.05 E767.195 F1080
G1 X103.59 Y170.2 F9000
G1 X85.06 Y188.74 E768.503 F1080
G1 X84.67 Y188.55 F9000
G1 X102.88 Y170.34 E769.788 F1080
G1 X102.18 Y170.48 F9000
G1 X84.29 Y188.37 E771.05 F1080
G1 X83.91 Y188.18 F9000
G1 X101.47 Y170.63 E772.288 F1080
G1 X100.76 Y170.77 F9000
G1 X83.53 Y188 E773.504 F1080
G1 X83.15 Y187.82 F9000
G1 X100.05 Y170.91 E774.696 F1080
G1 X99.34 Y171.06 F9000
G1 X82.77 Y187.63 E775.866 F1080
G1 X82.38 Y187.45 F9000
G1 X98.63 Y171.2 E777.012 F1080
G1 X97.92 Y171.35 F9000
G1 X82 Y187.26 E778.135 F1080
G1 X81.62 Y187.08 F9000
G1 X97.21 Y171.49 E779.235 F1080
G1 X96.5 Y171.63 F9000
G1 X81.24 Y186.9 E780.312 F1080
G1 X80.86 Y186.71 F9000
G1 X95.79 Y171.78 E781.366 F1080
G1 X95.08 Y171.92 F9000
G1 X80.48 Y186.53 E782.396 F1080
G1 X80.09 Y186.34 F9000
G1 X94.37 Y172.06 E783.404 F1080
G1 X93.67 Y172.21 F9000
G1 X79.71 Y186.16 E784.388 F1080
G1 X79.33 Y185.98 F9000
G1 X92.96 Y172.35 E785.35 F1080
G1 X92.25 Y172.49 F9000
G1 X78.95 Y185.79 E786.288 F1080
G1 X78.57 Y185.61 F9000
G1 X91.54 Y172.64 E787.203 F1080
G1 X91.05 Y172.56 F9000
G1 X78.19 Y185.42 E788.11 F1080
G1 X77.81 Y185.24 F9000
G1 X90.66 Y172.38 E789.018 F1080
G1 X90.28 Y172.19 F9000
G1 X77.42 Y185.05 E789.925 F1080
G1 X77.04 Y184.87 F9000
G1 X89.9 Y172.01 E790.832 F1080
G1 X89.52 Y171.83 F9000
G1 X76.66 Y184.69 E791.74 F1080
G1 X76.28 Y184.5 F9000
G1 X89.14 Y171.64 E792.647 F1080
G1 X88.76 Y171.46 F9000
G1 X75.9 Y184.32 E793.554 F1080
G1 X75.52 Y184.13 F9000
G1 X88.38 Y171.27 E794.462 F1080
G1 X87.99 Y171.09 F9000
G1 X75.13 Y183.95 E795.369 F1080
G1 X74.75 Y183.77 F9000
G1 X87.61 Y170.91 E796.276 F1080
G1 X87.23 Y170.72 F9000
G1 X74.37 Y183.58 E797.184 F1080
G1 X73.99 Y183.4 F9000
G1 X86.85 Y170.54 E798.091 F1080
G1 X86.47 Y170.35 F9000
G1 X73.61 Y183.21 E798.998 F1080
G1 X73.23 Y183.03 F9000
G1 X86.09 Y170.17 E799.906 F1080
G1 X85.7 Y169.99 F9000
G1 X72.84 Y182.85 E800.813 F1080
G1 X72.46 Y182.66 F9000
G1 X85.32 Y169.8 E801.72 F1080
G1 X84.94 Y169.62 F9000
G1 X72.08 Y182.48 E802.628 F1080
G1 X71.7 Y182.29 F9000
G1 X84.56 Y169.43 E803.535 F1080
G1 X84.18 Y169.25 F9000
G1 X71.32 Y182.11 E804.442 F1080
G1 X70.94 Y181.93 F9000
G1 X83.8 Y169.06 E805.35 F1080
G1 X83.41 Y168.88 F9000
G1 X70.55 Y181.74 E806.257 F1080
G1 X70.17 Y181.56 F9000
G1 X83.03 Y168.7 E807.164 F1080
G1 X82.65 Y168.51 F9000
G1 X69.79 Y181.37 E808.072 F1080
G1 X69.41 Y181.19 F9000
G1 X82.27 Y168.33 E808.979 F1080
G1 X81.89 Y168.14 F9000
G1 X69.03 Y181 E809.887 F1080
G1 X68.65 Y180.82 F9000
G1 X81.51 Y167.96 E810.794 F1080
G1 X81.12 Y167.78 F9000
G1 X68.26 Y180.64 E811.701 F1080
G1 X67.88 Y180.45 F9000
G1 X80.74 Y167.59 E812.609 F1080
G1 X80.36 Y167.41 F9000
G1 X67.5 Y180.27 E813.516 F1080
G1 X67.12 Y180.08 F9000
G1 X79.98 Y167.22 E814.423 F1080
G1 X79.6 Y167.04 F9000
G1 X66.74 Y179.9 E815.331 F1080
G1 X66.36 Y179.72 F9000
G1 X79.22 Y166.86 E816.238 F1080
G1 X78.84 Y166.67 F9000
G1 X65.98 Y179.53 E817.145 F1080
G1 X65.59 Y179.35 F9000
G1 X78.45 Y166.49 E818.053 F1080
G1 X78.07 Y166.3 F9000
G1 X65.21 Y179.16 E818.96 F1080
G1 X64.83 Y178.98 F9000
G1 X77.69 Y166.12 E819.867 F1080
G1 X77.31 Y165.94 F9000
G1 X64.45 Y178.8 E820.775 F1080
G1 X64.07 Y178.61 F9000
G1 X76.93 Y165.75 E821.682 F1080
G1 X76.55 Y165.57 F9000
G1 X63.69 Y178.43 E822.59 F1080
G1 X63.3 Y178.24 F9000
G1 X76.16 Y165.38 E823.497 F1080
G1 X75.78 Y165.2 F9000
G1 X62.92 Y178.06 E824.404 F1080
G1 X62.54 Y177.87 F9000
G1 X75.4 Y165.01 E825.312 F1080
G1 X75.02 Y164.83 F9000
G1 X62.16 Y177.69 E826.219 F1080
G1 X61.78 Y177.51 F9000
G1 X74.64 Y164.65 E827.126 F1080
G1 X74.26 Y164.46 F9000
G1 X61.4 Y177.32 E828.034 F1080
G1 X61.01 Y177.14 F9000
G1 X73.87 Y164.28 E828.941 F1080
G1 X73.49 Y164.09 F9000
G1 X60.63 Y176.95 E829.848 F1080
G1 X60.25 Y176.77 F9000
G1 X73.11 Y163.91 E830.756 F1080
G1 X72.73 Y163.73 F9000
G1 X59.87 Y176.59 E831.663 F1080
G1 X59.49 Y176.4 F9000
G1 X72.35 Y163.54 E832.571 F1080
G1 X71.97 Y163.36 F9000
G1 X59.11 Y176.22 E833.478 F1080
G1 X58.73 Y176.03 F9000
G1 X71.59 Y163.17 E834.385 F1080
G1 X71.2 Y162.99 F9000
G1 X58.34 Y175.85 E835.293 F1080
G1 X57.96 Y175.67 F9000
G1 X70.82 Y162.81 E836.2 F1080
G1 X70.44 Y162.62 F9000
G1 X57.58 Y175.48 E837.107 F1080
G1 X57.2 Y175.3 F9000
G1 X70.06 Y162.44 E838.015 F1080
G1 X69.68 Y162.25 F9000
G1 X56.82 Y175.11 E838.922 F1080
G1 X56.44 Y174.93 F9000
G1 X69.3 Y162.07 E839.829 F1080
G1 X68.91 Y161.89 F9000
G1 X56.05 Y174.75 E840.737 F1080
G1 X55.67 Y174.56 F9000
G1 X68.53 Y161.7 E841.644 F1080
G1 X68.15 Y161.52 F9000
G1 X55.29 Y174.38 E842.551 F1080
G1 X54.91 Y174.19 F9000
G1 X67.77 Y161.33 E843.459 F1080
G1 X67.39 Y161.15 F9000
G1 X54.53 Y174.01 E844.366 F1080
G1 X54.15 Y173.83 F9000
G1 X67.01 Y160.97 E845.274 F1080
G1 X66.63 Y160.78 F9000
G1 X53.76 Y173.64 E846.181 F1080
G1 X53.38 Y173.46 F9000
G1 X66.24 Y160.6 E847.088 F1080
G1 X65.86 Y160.41 F9000
G1 X53 Y173.27 E847.996 F1080
G1 X52.62 Y173.09 F9000
G1 X65.48 Y160.23 E848.903 F1080
G1 X65.1 Y160.04 F9000
G1 X52.24 Y172.9 E849.811 F1080
G1 X51.86 Y172.72 F9000
G1 X64.72 Y159.86 E850.718 F1080
G1 X64.34 Y159.68 F9000
G1 X51.47 Y172.54 E851.625 F1080
G1 X51.09 Y172.35 F9000
G1 X63.95 Y159.49 E852.533 F1080
G1 X63.57 Y159.31 F9000
G1 X50.71 Y172.17 E853.44 F1080
G1 X50.33 Y171.98 F9000
G1 X63.19 Y159.12 E854.347 F1080
G1 X62.81 Y158.94 F9000
G1 X49.95 Y171.8 E855.255 F1080
G1 X49.57 Y171.62 F9000
G1 X62.43 Y158.76 E856.162 F1080
G1 X62.05 Y158.57 F9000
G1 X49.19 Y171.43 E857.07 F1080
G1 X48.8 Y171.25 F9000
G1 X61.66 Y158.39 E857.977 F1080
G1 X61.28 Y158.2 F9000
G1 X48.42 Y171.06 E858.884 F1080
G1 X48.04 Y170.88 F9000
G1 X60.9 Y158.02 E859.792 F1080
G1 X60.52 Y157.84 F9000
G1 X47.66 Y170.7 E860.699 F1080
G1 X47.28 Y170.51 F9000
G1 X60.14 Y157.65 E861.606 F1080
G1 X59.76 Y157.47 F9000
G1 X46.9 Y170.33 E862.514 F1080
G1 X46.51 Y170.14 F9000
G1 X59.38 Y157.28 E863.421 F1080
G1 X58.99 Y157.1 F9000
G1 X46.13 Y169.96 E864.329 F1080
G1 X45.75 Y169.77 F9000
G1 X58.61 Y156.91 E865.236 F1080
G1 X58.23 Y156.73 F9000
G1 X45.37 Y169.59 E866.143 F1080
G1 X44.99 Y169.41 F9000
G1 X57.85 Y156.55 E867.051 F1080
G1 X57.47 Y156.36 F9000
G1 X44.61 Y169.22 E867.958 F1080
G1 X44.22 Y169.04 F9000
G1 X57.09 Y156.18 E868.866 F1080
G1 X56.7 Y155.99 F9000
G1 X43.84 Y168.85 E869.773 F1080
G1 X43.46 Y168.67 F9000
G1 X56.32 Y155.81 E870.68 F1080
G1 X55.94 Y155.63 F9000
G1 X43.08 Y168.49 E871.588 F1080
G1 X42.7 Y168.3 F9000
G1 X55.56 Y155.44 E872.495 F1080
G1 X55.18 Y155.26 F9000
G1 X42.32 Y168.12 E873.402 F1080
G1 X41.93 Y167.93 F9000
G1 X54.8 Y155.07 E874.31 F1080
G1 X54.41 Y154.89 F9000
G1 X41.55 Y167.75 E875.217 F1080
G1 X41.17 Y167.57 F9000
G1 X54.03 Y154.71 E876.125 F1080
G1 X53.65 Y154.52 F9000
G1 X40.79 Y167.38 E877.032 F1080
G1 X40.41 Y167.2 F9000
G1 X53.27 Y154.34 E877.939 F1080
G1 X52.89 Y154.15 F9000
G1 X40.03 Y167.01 E878.847 F1080
G1 X39.65 Y166.83 F9000
G1 X52.51 Y153.97 E879.754 F1080
G1 X52.12 Y153.79 F9000
G1 X39.26 Y166.65 E880.662 F1080
G1 X38.88 Y166.46 F9000
G1 X51.74 Y153.6 E881.569 F1080
G1 X51.36 Y153.42 F9000
G1 X38.5 Y166.28 E882.476 F1080
G1 X38.12 Y166.09 F9000
G1 X50.98 Y153.23 E883.384 F1080
G1 X50.6 Y153.05 F9000
G1 X37.74 Y165.91 E884.291 F1080
G1 X37.36 Y165.73 F9000
G1 X50.22 Y152.86 E885.199 F1080
G1 X49.83 Y152.68 F9000
G1 X36.97 Y165.54 E886.106 F1080
G1 X36.59 Y165.36 F9000
G1 X49.45 Y152.5 E887.013 F1080
G1 X49.07 Y152.31 F9000
G1 X36.21 Y165.17 E887.921 F1080
G1 X35.83 Y164.99 F9000
G1 X48.69 Y152.13 E888.828 F1080
G1 X48.56 Y151.69 F9000
G1 X35.45 Y164.8 E889.753 F1080
G1 X35.07 Y164.62 F9000
G1 X48.56 Y151.13 E890.705 F1080
G1 Y150.56 F9000
G1 X34.69 Y164.44 E891.684 F1080
G1 X34.3 Y164.25 F9000
G1 X48.56 Y150 E892.69 F1080
G1 Y149.43 F9000
G1 X33.92 Y164.07 E893.723 F1080
G1 X33.54 Y163.88 F9000
G1 X48.56 Y148.86 E894.783 F1080
G1 Y148.3 F9000
G1 X33.16 Y163.7 E895.87 F1080
G1 X32.78 Y163.52 F9000
G1 X48.56 Y147.73 E896.983 F1080
G1 Y147.17 F9000
G1 X32.4 Y163.33 E898.124 F1080
G1 X32.01 Y163.15 F9000
G1 X48.56 Y146.6 E899.291 F1080
G1 Y146.04 F9000
G1 X31.63 Y162.96 E900.486 F1080
G1 X31.39 Y162.64 F9000
G1 X48.56 Y145.47 E901.697 F1080
G1 Y144.9 F9000
G1 X31.39 Y162.07 E902.909 F1080
G1 Y161.51 F9000
G1 X48.56 Y144.34 E904.12 F1080
G1 Y143.77 F9000
G1 X31.39 Y160.94 E905.331 F1080
G1 Y160.38 F9000
G1 X48.56 Y143.21 E906.543 F1080
G1 Y142.64 F9000
G1 X31.39 Y159.81 E907.754 F1080
G1 Y159.25 F9000
G1 X48.56 Y142.08 E908.966 F1080
G1 Y141.51 F9000
G1 X31.39 Y158.68 E910.177 F1080
G1 Y158.11 F9000
G1 X48.56 Y140.94 E911.389 F1080
G1 Y140.38 F9000
G1 X31.39 Y157.55 E912.6 F1080
G1 Y156.98 F9000
G1 X48.56 Y139.81 E913.812 F1080
G1 Y139.25 F9000
G1 X31.39 Y156.42 E915.023 F1080
G1 Y155.85 F9000
G1 X48.56 Y138.68 E916.234 F1080
G1 Y138.12 F9000
G1 X31.39 Y155.29 E917.446 F1080
G1 Y154.72 F9000
G1 X48.56 Y137.55 E918.657 F1080
G1 Y136.98 F9000
G1 X31.39 Y154.15 E919.869 F1080
G1 Y153.59 F9000
G1 X48.56 Y136.42 E921.08 F1080
G1 Y135.85 F9000
G1 X31.39 Y153.02 E922.292 F1080
G1 Y152.46 F9000
G1 X48.56 Y135.29 E923.503 F1080
G1 Y134.72 F9000
G1 X31.39 Y151.89 E924.714 F1080
G1 Y151.33 F9000
G1 X48.56 Y134.16 E925.926 F1080
G1 Y133.59 F9000
G1 X31.39 Y150.76 E927.137 F1080
G1 Y150.19 F9000
G1 X48.56 Y133.02 E928.349 F1080
G1 Y132.46 F9000
G1 X31.39 Y149.63 E929.56 F1080
G1 Y149.06 F9000
G1 X48.56 Y131.89 E930.772 F1080
G1 Y131.33 F9000
G1 X31.39 Y148.5 E931.983 F1080
G1 Y147.93 F9000
G1 X48.56 Y130.76 E933.194 F1080
G1 Y130.2 F9000
G1 X31.39 Y147.37 E934.406 F1080
G1 Y146.8 F9000
G1 X48.56 Y129.63 E935.617 F1080
G1 Y129.06 F9000
G1 X31.39 Y146.23 E936.829 F1080
G1 Y145.67 F9000
G1 X48.56 Y128.5 E938.04 F1080
G1 Y127.93 F9000
G1 X31.39 Y145.1 E939.252 F1080
G1 Y144.54 F9000
G1 X48.56 Y127.37 E940.463 F1080
G1 X48.56 Y126.8 F9000
G1 X31.39 Y143.97 E941.674 F1080
G1 Y143.41 F9000
G1 X48.56 Y126.24 E942.886 F1080
G1 Y125.67 F9000
G1 X31.39 Y142.84 E944.097 F1080
G1 Y142.27 F9000
G1 X48.56 Y125.11 E945.309 F1080
G1 Y124.54 F9000
G1 X31.39 Y141.71 E946.52 F1080
G1 Y141.14 F9000
G1 X48.56 Y123.97 E947.731 F1080
G1 Y123.41 F9000
G1 X31.39 Y140.58 E948.943 F1080
G1 Y140.01 F9000
G1 X48.56 Y122.84 E950.154 F1080
G1 Y122.28 F9000
G1 X31.39 Y139.45 E951.365 F1080
G1 Y138.88 F9000
G1 X48.56 Y121.71 E952.577 F1080
G1 Y121.15 F9000
G1 X31.39 Y138.32 E953.788 F1080
G1 Y137.75 F9000
G1 X48.56 Y120.58 E955 F1080
G1 Y120.01 F9000
G1 X31.39 Y137.18 E956.211 F1080
G1 Y136.62 F9000
G1 X48.56 Y119.45 E957.422 F1080
G1 Y118.88 F9000
G1 X31.39 Y136.05 E958.634 F1080
G1 Y135.49 F9000
G1 X48.56 Y118.32 E959.845 F1080
G1 Y117.75 F9000
G1 X31.39 Y134.92 E961.056 F1080
G1 Y134.36 F9000
G1 X48.56 Y117.19 E962.268 F1080
G1 Y116.62 F9000
G1 X31.39 Y133.79 E963.479 F1080
G1 Y133.22 F9000
G1 X48.56 Y116.05 E964.691 F1080
G1 Y115.49 F9000
G1 X31.39 Y132.66 E965.902 F1080
G1 Y132.09 F9000
G1 X48.56 Y114.92 E967.113 F1080
G1 Y114.36 F9000
G1 X31.39 Y131.53 E968.325 F1080
G1 Y130.96 F9000
G1 X48.56 Y113.79 E969.536 F1080
G1 Y113.23 F9000
G1 X31.39 Y130.4 E970.747 F1080
G1 Y129.83 F9000
G1 X48.56 Y112.66 E971.959 F1080
G1 Y112.09 F9000
G1 X31.39 Y129.26 E973.17 F1080
G1 Y128.7 F9000
G1 X48.56 Y111.53 E974.382 F1080
G1 Y110.96 F9000
G1 X31.39 Y128.13 E975.593 F1080
G1 Y127.57 F9000
G1 X48.56 Y110.4 E976.804 F1080
G1 Y109.83 F9000
G1 X31.39 Y127 E978.016 F1080
G1 X31.39 Y126.44 F9000
G1 X48.56 Y109.27 E979.227 F1080
G1 Y108.7 F9000
G1 X31.39 Y125.87 E980.439 F1080
G1 Y125.3 F9000
G1 X48.56 Y108.14 E981.65 F1080
G1 Y107.57 F9000
G1 X31.39 Y124.74 E982.861 F1080
G1 Y124.17 F9000
G1 X48.56 Y107 E984.073 F1080
G1 Y106.44 F9000
G1 X31.39 Y123.61 E985.284 F1080
G1 Y123.04 F9000
G1 X48.56 Y105.87 E986.496 F1080
G1 Y105.31 F9000
G1 X31.39 Y122.48 E987.707 F1080
G1 Y121.91 F9000
G1 X48.56 Y104.74 E988.919 F1080
G1 Y104.18 F9000
G1 X31.39 Y121.35 E990.13 F1080
G1 Y120.78 F9000
G1 X48.56 Y103.61 E991.341 F1080
G1 Y103.04 F9000
G1 X31.39 Y120.21 E992.553 F1080
G1 Y119.65 F9000
G1 X48.56 Y102.48 E993.764 F1080
G1 E990.764 F1800
G1 Z0.8
G1 X48.41 Y102.33 F9000
G1 X31.39 Y119.08
G1 Z0.3
G1 E993.764 F1800
G1 X85.35 Y65.12 E997.572 F1080
G1 X84.26 Y65.64 F9000
G1 X31.39 Y118.52 E1001.302 F1080
G1 Y117.95 F9000
G1 X83.17 Y66.17 E1004.956 F1080
G1 X82.08 Y66.7 F9000
G1 X31.39 Y117.39 E1008.532 F1080
G1 Y116.82 F9000
G1 X80.98 Y67.23 E1012.031 F1080
G1 X79.89 Y67.75 F9000
G1 X31.39 Y116.25 E1015.453 F1080
G1 Y115.69 F9000
G1 X78.8 Y68.28 E1018.798 F1080
G1 X77.7 Y68.81 F9000
G1 X31.39 Y115.12 E1022.065 F1080
G1 Y114.56 F9000
G1 X76.61 Y69.34 E1025.256 F1080
G1 X75.52 Y69.86 F9000
G1 X31.39 Y113.99 E1028.37 F1080
G1 Y113.43 F9000
G1 X74.43 Y70.39 E1031.406 F1080
G1 X73.33 Y70.92 F9000
G1 X31.39 Y112.86 E1034.365 F1080
G1 Y112.29 F9000
G1 X72.24 Y71.44 E1037.247 F1080
G1 X71.15 Y71.97 F9000
G1 X31.39 Y111.73 E1040.053 F1080
G1 Y111.16 F9000
G1 X70.05 Y72.5 E1042.78 F1080
G1 X68.96 Y73.03 F9000
G1 X31.39 Y110.6 E1045.431 F1080
G1 Y110.03 F9000
G1 X67.87 Y73.55 E1048.005 F1080
G1 X66.78 Y74.08 F9000
G1 X31.39 Y109.47 E1050.502 F1080
G1 Y108.9 F9000
G1 X65.68 Y74.61 E1052.921 F1080
G1 X64.59 Y75.14 F9000
G1 X31.39 Y108.33 E1055.264 F1080
G1 Y107.77 F9000
G1 X63.5 Y75.66 E1057.529 F1080
G1 X62.4 Y76.19 F9000
G1 X31.39 Y107.2 E1059.717 F1080
G1 Y106.64 F9000
G1 X61.31 Y76.72 E1061.828 F1080
G1 X60.22 Y77.24 F9000
G1 X31.39 Y106.07 E1063.862 F1080
G1 Y105.51 F9000
G1 X59.12 Y77.77 E1065.819 F1080
G1 X58.03 Y78.3 F9000
G1 X31.39 Y104.94 E1067.699 F1080
G1 Y104.37 F9000
G1 X56.94 Y78.83 E1069.502 F1080
G1 X55.85 Y79.35 F9000
G1 X31.39 Y103.81 E1071.227 F1080
G1 Y103.24 F9000
G1 X54.75 Y79.88 E1072.876 F1080
G1 X53.66 Y80.41 F9000
G1 X31.39 Y102.68 E1074.447 F1080
G1 Y102.11 F9000
G1 X52.57 Y80.93 E1075.941 F1080
G1 X51.47 Y81.46 F9000
G1 X31.39 Y101.55 E1077.358 F1080
G1 Y100.98 F9000
G1 X50.38 Y81.99 E1078.698 F1080
G1 X49.29 Y82.52 F9000
G1 X31.39 Y100.41 E1079.961 F1080
G1 Y99.85 F9000
G1 X48.2 Y83.04 E1081.147 F1080
G1 X47.1 Y83.57 F9000
G1 X31.39 Y99.28 E1082.256 F1080
G1 Y98.72 F9000
G1 X46.01 Y84.1 E1083.287 F1080
G1 X44.92 Y84.62 F9000
G1 X31.39 Y98.15 E1084.242 F1080
G1 Y97.59 F9000
G1 X43.82 Y85.15 E1085.119 F1080
G1 X42.73 Y85.68 F9000
G1 X31.39 Y97.02 E1085.919 F1080
G1 Y96.46 F9000
G1 X41.64 Y86.21 E1086.642 F1080
G1 X40.55 Y86.73 F9000
G1 X31.39 Y95.89 E1087.288 F1080
G1 Y95.32 F9000
G1 X39.45 Y87.26 E1087.857 F1080
G1 X38.36 Y87.79 F9000
G1 X31.39 Y94.76 E1088.349 F1080
G1 Y94.19 F9000
G1 X37.27 Y88.32 E1088.764 F1080
G1 X36.17 Y88.84 F9000
G1 X31.39 Y93.63 E1089.101 F1080
G1 Y93.06 F9000
G1 X35.08 Y89.37 E1089.362 F1080
G1 X33.99 Y89.9 F9000
G1 X31.39 Y92.5 E1089.545 F1080
G1 Y91.93 F9000
G1 X32.9 Y90.42 E1089.651 F1080
G1 X31.8 Y90.95 F9000
G1 X31.39 Y91.36 E1089.68 F1080
G1 E1086.68 F1800
G1 Z0.8
G1 X49.5 Y102.52 F9000
G1 X50 Y102.84
G1 X50.15
G1 X50.5 Y103.15
G1 X50.7 Y103.28
; TYPE:WALL-OUTER
G1 Z0.3
G1 E1089.68 F1800
G1 X91.58 Y83.55 E1091.945 F1080
G1 X177.3 Y100.9 E1096.308
G1 Y153.1 E1098.912
G1 X91.58 Y170.45 E1103.275
G1 X50.7 Y150.72 E1105.54
G1 Y103.32 E1107.905
G1 Y103.28
G1 X53.4 Y101.97
G1 X51.1 Y103.53 F9000
; TYPE:WALL-INNER
G1 X91.64 Y83.97 E1110.15 F1080
G1 X176.9 Y101.23 E1114.491
G1 Y152.77 E1117.062
G1 X91.64 Y170.03 E1121.402
G1 X51.1 Y150.47 E1123.647
G1 Y103.57 E1125.988
G1 Y103.53
G1 X51.44 Y104.12 F9000
; TYPE:BOTTOM-FILL
G1 X52.18 Y103.38 E1126.04 F1080
G1 X53.28 Y102.85 F9000
G1 X51.44 Y104.69 E1126.17 F1080
G1 Y105.25 F9000
G1 X54.37 Y102.33 E1126.376 F1080
G1 X55.46 Y101.8 F9000
G1 X51.44 Y105.82 E1126.66 F1080
G1 Y106.39 F9000
G1 X56.55 Y101.27 E1127.021 F1080
G1 X57.65 Y100.74 F9000
G1 X51.44 Y106.95 E1127.459 F1080
G1 Y107.52 F9000
G1 X58.74 Y100.22 E1127.974 F1080
G1 X59.83 Y99.69 F9000
G1 X51.44 Y108.08 E1128.566 F1080
G1 Y108.65 F9000
G1 X60.93 Y99.16 E1129.236 F1080
G1 X62.02 Y98.64 F9000
G1 X51.44 Y109.21 E1129.982 F1080
G1 Y109.78 F9000
G1 X63.11 Y98.11 E1130.806 F1080
G1 X64.2 Y97.58 F9000
G1 X51.44 Y110.35 E1131.706 F1080
G1 Y110.91 F9000
G1 X65.3 Y97.05 E1132.684 F1080
G1 X66.39 Y96.53 F9000
G1 X51.44 Y111.48 E1133.739 F1080
G1 Y112.04 F9000
G1 X67.48 Y96 E1134.871 F1080
G1 X68.58 Y95.47 F9000
G1 X51.44 Y112.61 E1136.08 F1080
G1 Y113.17 F9000
G1 X69.67 Y94.95 E1137.366 F1080
G1 X70.76 Y94.42 F9000
G1 X51.44 Y113.74 E1138.729 F1080
G1 Y114.31 F9000
G1 X71.85 Y93.89 E1140.17 F1080
G1 X72.95 Y93.36 F9000
G1 X51.44 Y114.87 E1141.687 F1080
G1 Y115.44 F9000
G1 X74.04 Y92.84 E1143.282 F1080
G1 X75.13 Y92.31 F9000
G1 X51.44 Y116 E1144.953 F1080
G1 Y116.57 F9000
G1 X76.23 Y91.78 E1146.702 F1080
G1 X77.32 Y91.25 F9000
G1 X51.44 Y117.13 E1148.528 F1080
G1 Y117.7 F9000
G1 X78.41 Y90.73 E1150.431 F1080
G1 X79.5 Y90.2 F9000
G1 X51.44 Y118.27 E1152.411 F1080
G1 Y118.83 F9000
G1 X80.6 Y89.67 E1154.469 F1080
G1 X81.69 Y89.15 F9000
G1 X51.44 Y119.4 E1156.603 F1080
G1 Y119.96 F9000
G1 X82.78 Y88.62 E1158.814 F1080
G1 X83.88 Y88.09 F9000
G1 X51.44 Y120.53 E1161.103 F1080
G1 Y121.09 F9000
G1 X84.97 Y87.57 E1163.469 F1080
G1 X86.06 Y87.04 F9000
G1 X51.44 Y121.66 E1165.911 F1080
G1 Y122.23 F9000
G1 X87.15 Y86.51 E1168.431 F1080
G1 X88.25 Y85.98 F9000
G1 X51.44 Y122.79 E1171.028 F1080
G1 Y123.36 F9000
G1 X89.34 Y85.46 E1173.702 F1080
G1 X90.43 Y84.93 F9000
G1 X51.44 Y123.92 E1176.454 F1080
G1 Y124.49 F9000
G1 X91.53 Y84.4 E1179.282 F1080
G1 X92.08 Y84.41 F9000
G1 X51.44 Y125.05 E1182.15 F1080
G1 Y125.62 F9000
G1 X92.55 Y84.5 E1185.05 F1080
G1 X93.02 Y84.6 F9000
G1 X51.44 Y126.19 E1187.985 F1080
G1 Y126.75 F9000
G1 X93.5 Y84.7 E1190.952 F1080
G1 X93.97 Y84.79 F9000
G1 X51.44 Y127.32 E1193.952 F1080
G1 Y127.88 F9000
G1 X94.44 Y84.89 E1196.986 F1080
G1 X94.91 Y84.98 F9000
G1 X51.44 Y128.45 E1200.053 F1080
G1 Y129.01 F9000
G1 X95.38 Y85.08 E1203.153 F1080
G1 X95.85 Y85.17 F9000
G1 X51.44 Y129.58 E1206.286 F1080
G1 Y130.15 F9000
G1 X96.32 Y85.27 E1209.452 F1080
G1 X96.79 Y85.36 F9000
G1 X51.44 Y130.71 E1212.652 F1080
G1 Y131.28 F9000
G1 X97.26 Y85.46 E1215.885 F1080
G1 X97.73 Y85.55 F9000
G1 X51.44 Y131.84 E1219.151 F1080
G1 Y132.41 F9000
G1 X98.2 Y85.65 E1222.45 F1080
G1 X98.67 Y85.74 F9000
G1 X51.44 Y132.97 E1225.782 F1080
G1 Y133.54 F9000
G1 X99.14 Y85.84 E1229.148 F1080
G1 X99.61 Y85.93 F9000
G1 X51.44 Y134.1 E1232.547 F1080
G1 Y134.67 F9000
G1 X100.08 Y86.03 E1235.979 F1080
G1 X100.55 Y86.12 F9000
G1 X51.44 Y135.24 E1239.444 F1080
G1 Y135.8 F9000
G1 X101.02 Y86.22 E1242.942 F1080
G1 X101.49 Y86.31 F9000
G1 X51.44 Y136.37 E1246.474 F1080
G1 Y136.93 F9000
G1 X101.96 Y86.41 E1250.038 F1080
G1 X102.43 Y86.5 F9000
G1 X51.44 Y137.5 E1253.636 F1080
G1 Y138.06 F9000
G1 X102.9 Y86.6 E1257.268 F1080
G1 X103.38 Y86.69 F9000
G1 X51.44 Y138.63 E1260.932 F1080
G1 Y139.2 F9000
G1 X103.85 Y86.79 E1264.629 F1080
G1 X104.32 Y86.89 F9000
G1 X51.44 Y139.76 E1268.36 F1080
G1 Y140.33 F9000
G1 X104.79 Y86.98 E1272.124 F1080
G1 X105.26 Y87.08 F9000
G1 X51.44 Y140.89 E1275.921 F1080
G1 Y141.46 F9000
G1 X105.73 Y87.17 E1279.751 F1080
G1 X106.2 Y87.27 F9000
G1 X51.44 Y142.02 E1283.615 F1080
G1 Y142.59 F9000
G1 X106.67 Y87.36 E1287.512 F1080
G1 X107.14 Y87.46 F9000
G1 X51.44 Y143.16 E1291.441 F1080
G1 Y143.72 F9000
G1 X107.61 Y87.55 E1295.405 F1080
G1 X108.08 Y87.65 F9000
G1 X51.44 Y144.29 E1299.401 F1080
G1 Y144.85 F9000
G1 X108.55 Y87.74 E1303.43 F1080
G1 X109.02 Y87.84 F9000
G1 X51.44 Y145.42 E1307.493 F1080
G1 Y145.98 F9000
G1 X109.49 Y87.93 E1311.589 F1080
G1 X109.96 Y88.03 F9000
G1 X51.44 Y146.55 E1315.718 F1080
G1 Y147.12 F9000
G1 X110.43 Y88.12 E1319.88 F1080
G1 X110.9 Y88.22 F9000
G1 X51.44 Y147.68 E1324.076 F1080
G1 Y148.25 F9000
G1 X111.37 Y88.31 E1328.304 F1080
G1 X111.84 Y88.41 F9000
G1 X51.44 Y148.81 E1332.566 F1080
G1 Y149.38 F9000
G1 X112.31 Y88.5 E1336.861 F1080
G1 X112.78 Y88.6 F9000
G1 X51.44 Y149.94 E1341.189 F1080
G1 X51.61 Y150.34 F9000
G1 X113.26 Y88.69 E1345.539 F1080
G1 X113.73 Y88.79 F9000
G1 X51.99 Y150.52 E1349.894 F1080
G1 X52.37 Y150.71 F9000
G1 X114.2 Y88.88 E1354.256 F1080
G1 X114.67 Y88.98 F9000
G1 X52.75 Y150.89 E1358.625 F1080
G1 X53.14 Y151.08 F9000
G1 X115.14 Y89.08 E1362.999 F1080
G1 X115.61 Y89.17 F9000
G1 X53.52 Y151.26 E1367.38 F1080
G1 X53.9 Y151.44 F9000
G1 X116.08 Y89.27 E1371.767 F1080
G1 X116.55 Y89.36 F9000
G1 X54.28 Y151.63 E1376.16 F1080
G1 X54.66 Y151.81 F9000
G1 X117.02 Y89.46 E1380.56 F1080
G1 X117.49 Y89.55 F9000
G1 X55.04 Y152 E1384.966 F1080
G1 X55.43 Y152.18 F9000
G1 X117.96 Y89.65 E1389.378 F1080
G1 X118.43 Y89.74 F9000
G1 X55.81 Y152.37 E1393.796 F1080
G1 X56.19 Y152.55 F9000
G1 X118.9 Y89.84 E1398.221 F1080
G1 X119.37 Y89.93 F9000
G1 X56.57 Y152.73 E1402.652 F1080
G1 X56.95 Y152.92 F9000
G1 X119.84 Y90.03 E1407.089 F1080
G1 X120.31 Y90.12 F9000
G1 X57.33 Y153.1 E1411.533 F1080
G1 X57.72 Y153.29 F9000
G1 X120.78 Y90.22 E1415.982 F1080
G1 X121.25 Y90.31 F9000
G1 X58.1 Y153.47 E1420.438 F1080
G1 X58.48 Y153.65 F9000
G1 X121.72 Y90.41 E1424.901 F1080
G1 X122.19 Y90.5 F9000
G1 X58.86 Y153.84 E1429.369 F1080
G1 X59.24 Y154.02 F9000
G1 X122.66 Y90.6 E1433.844 F1080
G1 X123.13 Y90.69 F9000
G1 X59.62 Y154.21 E1438.325 F1080
G1 X60.01 Y154.39 F9000
G1 X123.61 Y90.79 E1442.812 F1080
G1 X124.08 Y90.88 F9000
G1 X60.39 Y154.57 E1447.306 F1080
G1 X60.77 Y154.76 F9000
G1 X124.55 Y90.98 E1451.806 F1080
G1 X125.02 Y91.07 F9000
G1 X61.15 Y154.94 E1456.312 F1080
G1 X61.53 Y155.13 F9000
G1 X125.49 Y91.17 E1460.825 F1080
G1 X125.96 Y91.27 F9000
G1 X61.91 Y155.31 E1465.343 F1080
G1 X62.29 Y155.49 F9000
G1 X126.43 Y91.36 E1469.868 F1080
G1 X126.9 Y91.46 F9000
G1 X62.68 Y155.68 E1474.4 F1080
G1 X63.06 Y155.86 F9000
G1 X127.37 Y91.55 E1478.937 F1080
G1 X127.84 Y91.65 F9000
G1 X63.44 Y156.05 E1483.481 F1080
G1 X63.82 Y156.23 F9000
G1 X128.31 Y91.74 E1488.031 F1080
G1 X128.78 Y91.84 F9000
G1 X64.2 Y156.41 E1492.587 F1080
G1 X64.58 Y156.6 F9000
G1 X129.25 Y91.93 E1497.15 F1080
G1 X129.72 Y92.03 F9000
G1 X64.97 Y156.78 E1501.719 F1080
G1 X65.35 Y156.97 F9000
G1 X130.19 Y92.12 E1506.294 F1080
G1 X130.66 Y92.22 F9000
G1 X65.73 Y157.15 E1510.875 F1080
G1 X66.11 Y157.34 F9000
G1 X131.13 Y92.31 E1515.463 F1080
G1 X131.6 Y92.41 F9000
G1 X66.49 Y157.52 E1520.057 F1080
G1 X66.87 Y157.7 F9000
G1 X132.07 Y92.5 E1524.657 F1080
G1 X132.54 Y92.6 F9000
G1 X67.26 Y157.89 E1529.264 F1080
G1 X67.64 Y158.07 F9000
G1 X133.02 Y92.69 E1533.877 F1080
G1 X133.49 Y92.79 F9000
G1 X68.02 Y158.26 E1538.496 F1080
G1 X68.4 Y158.44 F9000
G1 X133.96 Y92.88 E1543.121 F1080
G1 X134.43 Y92.98 F9000
G1 X68.78 Y158.62 E1547.753 F1080
G1 X69.16 Y158.81 F9000
G1 X134.9 Y93.07 E1552.39 F1080
G1 X135.37 Y93.17 F9000
G1 X69.54 Y158.99 E1557.035 F1080
G1 X69.93 Y159.18 F9000
G1 X135.84 Y93.26 E1561.685 F1080
G1 X136.31 Y93.36 F9000
G1 X70.31 Y159.36 E1566.342 F1080
G1 X70.69 Y159.54 F9000
G1 X136.78 Y93.46 E1571.005 F1080
G1 X137.25 Y93.55 F9000
G1 X71.07 Y159.73 E1575.674 F1080
G1 X71.45 Y159.91 F9000
G1 X137.72 Y93.65 E1580.349 F1080
G1 X138.19 Y93.74 F9000
G1 X71.83 Y160.1 E1585.031 F1080
G1 X72.22 Y160.28 F9000
G1 X138.66 Y93.84 E1589.719 F1080
G1 X139.13 Y93.93 F9000
G1 X72.6 Y160.46 E1594.413 F1080
G1 X72.98 Y160.65 F9000
G1 X139.6 Y94.03 E1599.114 F1080
G1 X140.07 Y94.12 F9000
G1 X73.36 Y160.83 E1603.821 F1080
G1 X73.74 Y161.02 F9000
G1 X140.54 Y94.22 E1608.534 F1080
G1 X141.01 Y94.31 F9000
G1 X74.12 Y161.2 E1613.253 F1080
G1 X74.51 Y161.39 F9000
G1 X141.48 Y94.41 E1617.979 F1080
G1 X141.95 Y94.5 F9000
G1 X74.89 Y161.57 E1622.711 F1080
G1 X75.27 Y161.75 F9000
G1 X142.42 Y94.6 E1627.449 F1080
G1 X142.89 Y94.69 F9000
G1 X75.65 Y161.94 E1632.193 F1080
G1 X76.03 Y162.12 F9000
G1 X143.37 Y94.79 E1636.944 F1080
G1 X143.84 Y94.88 F9000
G1 X76.41 Y162.31 E1641.701 F1080
G1 X76.8 Y162.49 F9000
G1 X144.31 Y94.98 E1646.464 F1080
G1 X144.78 Y95.07 F9000
G1 X77.18 Y162.67 E1651.234 F1080
G1 X77.56 Y162.86 F9000
G1 X145.25 Y95.17 E1656.01 F1080
G1 X145.72 Y95.26 F9000
G1 X77.94 Y163.04 E1660.792 F1080
G1 X78.32 Y163.23 F9000
G1 X146.19 Y95.36 E1665.58 F1080
G1 X146.66 Y95.45 F9000
G1 X78.7 Y163.41 E1670.375 F1080
G1 X79.08 Y163.59 F9000
G1 X147.13 Y95.55 E1675.176 F1080
G1 X147.6 Y95.65 F9000
G1 X79.47 Y163.78 E1679.983 F1080
G1 X79.85 Y163.96 F9000
G1 X148.07 Y95.74 E1684.796 F1080
G1 X148.54 Y95.84 F9000
G1 X80.23 Y164.15 E1689.616 F1080
G1 X80.61 Y164.33 F9000
G1 X149.01 Y95.93 E1694.442 F1080
G1 X149.48 Y96.03 F9000
G1 X80.99 Y164.51 E1699.274 F1080
G1 X81.37 Y164.7 F9000
G1 X149.95 Y96.12 E1704.113 F1080
G1 X150.42 Y96.22 F9000
G1 X81.76 Y164.88 E1708.957 F1080
G1 X82.14 Y165.07 F9000
G1 X150.89 Y96.31 E1713.809 F1080
G1 X151.36 Y96.41 F9000
G1 X82.52 Y165.25 E1718.666 F1080
G1 X82.9 Y165.43 F9000
G1 X151.83 Y96.5 E1723.529 F1080
G1 X152.3 Y96.6 F9000
G1 X83.28 Y165.62 E1728.399 F1080
G1 X83.66 Y165.8 F9000
G1 X152.77 Y96.69 E1733.275 F1080
G1 X153.25 Y96.79 F9000
G1 X84.05 Y165.99 E1738.158 F1080
G1 X84.43 Y166.17 F9000
G1 X153.72 Y96.88 E1743.046 F1080
G1 X154.19 Y96.98 F9000
G1 X84.81 Y166.36 E1747.941 F1080
G1 X85.19 Y166.54 F9000
G1 X154.66 Y97.07 E1752.843 F1080
G1 X155.13 Y97.17 F9000
G1 X85.57 Y166.72 E1757.75 F1080
G1 X85.95 Y166.91 F9000
G1 X155.6 Y97.26 E1762.664 F1080
G1 X156.07 Y97.36 F9000
G1 X86.34 Y167.09 E1767.584 F1080
G1 X86.72 Y167.28 F9000
G1 X156.54 Y97.45 E1772.51 F1080
G1 X157.01 Y97.55 F9000
G1 X87.1 Y167.46 E1777.443 F1080
G1 X87.48 Y167.64 F9000
G1 X157.48 Y97.64 E1782.382 F1080
G1 X157.95 Y97.74 F9000
G1 X87.86 Y167.83 E1787.327 F1080
G1 X88.24 Y168.01 F9000
G1 X158.42 Y97.84 E1792.278 F1080
G1 X158.89 Y97.93 F9000
G1 X88.63 Y168.2 E1797.236 F1080
G1 X89.01 Y168.38 F9000
G1 X159.36 Y98.03 E1802.2 F1080
G1 X159.83 Y98.12 F9000
G1 X89.39 Y168.56 E1807.17 F1080
G1 X89.77 Y168.75 F9000
G1 X160.3 Y98.22 E1812.146 F1080
G1 X160.77 Y98.31 F9000
G1 X90.15 Y168.93 E1817.129 F1080
G1 X90.53 Y169.12 F9000
G1 X161.24 Y98.41 E1822.118 F1080
G1 X161.71 Y98.5 F9000
G1 X90.91 Y169.3 E1827.113 F1080
G1 X91.3 Y169.49 F9000
G1 X162.18 Y98.6 E1832.115 F1080
G1 X162.66 Y98.69 F9000
G1 X91.68 Y169.67 E1837.123 F1080
G1 X92.38 Y169.53 F9000
G1 X163.13 Y98.79 E1842.114 F1080
G1 X163.6 Y98.88 F9000
G1 X93.09 Y169.38 E1847.088 F1080
G1 X93.8 Y169.24 F9000
G1 X164.07 Y98.98 E1852.046 F1080
G1 X164.54 Y99.07 F9000
G1 X94.51 Y169.1 E1856.986 F1080
G1 X95.22 Y168.95 F9000
G1 X165.01 Y99.17 E1861.91 F1080
G1 X165.48 Y99.26 F9000
G1 X95.93 Y168.81 E1866.817 F1080
G1 X96.64 Y168.67 F9000
G1 X165.95 Y99.36 E1871.707 F1080
G1 X166.42 Y99.45 F9000
G1 X97.35 Y168.52 E1876.58 F1080
G1 X98.06 Y168.38 F9000
G1 X166.89 Y99.55 E1881.437 F1080
G1 X167.36 Y99.64 F9000
G1 X98.77 Y168.24 E1886.276 F1080
G1 X99.48 Y168.09 F9000
G1 X167.83 Y99.74 E1891.099 F1080
G1 X168.3 Y99.83 F9000
G1 X100.19 Y167.95 E1895.905 F1080
G1 X100.89 Y167.81 F9000
G1 X168.77 Y99.93 E1900.694 F1080
G1 X169.24 Y100.03 F9000
G1 X101.6 Y167.66 E1905.466 F1080
G1 X102.31 Y167.52 F9000
G1 X169.71 Y100.12 E1910.221 F1080
G1 X170.18 Y100.22 F9000
G1 X103.02 Y167.38 E1914.96 F1080
G1 X103.73 Y167.23 F9000
G1 X170.65 Y100.31 E1919.681 F1080
G1 X171.12 Y100.41 F9000
G1 X104.44 Y167.09 E1924.386 F1080
G1 X105.15 Y166.94 F9000
G1 X171.59 Y100.5 E1929.074 F1080
G1 X172.06 Y100.6 F9000
G1 X105.86 Y166.8 E1933.745 F1080
G1 X106.57 Y166.66 F9000
G1 X172.53 Y100.69 E1938.4 F1080
G1 X173 Y100.79 F9000
G1 X107.28 Y166.51 E1943.037 F1080
G1 X107.99 Y166.37 F9000
G1 X173.48 Y100.88 E1947.657 F1080
G1 X173.95 Y100.98 F9000
G1 X108.7 Y166.23 E1952.261 F1080
G1 X109.41 Y166.08 F9000
G1 X174.42 Y101.07 E1956.848 F1080
G1 X174.89 Y101.17 F9000
G1 X110.11 Y165.94 E1961.418 F1080
G1 X110.82 Y165.8 F9000
G1 X175.36 Y101.26 E1965.971 F1080
G1 X175.83 Y101.36 F9000
G1 X111.53 Y165.65 E1970.508 F1080
G1 X112.24 Y165.51 F9000
G1 X176.3 Y101.45 E1975.027 F1080
G1 X176.56 Y101.76 F9000
G1 X112.95 Y165.37 E1979.515 F1080
G1 X113.66 Y165.22 F9000
G1 X176.56 Y102.32 E1983.953 F1080
G1 Y102.89 F9000
G1 X114.37 Y165.08 E1988.341 F1080
G1 X115.08 Y164.93 F9000
G1 X176.56 Y103.45 E1992.678 F1080
G1 Y104.02 F9000
G1 X115.79 Y164.79 E1996.966 F1080
G1 X116.5 Y164.65 F9000
G1 X176.56 Y104.59 E2001.204 F1080
G1 Y105.15 F9000
G1 X117.21 Y164.5 E2005.391 F1080
G1 X117.92 Y164.36 F9000
G1 X176.56 Y105.72 E2009.529 F1080
G1 Y106.28 F9000
G1 X118.63 Y164.22 E2013.617 F1080
G1 X119.33 Y164.07 F9000
G1 X176.56 Y106.85 E2017.654 F1080
G1 Y107.41 F9000
G1 X120.04 Y163.93 E2021.642 F1080
G1 X120.75 Y163.79 F9000
G1 X176.56 Y107.98 E2025.579 F1080
G1 Y108.55 F9000
G1 X121.46 Y163.64 E2029.467 F1080
G1 X122.17 Y163.5 F9000
G1 X176.56 Y109.11 E2033.304 F1080
G1 Y109.68 F9000
G1 X122.88 Y163.36 E2037.091 F1080
G1 X123.59 Y163.21 F9000
G1 X176.56 Y110.24 E2040.829 F1080
G1 Y110.81 F9000
G1 X124.3 Y163.07 E2044.516 F1080
G1 X125.01 Y162.93 F9000
G1 X176.56 Y111.37 E2048.153 F1080
G1 Y111.94 F9000
G1 X125.72 Y162.78 E2051.74 F1080
G1 X126.43 Y162.64 F9000
G1 X176.56 Y112.51 E2055.277 F1080
G1 Y113.07 F9000
G1 X127.14 Y162.5 E2058.765 F1080
G1 X127.84 Y162.35 F9000
G1 X176.56 Y113.64 E2062.202 F1080
G1 Y114.2 F9000
G1 X128.55 Y162.21 E2065.589 F1080
G1 X129.26 Y162.06 F9000
G1 X176.56 Y114.77 E2068.926 F1080
G1 Y115.33 F9000
G1 X129.97 Y161.92 E2072.213 F1080
G1 X130.68 Y161.78 F9000
G1 X176.56 Y115.9 E2075.45 F1080
G1 Y116.47 F9000
G1 X131.39 Y161.63 E2078.637 F1080
G1 X132.1 Y161.49 F9000
G1 X176.56 Y117.03 E2081.773 F1080
G1 Y117.6 F9000
G1 X132.81 Y161.35 E2084.86 F1080
G1 X133.52 Y161.2 F9000
G1 X176.56 Y118.16 E2087.897 F1080
G1 Y118.73 F9000
G1 X134.23 Y161.06 E2090.884 F1080
G1 X134.94 Y160.92 F9000
G1 X176.56 Y119.29 E2093.82 F1080
G1 Y119.86 F9000
G1 X135.65 Y160.77 E2096.707 F1080
G1 X136.36 Y160.63 F9000
G1 X176.56 Y120.43 E2099.544 F1080
G1 Y120.99 F9000
G1 X137.06 Y160.49 E2102.33 F1080
G1 X137.77 Y160.34 F9000
G1 X176.56 Y121.56 E2105.067 F1080
G1 Y122.12 F9000
G1 X138.48 Y160.2 E2107.753 F1080
G1 X139.19 Y160.06 F9000
G1 X176.56 Y122.69 E2110.39 F1080
G1 Y123.25 F9000
G1 X139.9 Y159.91 E2112.976 F1080
G1 X140.61 Y159.77 F9000
G1 X176.56 Y123.82 E2115.512 F1080
G1 Y124.39 F9000
G1 X141.32 Y159.62 E2117.999 F1080
G1 X142.03 Y159.48 F9000
G1 X176.56 Y124.95 E2120.435 F1080
G1 Y125.52 F9000
G1 X142.74 Y159.34 E2122.821 F1080
G1 X143.45 Y159.19 F9000
G1 X176.56 Y126.08 E2125.157 F1080
G1 Y126.65 F9000
G1 X144.16 Y159.05 E2127.444 F1080
G1 X144.87 Y158.91 F9000
G1 X176.56 Y127.21 E2129.68 F1080
G1 Y127.78 F9000
G1 X145.58 Y158.76 E2131.866 F1080
G1 X146.28 Y158.62 F9000
G1 X176.56 Y128.35 E2134.002 F1080
G1 Y128.91 F9000
G1 X146.99 Y158.48 E2136.088 F1080
G1 X147.7 Y158.33 F9000
G1 X176.56 Y129.48 E2138.124 F1080
G1 Y130.04 F9000
G1 X148.41 Y158.19 E2140.11 F1080
G1 X149.12 Y158.05 F9000
G1 X176.56 Y130.61 E2142.045 F1080
G1 Y131.17 F9000
G1 X149.83 Y157.9 E2143.931 F1080
G1 X150.54 Y157.76 F9000
G1 X176.56 Y131.74 E2145.767 F1080
G1 Y132.31 F9000
G1 X151.25 Y157.62 E2147.553 F1080
G1 X151.96 Y157.47 F9000
G1 X176.56 Y132.87 E2149.289 F1080
G1 Y133.44 F9000
G1 X152.67 Y157.33 E2150.974 F1080
G1 X153.38 Y157.18 F9000
G1 X176.56 Y134 E2152.61 F1080
G1 Y134.57 F9000
G1 X154.09 Y157.04 E2154.195 F1080
G1 X154.79 Y156.9 F9000
G1 X176.56 Y135.13 E2155.731 F1080
G1 Y135.7 F9000
G1 X155.5 Y156.75 E2157.216 F1080
G1 X156.21 Y156.61 F9000
G1 X176.56 Y136.27 E2158.652 F1080
G1 Y136.83 F9000
G1 X156.92 Y156.47 E2160.037 F1080
G1 X157.63 Y156.32 F9000
G1 X176.56 Y137.4 E2161.373 F1080
G1 Y137.96 F9000
G1 X158.34 Y156.18 E2162.658 F1080
G1 X159.05 Y156.04 F9000
G1 X176.56 Y138.53 E2163.893 F1080
G1 Y139.09 F9000
G1 X159.76 Y155.89 E2165.079 F1080
G1 X160.47 Y155.75 F9000
G1 X176.56 Y139.66 E2166.214 F1080
G1 Y140.22 F9000
G1 X161.18 Y155.61 E2167.299 F1080
G1 X161.89 Y155.46 F9000
G1 X176.56 Y140.79 E2168.334 F1080
G1 Y141.36 F9000
G1 X162.6 Y155.32 E2169.319 F1080
G1 X163.31 Y155.18 F9000
G1 X176.56 Y141.92 E2170.255 F1080
G1 Y142.49 F9000
G1 X164.01 Y155.03 E2171.14 F1080
G1 X164.72 Y154.89 F9000
G1 X176.56 Y143.05 E2171.975 F1080
G1 Y143.62 F9000
G1 X165.43 Y154.74 E2172.76 F1080
G1 X166.14 Y154.6 F9000
G1 X176.56 Y144.18 E2173.494 F1080
G1 Y144.75 F9000
G1 X166.85 Y154.46 E2174.179 F1080
G1 X167.56 Y154.31 F9000
G1 X176.56 Y145.32 E2174.814 F1080
G1 Y145.88 F9000
G1 X168.27 Y154.17 E2175.399 F1080
G1 X168.98 Y154.03 F9000
G1 X176.56 Y146.45 E2175.934 F1080
G1 Y147.01 F9000
G1 X169.69 Y153.88 E2176.418 F1080
G1 X170.4 Y153.74 F9000
G1 X176.56 Y147.58 E2176.853 F1080
G1 Y148.14 F9000
G1 X171.11 Y153.6 E2177.238 F1080
G1 X171.82 Y153.45 F9000
G1 X176.56 Y148.71 E2177.572 F1080
G1 Y149.28 F9000
G1 X172.53 Y153.31 E2177.857 F1080
G1 X173.23 Y153.17 F9000
G1 X176.56 Y149.84 E2178.091 F1080
G1 Y150.41 F9000
G1 X173.94 Y153.02 E2178.276 F1080
G1 X174.65 Y152.88 F9000
G1 X176.56 Y150.97 E2178.41 F1080
G1 Y151.54 F9000
G1 X175.36 Y152.74 E2178.495 F1080
G1 X176.07 Y152.59 F9000
G1 X176.56 Y152.1 E2178.529 F1080
; Layer Change GCode
; LAYER:1
; LAYER_HEIGHT:0.3
; TYPE:FILL
G1 X176.9 Y152.77 Z0.6 F9000
; TYPE:WALL-INNER
G1 X172.16 Y153.73 E2178.77 F3600
G1 X167.43 Y154.69 E2179.011
G1 X162.69 Y155.65 E2179.253
G1 X157.95 Y156.61 E2179.494
G1 X153.22 Y157.56 E2179.735
G1 X148.48 Y158.52 E2179.976
G1 X143.74 Y159.48 E2180.217
G1 X139 Y160.44 E2180.458
G1 X134.27 Y161.4 E2180.699
G1 X129.53 Y162.36 E2180.94
G1 X124.79 Y163.32 E2181.182
G1 X120.06 Y164.28 E2181.423
G1 X115.32 Y165.23 E2181.664
G1 X110.58 Y166.19 E2181.905
G1 X105.85 Y167.15 E2182.146
G1 X101.11 Y168.11 E2182.387
G1 X96.37 Y169.07 E2182.628
G1 X91.64 Y170.03 E2182.869
G1 X87.58 Y168.07 E2183.094
G1 X83.53 Y166.12 E2183.318
G1 X79.47 Y164.16 E2183.543
G1 X75.42 Y162.21 E2183.767
G1 X71.37 Y160.25 E2183.992
G1 X67.31 Y158.29 E2184.217
G1 X63.26 Y156.34 E2184.441
G1 X59.21 Y154.38 E2184.666
G1 X55.15 Y152.43 E2184.89
G1 X51.1 Y150.47 E2185.115
G1 Y145.78 E2185.349
G1 Y141.08 E2185.583
G1 Y136.39 E2185.817
G1 Y131.69 E2186.051
G1 Y127 E2186.286
G1 Y122.31 E2186.52
G1 Y117.61 E2186.754
G1 Y112.92 E2186.988
G1 Y108.22 E2187.223
G1 Y103.53 E2187.457
G1 X55.15 Y101.57 E2187.681
G1 X59.21 Y99.62 E2187.906
G1 X63.26 Y97.66 E2188.13
G1 X67.31 Y95.71 E2188.355
G1 X71.37 Y93.75 E2188.579
G1 X75.42 Y91.79 E2188.804
G1 X79.47 Y89.84 E2189.028
G1 X83.53 Y87.88 E2189.253
G1 X87.58 Y85.93 E2189.478
G1 X91.64 Y83.97 E2189.702
G1 X96.37 Y84.93 E2189.943
G1 X101.11 Y85.89 E2190.184
G1 X105.85 Y86.85 E2190.425
G1 X110.58 Y87.81 E2190.667
G1 X115.32 Y88.77 E2190.908
G1 X120.06 Y89.72 E2191.149
G1 X124.79 Y90.68 E2191.39
G1 X129.53 Y91.64 E2191.631
G1 X134.27 Y92.6 E2191.872
G1 X139 Y93.56 E2192.113
G1 X143.74 Y94.52 E2192.354
G1 X148.48 Y95.48 E2192.596
G1 X153.22 Y96.43 E2192.837
G1 X157.95 Y97.39 E2193.078
G1 X162.69 Y98.35 E2193.319
G1 X167.43 Y99.31 E2193.56
G1 X172.16 Y100.27 E2193.801
G1 X176.9 Y101.23 E2194.042
G1 Y105.91 E2194.276
G1 Y110.59 E2194.509
G1 Y115.27 E2194.743
G1 Y119.96 E2194.977
G1 Y124.64 E2195.21
G1 Y129.32 E2195.444
G1 Y134 E2195.677
G1 Y138.69 E2195.911
G1 Y143.37 E2196.145
G1 Y148.05 E2196.378
G1 Y152.73 E2196.612
G1 Y152.77
G1 X177.3 Y153.1 F9000
; TYPE:WALL-OUTER
G1 X172.54 Y154.06 E2196.854 F3000
G1 X167.78 Y155.03 E2197.097
G1 X163.01 Y155.99 E2197.339
G1 X158.25 Y156.95 E2197.581
G1 X153.49 Y157.92 E2197.824
G1 X148.73 Y158.88 E2198.066
G1 X143.97 Y159.84 E2198.309
G1 X139.2 Y160.81 E2198.551
G1 X134.44 Y161.77 E2198.793
G1 X129.68 Y162.74 E2199.036
G1 X124.92 Y163.7 E2199.278
G1 X120.15 Y164.66 E2199.521
G1 X115.39 Y165.63 E2199.763
G1 X110.63 Y166.59 E2200.005
G1 X105.87 Y167.55 E2200.248
G1 X101.11 Y168.52 E2200.49
G1 X96.34 Y169.48 E2200.733
G1 X91.58 Y170.45 E2200.975
G1 X87.49 Y168.47 E2201.201
G1 X83.41 Y166.5 E2201.428
G1 X79.32 Y164.53 E2201.654
G1 X75.23 Y162.56 E2201.881
G1 X71.14 Y160.58 E2202.107
G1 X67.05 Y158.61 E2202.334
G1 X62.96 Y156.64 E2202.56
G1 X58.88 Y154.67 E2202.787
G1 X54.79 Y152.7 E2203.013
G1 X50.7 Y150.72 E2203.24
G1 Y145.98 E2203.476
G1 Y141.23 E2203.713
G1 Y136.49 E2203.95
G1 Y131.74 E2204.186
G1 Y127 E2204.423
G1 Y122.25 E2204.66
G1 Y117.51 E2204.897
G1 Y112.77 E2205.133
G1 Y108.02 E2205.37
G1 Y103.28 E2205.607
G1 X54.79 Y101.3 E2205.833
G1 X58.88 Y99.33 E2206.06
G1 X62.96 Y97.36 E2206.286
G1 X67.05 Y95.39 E2206.512
G1 X71.14 Y93.41 E2206.739
G1 X75.23 Y91.44 E2206.965
G1 X79.32 Y89.47 E2207.192
G1 X83.41 Y87.5 E2207.418
G1 X87.49 Y85.53 E2207.645
G1 X91.58 Y83.55 E2207.871
G1 X96.34 Y84.52 E2208.114
G1 X101.11 Y85.48 E2208.356
G1 X105.87 Y86.44 E2208.598
G1 X110.63 Y87.41 E2208.841
G1 X115.39 Y88.37 E2209.083
G1 X120.15 Y89.34 E2209.326
G1 X124.92 Y90.3 E2209.568
G1 X129.68 Y91.26 E2209.81
G1 X134.44 Y92.23 E2210.053
G1 X139.2 Y93.19 E2210.295
G1 X143.97 Y94.15 E2210.538
G1 X148.73 Y95.12 E2210.78
G1 X153.49 Y96.08 E2211.022
G1 X158.25 Y97.05 E2211.265
G1 X163.01 Y98.01 E2211.507
G1 X167.78 Y98.97 E2211.75
G1 X172.54 Y99.94 E2211.992
G1 X177.3 Y100.9 E2212.234
G1 Y105.64 E2212.471
G1 Y110.38 E2212.708
G1 Y115.13 E2212.944
G1 Y119.87 E2213.181
G1 Y124.61 E2213.417
G1 Y129.35 E2213.654
G1 Y134.09 E2213.89
G1 Y138.83 E2214.127
G1 Y143.58 E2214.363
G1 Y148.32 E2214.6
G1 Y153.06 E2214.837
G1 Y153.1
G1 X174.36 Y153.69
G1 X176.9 Y152.77 F9000
G1 E2211.837 F1800
G1 Z1.1
G1 X176.84 Y144.29 F9000
G1 X176.79 Y135.81
G1 X176.73 Y127.33
G1 X176.67 Y118.85
G1 X176.62 Y110.37
G1 X176.56 Y101.89
; TYPE:FILL
G1 Z0.6
G1 E2214.837 F1800
G1 X176.08 Y101.41 E2214.871 F3600
G1 X175.37 Y101.27 F9000
G1 X176.56 Y102.45 E2214.954 F3600
G1 Y103.02 F9000
G1 X174.66 Y101.12 E2215.088 F3600
G1 X173.95 Y100.98 F9000
G1 X176.56 Y103.59 E2215.272 F3600
G1 Y104.15 F9000
G1 X173.24 Y100.83 E2215.506 F3600
G1 X172.53 Y100.69 F9000
G1 X176.56 Y104.72 E2215.79 F3600
G1 Y105.28 F9000
G1 X174.19 Y102.92 E2215.958 F3600
G1 X171.82 Y100.55 E2216.125
G1 X171.11 Y100.4 F9000
G1 X173.84 Y103.13 E2216.317 F3600
G1 X176.56 Y105.85 E2216.509
G1 X176.56 Y106.41 F9000
G1 X173.48 Y103.34 E2216.726 F3600
G1 X170.41 Y100.26 E2216.943
G1 X169.7 Y100.12 F9000
G1 X173.13 Y103.55 E2217.185 F3600
G1 X176.56 Y106.98 E2217.427
G1 X176.56 Y107.55 F9000
G1 X174.04 Y105.02 E2217.605 F3600
G1 X171.51 Y102.5 E2217.783
G1 X168.99 Y99.97 E2217.961
G1 X168.28 Y99.83 F9000
G1 X171.04 Y102.59 E2218.156 F3600
G1 X173.8 Y105.35 E2218.351
G1 X176.56 Y108.11 E2218.546
G1 X176.56 Y108.68 F9000
G1 X173.56 Y105.68 E2218.757 F3600
G1 X170.57 Y102.68 E2218.969
G1 X167.57 Y99.69 E2219.18
G1 X166.86 Y99.54 F9000
G1 X170.09 Y102.78 E2219.408 F3600
G1 X173.33 Y106.01 E2219.636
G1 X176.56 Y109.24 E2219.864
G1 X176.56 Y109.81 F9000
G1 X173.09 Y106.34 E2220.109 F3600
G1 X169.62 Y102.87 E2220.354
G1 X166.15 Y99.4 E2220.599
G1 X165.44 Y99.26 F9000
G1 X168.22 Y102.03 E2220.795 F3600
G1 X171 Y104.81 E2220.991
G1 X173.78 Y107.59 E2221.187
G1 X176.56 Y110.37 E2221.383
G1 X176.56 Y110.94 F9000
G1 X173.6 Y107.98 E2221.592 F3600
G1 X170.65 Y105.03 E2221.801
G1 X167.69 Y102.07 E2222.009
G1 X164.73 Y99.11 E2222.218
G1 X164.02 Y98.97 F9000
G1 X167.16 Y102.1 E2222.439 F3600
G1 X170.29 Y105.24 E2222.66
G1 X173.42 Y108.37 E2222.881
G1 X176.56 Y111.51 E2223.102
G1 X176.56 Y112.07 F9000
G1 X173.25 Y108.76 E2223.336 F3600
G1 X169.94 Y105.45 E2223.57
G1 X166.62 Y102.14 E2223.803
G1 X163.31 Y98.83 E2224.037
G1 X162.6 Y98.68 F9000
G1 X166.09 Y102.17 E2224.283 F3600
G1 X169.58 Y105.66 E2224.529
G1 X173.07 Y109.15 E2224.775
G1 X176.56 Y112.64 E2225.022
G1 X176.56 Y113.2 F9000
G1 X173.63 Y110.27 E2225.229 F3600
G1 X170.69 Y107.34 E2225.435
G1 X167.76 Y104.4 E2225.642
G1 X164.83 Y101.47 E2225.849
G1 X161.89 Y98.54 E2226.056
G1 X161.19 Y98.39 F9000
G1 X164.26 Y101.47 E2226.273 F3600
G1 X167.33 Y104.54 E2226.49
G1 X170.41 Y107.62 E2226.707
G1 X173.48 Y110.69 E2226.924
G1 X176.56 Y113.77 E2227.141
G1 X176.56 Y114.33 F9000
G1 X173.34 Y111.12 E2227.368 F3600
G1 X170.13 Y107.9 E2227.595
G1 X166.91 Y104.68 E2227.822
G1 X163.69 Y101.47 E2228.049
G1 X160.48 Y98.25 E2228.276
G1 X159.77 Y98.11 F9000
G1 X163.13 Y101.47 E2228.513 F3600
G1 X166.48 Y104.82 E2228.75
G1 X169.84 Y108.18 E2228.987
G1 X173.2 Y111.54 E2229.224
G1 X176.56 Y114.9 E2229.461
G1 X176.56 Y115.47 F9000
G1 X173.06 Y111.96 E2229.707 F3600
G1 X169.56 Y108.46 E2229.954
G1 X166.06 Y104.96 E2230.201
G1 X162.56 Y101.46 E2230.448
G1 X159.06 Y97.96 E2230.695
G1 X158.35 Y97.82 F9000
G1 X161.38 Y100.86 E2230.909 F3600
G1 X164.42 Y103.89 E2231.124
G1 X167.45 Y106.93 E2231.338
G1 X170.49 Y109.96 E2231.552
G1 X173.52 Y113 E2231.766
G1 X176.56 Y116.03 E2231.98
G1 X176.56 Y116.6 F9000
G1 X173.41 Y113.44 E2232.203 F3600
G1 X170.25 Y110.29 E2232.425
G1 X167.1 Y107.14 E2232.648
G1 X163.95 Y103.98 E2232.87
G1 X160.79 Y100.83 E2233.093
G1 X157.64 Y97.68 E2233.315
G1 X156.93 Y97.53 F9000
G1 X160.2 Y100.8 E2233.546 F3600
G1 X163.47 Y104.08 E2233.777
G1 X166.74 Y107.35 E2234.008
G1 X170.02 Y110.62 E2234.238
G1 X173.29 Y113.89 E2234.469
G1 X176.56 Y117.16 E2234.7
G1 X176.56 Y117.73 F9000
G1 X173.17 Y114.34 E2234.939 F3600
G1 X169.78 Y110.95 E2235.178
G1 X166.39 Y107.56 E2235.418
G1 X163 Y104.17 E2235.657
G1 X159.61 Y100.78 E2235.896
G1 X156.22 Y97.39 E2236.135
G1 X155.51 Y97.25 F9000
G1 X159.02 Y100.75 E2236.383 F3600
G1 X162.53 Y104.26 E2236.63
G1 X166.04 Y107.77 E2236.878
G1 X169.54 Y111.28 E2237.125
G1 X173.05 Y114.79 E2237.373
G1 X176.56 Y118.29 E2237.62
G1 X176.56 Y118.86 F9000
G1 X173.45 Y115.75 E2237.839 F3600
G1 X170.34 Y112.64 E2238.059
G1 X167.23 Y109.53 E2238.278
G1 X164.13 Y106.43 E2238.497
G1 X161.02 Y103.32 E2238.717
G1 X157.91 Y100.21 E2238.936
G1 X154.8 Y97.1 E2239.155
G1 X154.09 Y96.96 F9000
G1 X157.3 Y100.17 E2239.382 F3600
G1 X160.51 Y103.38 E2239.608
G1 X163.72 Y106.59 E2239.835
G1 X166.93 Y109.8 E2240.061
G1 X170.14 Y113.01 E2240.287
G1 X173.35 Y116.22 E2240.514
G1 X176.56 Y119.43 E2240.74
G1 X176.56 Y119.99 F9000
G1 X173.25 Y116.68 E2240.974 F3600
G1 X169.94 Y113.37 E2241.207
G1 X166.63 Y110.06 E2241.441
G1 X163.32 Y106.75 E2241.675
G1 X160.01 Y103.44 E2241.908
G1 X156.69 Y100.13 E2242.142
G1 X153.38 Y96.82 E2242.375
G1 X152.67 Y96.67 F9000
G1 X156.09 Y100.08 E2242.616 F3600
G1 X159.5 Y103.5 E2242.857
G1 X162.91 Y106.91 E2243.098
G1 X166.32 Y110.32 E2243.338
G1 X169.73 Y113.73 E2243.579
G1 X173.15 Y117.14 E2243.82
G1 X176.56 Y120.56 E2244.061
G1 X176.56 Y121.12 F9000
G1 X173.05 Y117.61 E2244.309 F3600
G1 X169.53 Y114.1 E2244.556
G1 X166.02 Y110.58 E2244.804
G1 X162.51 Y107.07 E2245.052
G1 X158.99 Y103.55 E2245.3
G1 X155.48 Y100.04 E2245.548
G1 X151.97 Y96.53 E2245.796
G1 X151.26 Y96.39 F9000
G1 X154.42 Y99.55 E2246.019 F3600
G1 X157.58 Y102.71 E2246.242
G1 X160.74 Y105.87 E2246.465
G1 X163.91 Y109.04 E2246.688
G1 X167.07 Y112.2 E2246.912
G1 X170.23 Y115.36 E2247.135
G1 X173.4 Y118.53 E2247.358
G1 X176.56 Y121.69 E2247.581
G1 X176.56 Y122.25 F9000
G1 X173.31 Y119 E2247.811 F3600
G1 X170.06 Y115.75 E2248.04
G1 X166.8 Y112.5 E2248.269
G1 X163.55 Y109.25 E2248.499
G1 X160.3 Y106 E2248.728
G1 X157.05 Y102.74 E2248.958
G1 X153.8 Y99.49 E2249.187
G1 X150.55 Y96.24 E2249.416
G1 X149.84 Y96.1 F9000
G1 X153.18 Y99.44 E2249.652 F3600
G1 X156.52 Y102.78 E2249.888
G1 X159.86 Y106.12 E2250.123
G1 X163.2 Y109.46 E2250.359
G1 X166.54 Y112.8 E2250.595
G1 X169.88 Y116.14 E2250.83
G1 X173.22 Y119.48 E2251.066
G1 X176.56 Y122.82 E2251.302
G1 X176.56 Y123.39 F9000
G1 X173.13 Y119.96 E2251.544 F3600
G1 X169.7 Y116.53 E2251.786
G1 X166.27 Y113.1 E2252.028
G1 X162.84 Y109.67 E2252.269
G1 X159.41 Y106.24 E2252.511
G1 X155.99 Y102.81 E2252.753
G1 X152.56 Y99.38 E2252.995
G1 X149.13 Y95.95 E2253.237
G1 X148.42 Y95.81 F9000
G1 X151.94 Y99.33 E2253.485 F3600
G1 X155.45 Y102.85 E2253.734
G1 X158.97 Y106.36 E2253.982
G1 X162.49 Y109.88 E2254.23
G1 X166.01 Y113.4 E2254.478
G1 X169.52 Y116.92 E2254.726
G1 X173.04 Y120.43 E2254.974
G1 X176.56 Y123.95 E2255.223
G1 X176.56 Y124.52 F9000
G1 X173.35 Y121.31 E2255.449 F3600
G1 X170.15 Y118.11 E2255.675
G1 X166.94 Y114.9 E2255.901
G1 X163.74 Y111.69 E2256.127
G1 X160.53 Y108.49 E2256.353
G1 X157.33 Y105.28 E2256.58
G1 X154.12 Y102.08 E2256.806
G1 X150.92 Y98.87 E2257.032
G1 X147.71 Y95.67 E2257.258
G1 X147 Y95.52 F9000
G1 X150.29 Y98.81 E2257.49 F3600
G1 X153.57 Y102.09 E2257.721
G1 X156.85 Y105.38 E2257.953
G1 X160.14 Y108.66 E2258.185
G1 X163.42 Y111.94 E2258.417
G1 X166.71 Y115.23 E2258.648
G1 X169.99 Y118.51 E2258.88
G1 X173.27 Y121.8 E2259.112
G1 X176.56 Y125.08 E2259.344
G1 X176.56 Y125.65 F9000
G1 X173.2 Y122.28 E2259.581 F3600
G1 X169.83 Y118.92 E2259.818
G1 X166.47 Y115.56 E2260.055
G1 X163.11 Y112.2 E2260.293
G1 X159.74 Y108.83 E2260.53
G1 X156.38 Y105.47 E2260.767
G1 X153.02 Y102.11 E2261.005
G1 X149.65 Y98.74 E2261.242
G1 X146.29 Y95.38 E2261.479
G1 X145.58 Y95.24 F9000
G1 X149.02 Y98.68 E2261.722 F3600
G1 X152.47 Y102.12 E2261.965
G1 X155.91 Y105.56 E2262.208
G1 X159.35 Y109 E2262.45
G1 X162.79 Y112.45 E2262.693
G1 X166.23 Y115.89 E2262.936
G1 X169.68 Y119.33 E2263.179
G1 X173.12 Y122.77 E2263.422
G1 X176.56 Y126.21 E2263.665
G1 X176.56 Y126.78 F9000
G1 X173.04 Y123.26 E2263.913 F3600
G1 X169.52 Y119.74 E2264.161
G1 X166 Y116.22 E2264.41
G1 X162.48 Y112.7 E2264.658
G1 X158.96 Y109.18 E2264.907
G1 X155.44 Y105.66 E2265.155
G1 X151.91 Y102.13 E2265.403
G1 X148.39 Y98.61 E2265.652
G1 X144.87 Y95.09 E2265.9
G1 X144.16 Y94.95 F9000
G1 X147.4 Y98.19 E2266.129 F3600
G1 X150.64 Y101.43 E2266.357
G1 X153.88 Y104.67 E2266.586
G1 X157.12 Y107.91 E2266.815
G1 X160.36 Y111.15 E2267.043
G1 X163.6 Y114.39 E2267.272
G1 X166.84 Y117.63 E2267.5
G1 X170.08 Y120.87 E2267.729
G1 X173.32 Y124.1 E2267.957
G1 X176.56 Y127.34 E2268.186
G1 X176.56 Y127.91 F9000
G1 X173.25 Y124.6 E2268.419 F3600
G1 X169.94 Y121.29 E2268.653
G1 X166.63 Y117.98 E2268.887
G1 X163.32 Y114.67 E2269.12
G1 X160.01 Y111.36 E2269.354
G1 X156.7 Y108.05 E2269.587
G1 X153.39 Y104.74 E2269.821
G1 X150.07 Y101.43 E2270.054
G1 X146.76 Y98.12 E2270.288
G1 X143.45 Y94.81 E2270.522
G1 X142.75 Y94.66 F9000
G1 X146.13 Y98.04 E2270.76 F3600
G1 X149.51 Y101.42 E2270.999
G1 X152.89 Y104.81 E2271.237
G1 X156.27 Y108.19 E2271.476
G1 X159.65 Y111.57 E2271.714
G1 X163.03 Y114.95 E2271.953
G1 X166.41 Y118.33 E2272.192
G1 X169.8 Y121.71 E2272.43
G1 X173.18 Y125.09 E2272.669
G1 X176.56 Y128.48 E2272.907
G1 X176.56 Y129.04 F9000
G1 X173.11 Y125.59 E2273.151 F3600
G1 X169.65 Y122.14 E2273.394
G1 X166.2 Y118.68 E2273.638
G1 X162.75 Y115.23 E2273.882
G1 X159.3 Y111.78 E2274.125
G1 X155.85 Y108.33 E2274.369
G1 X152.39 Y104.88 E2274.612
G1 X148.94 Y101.42 E2274.856
G1 X145.49 Y97.97 E2275.099
G1 X142.04 Y94.52 E2275.343
G1 X141.33 Y94.38 F9000
G1 X144.85 Y97.9 E2275.591 F3600
G1 X148.37 Y101.42 E2275.84
G1 X151.9 Y104.95 E2276.089
G1 X155.42 Y108.47 E2276.337
G1 X158.94 Y111.99 E2276.586
G1 X162.47 Y115.51 E2276.834
G1 X165.99 Y119.04 E2277.083
G1 X169.51 Y122.56 E2277.331
G1 X173.04 Y126.08 E2277.58
G1 X176.56 Y129.61 E2277.829
G1 X176.56 Y130.17 F9000
G1 X173.29 Y126.9 E2278.059 F3600
G1 X170.02 Y123.64 E2278.29
G1 X166.76 Y120.37 E2278.52
G1 X163.49 Y117.1 E2278.751
G1 X160.22 Y113.84 E2278.981
G1 X156.95 Y110.57 E2279.212
G1 X153.69 Y107.3 E2279.442
G1 X150.42 Y104.03 E2279.673
G1 X147.15 Y100.77 E2279.903
G1 X143.89 Y97.5 E2280.134
G1 X140.62 Y94.23 E2280.364
G1 X139.91 Y94.09 F9000
G1 X143.24 Y97.42 E2280.599 F3600
G1 X146.57 Y100.75 E2280.835
G1 X149.9 Y104.08 E2281.07
G1 X153.24 Y107.42 E2281.305
G1 X156.57 Y110.75 E2281.54
G1 X159.9 Y114.08 E2281.775
G1 X163.23 Y117.41 E2282.01
G1 X166.56 Y120.74 E2282.245
G1 X169.89 Y124.07 E2282.48
G1 X173.23 Y127.41 E2282.715
G1 X176.56 Y130.74 E2282.95
G1 X176.56 Y131.3 F9000
G1 X173.16 Y127.91 E2283.19 F3600
G1 X169.77 Y124.51 E2283.429
G1 X166.37 Y121.12 E2283.669
G1 X162.97 Y117.72 E2283.909
G1 X159.58 Y114.32 E2284.148
G1 X156.18 Y110.93 E2284.388
G1 X152.78 Y107.53 E2284.628
G1 X149.39 Y104.13 E2284.867
G1 X145.99 Y100.74 E2285.107
G1 X142.6 Y97.34 E2285.346
G1 X139.2 Y93.95 E2285.586
G1 X138.49 Y93.8 F9000
G1 X141.95 Y97.26 E2285.83 F3600
G1 X145.41 Y100.72 E2286.074
G1 X148.87 Y104.18 E2286.319
G1 X152.33 Y107.64 E2286.563
G1 X155.79 Y111.1 E2286.807
G1 X159.25 Y114.57 E2287.051
G1 X162.72 Y118.03 E2287.295
G1 X166.18 Y121.49 E2287.539
G1 X169.64 Y124.95 E2287.784
G1 X173.1 Y128.41 E2288.028
G1 X176.56 Y131.87 E2288.272
G1 X176.56 Y132.44 F9000
G1 X173.03 Y128.91 E2288.521 F3600
G1 X169.51 Y125.38 E2288.769
G1 X165.98 Y121.86 E2289.018
G1 X162.46 Y118.33 E2289.267
G1 X158.93 Y114.81 E2289.515
G1 X155.41 Y111.28 E2289.764
G1 X151.88 Y107.76 E2290.013
G1 X148.36 Y104.23 E2290.262
G1 X144.83 Y100.71 E2290.51
G1 X141.31 Y97.18 E2290.759
G1 X137.78 Y93.66 E2291.008
G1 X137.07 Y93.51 F9000
G1 X140.36 Y96.8 E2291.24 F3600
G1 X143.65 Y100.1 E2291.472
G1 X146.94 Y103.39 E2291.704
G1 X150.23 Y106.68 E2291.936
G1 X153.52 Y109.97 E2292.169
G1 X156.82 Y113.26 E2292.401
G1 X160.11 Y116.55 E2292.633
G1 X163.4 Y119.84 E2292.865
G1 X166.69 Y123.13 E2293.097
G1 X169.98 Y126.42 E2293.329
G1 X173.27 Y129.71 E2293.562
G1 X176.56 Y133 E2293.794
G1 X176.56 Y133.57 F9000
G1 X173.21 Y130.22 E2294.03 F3600
G1 X169.86 Y126.87 E2294.266
G1 X166.51 Y123.52 E2294.503
G1 X163.16 Y120.17 E2294.739
G1 X159.81 Y116.82 E2294.975
G1 X156.46 Y113.47 E2295.212
G1 X153.11 Y110.12 E2295.448
G1 X149.76 Y106.77 E2295.684
G1 X146.41 Y103.42 E2295.921
G1 X143.06 Y100.07 E2296.157
G1 X139.71 Y96.72 E2296.393
G1 X136.36 Y93.37 E2296.63
G1 X135.65 Y93.23 F9000
G1 X139.06 Y96.64 E2296.87 F3600
G1 X142.47 Y100.04 E2297.111
G1 X145.88 Y103.45 E2297.351
G1 X149.29 Y106.86 E2297.592
G1 X152.7 Y110.27 E2297.832
G1 X156.11 Y113.68 E2298.073
G1 X159.51 Y117.09 E2298.313
G1 X162.92 Y120.5 E2298.554
G1 X166.33 Y123.91 E2298.794
G1 X169.74 Y127.31 E2299.035
G1 X173.15 Y130.72 E2299.275
G1 X176.56 Y134.13 E2299.516
G1 X176.56 Y134.7 F9000
G1 X173.09 Y131.23 E2299.76 F3600
G1 X169.62 Y127.76 E2300.005
G1 X166.15 Y124.29 E2300.25
G1 X162.69 Y120.83 E2300.494
G1 X159.22 Y117.36 E2300.739
G1 X155.75 Y113.89 E2300.984
G1 X152.28 Y110.42 E2301.229
G1 X148.82 Y106.96 E2301.473
G1 X145.35 Y103.49 E2301.718
G1 X141.88 Y100.02 E2301.963
G1 X138.41 Y96.55 E2302.207
G1 X134.94 Y93.08 E2302.452
G1 X134.24 Y92.94 F9000
G1 X137.76 Y96.47 E2302.701 F3600
G1 X141.29 Y99.99 E2302.95
G1 X144.82 Y103.52 E2303.198
G1 X148.34 Y107.05 E2303.447
G1 X151.87 Y110.57 E2303.696
G1 X155.4 Y114.1 E2303.945
G1 X158.92 Y117.63 E2304.194
G1 X162.45 Y121.16 E2304.443
G1 X165.98 Y124.68 E2304.691
G1 X169.5 Y128.21 E2304.94
G1 X173.03 Y131.74 E2305.189
G1 X176.56 Y135.26 E2305.438
G1 X176.56 Y135.83 F9000
G1 X173.25 Y132.52 E2305.672 F3600
G1 X169.94 Y129.21 E2305.905
G1 X166.63 Y125.9 E2306.139
G1 X163.32 Y122.59 E2306.372
G1 X160.01 Y119.28 E2306.606
G1 X156.7 Y115.97 E2306.839
G1 X153.39 Y112.66 E2307.073
G1 X150.08 Y109.35 E2307.306
G1 X146.77 Y106.04 E2307.54
G1 X143.46 Y102.73 E2307.773
G1 X140.15 Y99.42 E2308.007
G1 X136.84 Y96.11 E2308.241
G1 X133.53 Y92.8 E2308.474
G1 X132.82 Y92.65 F9000
G1 X136.18 Y96.02 E2308.712 F3600
G1 X139.55 Y99.38 E2308.949
G1 X142.91 Y102.75 E2309.186
G1 X146.28 Y106.11 E2309.424
G1 X149.64 Y109.48 E2309.661
G1 X153.01 Y112.84 E2309.899
G1 X156.37 Y116.21 E2310.136
G1 X159.73 Y119.57 E2310.373
G1 X163.1 Y122.94 E2310.611
G1 X166.46 Y126.3 E2310.848
G1 X169.83 Y129.67 E2311.086
G1 X173.19 Y133.03 E2311.323
G1 X176.56 Y136.4 E2311.56
G1 X176.56 Y136.96 F9000
G1 X173.14 Y133.54 E2311.802 F3600
G1 X169.72 Y130.12 E2312.043
G1 X166.3 Y126.7 E2312.284
G1 X162.88 Y123.28 E2312.525
G1 X159.46 Y119.86 E2312.767
G1 X156.04 Y116.44 E2313.008
G1 X152.62 Y113.03 E2313.249
G1 X149.2 Y109.61 E2313.49
G1 X145.78 Y106.19 E2313.732
G1 X142.37 Y102.77 E2313.973
G1 X138.95 Y99.35 E2314.214
G1 X135.53 Y95.93 E2314.455
G1 X132.11 Y92.51 E2314.697
G1 X131.4 Y92.37 F9000
G1 X134.87 Y95.84 E2314.942 F3600
G1 X138.35 Y99.31 E2315.187
G1 X141.82 Y102.79 E2315.432
G1 X145.29 Y106.26 E2315.677
G1 X148.77 Y109.74 E2315.922
G1 X152.24 Y113.21 E2316.167
G1 X155.71 Y116.68 E2316.412
G1 X159.19 Y120.16 E2316.657
G1 X162.66 Y123.63 E2316.902
G1 X166.14 Y127.1 E2317.148
G1 X169.61 Y130.58 E2317.393
G1 X173.08 Y134.05 E2317.638
G1 X176.56 Y137.53 E2317.883
G1 X176.56 Y138.09 F9000
G1 X173.03 Y134.56 E2318.132 F3600
G1 X169.5 Y131.04 E2318.381
G1 X165.97 Y127.51 E2318.63
G1 X162.44 Y123.98 E2318.879
G1 X158.92 Y120.45 E2319.128
G1 X155.39 Y116.92 E2319.377
G1 X151.86 Y113.39 E2319.625
G1 X148.33 Y109.86 E2319.874
G1 X144.8 Y106.34 E2320.123
G1 X141.27 Y102.81 E2320.372
G1 X137.75 Y99.28 E2320.621
G1 X134.22 Y95.75 E2320.87
G1 X130.69 Y92.22 E2321.119
G1 X129.98 Y92.08 F9000
G1 X133.31 Y95.41 E2321.354 F3600
G1 X136.63 Y98.73 E2321.589
G1 X139.96 Y102.06 E2321.823
G1 X143.29 Y105.39 E2322.058
G1 X146.62 Y108.71 E2322.293
G1 X149.94 Y112.04 E2322.528
G1 X153.27 Y115.37 E2322.762
G1 X156.6 Y118.7 E2322.997
G1 X159.92 Y122.02 E2323.232
G1 X163.25 Y125.35 E2323.467
G1 X166.58 Y128.68 E2323.701
G1 X169.9 Y132 E2323.936
G1 X173.23 Y135.33 E2324.171
G1 X176.56 Y138.66 E2324.405
G1 X176.56 Y139.22 F9000
G1 X173.18 Y135.85 E2324.644 F3600
G1 X169.8 Y132.47 E2324.882
G1 X166.43 Y129.09 E2325.12
G1 X163.05 Y125.71 E2325.359
G1 X159.67 Y122.33 E2325.597
G1 X156.29 Y118.96 E2325.835
G1 X152.91 Y115.58 E2326.074
G1 X149.54 Y112.2 E2326.312
G1 X146.16 Y108.82 E2326.55
G1 X142.78 Y105.45 E2326.789
G1 X139.4 Y102.07 E2327.027
G1 X136.03 Y98.69 E2327.265
G1 X132.65 Y95.31 E2327.504
G1 X129.27 Y91.93 E2327.742
G1 X128.56 Y91.79 F9000
G1 X131.99 Y95.22 E2327.984 F3600
G1 X135.42 Y98.65 E2328.226
G1 X138.85 Y102.08 E2328.468
G1 X142.27 Y105.51 E2328.709
G1 X145.7 Y108.93 E2328.951
G1 X149.13 Y112.36 E2329.193
G1 X152.56 Y115.79 E2329.435
G1 X155.99 Y119.22 E2329.677
G1 X159.42 Y122.65 E2329.919
G1 X162.84 Y126.08 E2330.161
G1 X166.27 Y129.5 E2330.403
G1 X169.7 Y132.93 E2330.645
G1 X173.13 Y136.36 E2330.886
G1 X176.56 Y139.79 E2331.128
G1 X176.56 Y140.36 F9000
G1 X173.08 Y136.88 E2331.374 F3600
G1 X169.6 Y133.4 E2331.619
G1 X166.12 Y129.92 E2331.865
G1 X162.64 Y126.44 E2332.11
G1 X159.16 Y122.96 E2332.356
G1 X155.68 Y119.48 E2332.601
G1 X152.21 Y116 E2332.847
G1 X148.73 Y112.52 E2333.092
G1 X145.25 Y109.04 E2333.337
G1 X141.77 Y105.56 E2333.583
G1 X138.29 Y102.09 E2333.828
G1 X134.81 Y98.61 E2334.074
G1 X131.33 Y95.13 E2334.319
G1 X127.85 Y91.65 E2334.565
G1 X127.14 Y91.51 F9000
G1 X130.67 Y95.03 E2334.814 F3600
G1 X134.2 Y98.56 E2335.063
G1 X137.73 Y102.09 E2335.312
G1 X141.26 Y105.62 E2335.561
G1 X144.79 Y109.15 E2335.81
G1 X148.32 Y112.68 E2336.059
G1 X151.85 Y116.21 E2336.308
G1 X155.38 Y119.74 E2336.557
G1 X158.91 Y123.27 E2336.806
G1 X162.44 Y126.8 E2337.055
G1 X165.97 Y130.33 E2337.304
G1 X169.5 Y133.86 E2337.553
G1 X173.03 Y137.39 E2337.802
G1 X176.56 Y140.92 E2338.051
G1 X176.56 Y141.49 F9000
G1 X173.22 Y138.14 E2338.287 F3600
G1 X169.87 Y134.8 E2338.523
G1 X166.53 Y131.46 E2338.759
G1 X163.19 Y128.12 E2338.994
G1 X159.85 Y124.78 E2339.23
G1 X156.51 Y121.44 E2339.466
G1 X153.17 Y118.09 E2339.702
G1 X149.83 Y114.75 E2339.937
G1 X146.48 Y111.41 E2340.173
G1 X143.14 Y108.07 E2340.409
G1 X139.8 Y104.73 E2340.645
G1 X136.46 Y101.39 E2340.881
G1 X133.12 Y98.04 E2341.116
G1 X129.78 Y94.7 E2341.352
G1 X126.43 Y91.36 E2341.588
G1 X125.72 Y91.22 F9000
G1 X129.11 Y94.61 E2341.827 F3600
G1 X132.5 Y98 E2342.066
G1 X135.89 Y101.38 E2342.305
G1 X139.28 Y104.77 E2342.544
G1 X142.67 Y108.16 E2342.783
G1 X146.06 Y111.55 E2343.023
G1 X149.45 Y114.94 E2343.262
G1 X152.84 Y118.33 E2343.501
G1 X156.22 Y121.72 E2343.74
G1 X159.61 Y125.11 E2343.979
G1 X163 Y128.5 E2344.218
G1 X166.39 Y131.89 E2344.457
G1 X169.78 Y135.27 E2344.696
G1 X173.17 Y138.66 E2344.935
G1 X176.56 Y142.05 E2345.174
G1 X176.56 Y142.62 F9000
G1 X173.12 Y139.18 E2345.417 F3600
G1 X169.69 Y135.74 E2345.659
G1 X166.25 Y132.31 E2345.902
G1 X162.81 Y128.87 E2346.144
G1 X159.38 Y125.44 E2346.387
G1 X155.94 Y122 E2346.629
G1 X152.5 Y118.56 E2346.872
G1 X149.07 Y115.13 E2347.114
G1 X145.63 Y111.69 E2347.356
G1 X142.2 Y108.26 E2347.599
G1 X138.76 Y104.82 E2347.841
G1 X135.32 Y101.38 E2348.084
G1 X131.89 Y97.95 E2348.326
G1 X128.45 Y94.51 E2348.569
G1 X125.02 Y91.07 E2348.811
G1 X124.31 Y90.93 F9000
G1 X127.79 Y94.41 E2349.057 F3600
G1 X131.27 Y97.9 E2349.303
G1 X134.76 Y101.38 E2349.548
G1 X138.24 Y104.86 E2349.794
G1 X141.72 Y108.35 E2350.04
G1 X145.21 Y111.83 E2350.286
G1 X148.69 Y115.32 E2350.532
G1 X152.17 Y118.8 E2350.777
G1 X155.66 Y122.28 E2351.023
G1 X159.14 Y125.77 E2351.269
G1 X162.62 Y129.25 E2351.515
G1 X166.11 Y132.73 E2351.76
G1 X169.59 Y136.22 E2352.006
G1 X173.07 Y139.7 E2352.252
G1 X176.56 Y143.18 E2352.498
G1 X176.56 Y143.75 F9000
G1 X173.03 Y140.22 E2352.747 F3600
G1 X169.5 Y136.69 E2352.996
G1 X165.97 Y133.16 E2353.245
G1 X162.44 Y129.63 E2353.494
G1 X158.9 Y126.1 E2353.743
G1 X155.37 Y122.56 E2353.992
G1 X151.84 Y119.03 E2354.242
G1 X148.31 Y115.5 E2354.491
G1 X144.78 Y111.97 E2354.74
G1 X141.25 Y108.44 E2354.989
G1 X137.72 Y104.91 E2355.238
G1 X134.19 Y101.38 E2355.487
G1 X130.66 Y97.85 E2355.736
G1 X127.13 Y94.32 E2355.985
G1 X123.6 Y90.79 E2356.235
G1 X122.89 Y90.64 F9000
G1 X126.24 Y94 E2356.471 F3600
G1 X129.6 Y97.35 E2356.708
G1 X132.95 Y100.71 E2356.945
G1 X136.31 Y104.06 E2357.181
G1 X139.66 Y107.42 E2357.418
G1 X143.01 Y110.77 E2357.655
G1 X146.37 Y114.12 E2357.891
G1 X149.72 Y117.48 E2358.128
G1 X153.08 Y120.83 E2358.365
G1 X156.43 Y124.19 E2358.601
G1 X159.79 Y127.54 E2358.838
G1 X163.14 Y130.9 E2359.075
G1 X166.49 Y134.25 E2359.311
G1 X169.85 Y137.61 E2359.548
G1 X173.2 Y140.96 E2359.785
G1 X176.56 Y144.31 E2360.021
G1 X176.56 Y144.88 F9000
G1 X173.16 Y141.48 E2360.261 F3600
G1 X169.76 Y138.08 E2360.501
G1 X166.36 Y134.68 E2360.741
G1 X162.96 Y131.29 E2360.98
G1 X159.56 Y127.89 E2361.22
G1 X156.17 Y124.49 E2361.46
G1 X152.77 Y121.09 E2361.7
G1 X149.37 Y117.69 E2361.94
G1 X145.97 Y114.29 E2362.179
G1 X142.57 Y110.89 E2362.419
G1 X139.17 Y107.49 E2362.659
G1 X135.77 Y104.1 E2362.899
G1 X132.37 Y100.7 E2363.139
G1 X128.98 Y97.3 E2363.378
G1 X125.58 Y93.9 E2363.618
G1 X122.18 Y90.5 E2363.858
G1 X121.47 Y90.36 F9000
G1 X124.91 Y93.8 E2364.101 F3600
G1 X128.36 Y97.24 E2364.344
G1 X131.8 Y100.69 E2364.587
G1 X135.24 Y104.13 E2364.83
G1 X138.68 Y107.57 E2365.073
G1 X142.13 Y111.01 E2365.316
G1 X145.57 Y114.46 E2365.559
G1 X149.01 Y117.9 E2365.801
G1 X152.46 Y121.34 E2366.044
G1 X155.9 Y124.79 E2366.287
G1 X159.34 Y128.23 E2366.53
G1 X162.79 Y131.67 E2366.773
G1 X166.23 Y135.12 E2367.016
G1 X169.67 Y138.56 E2367.259
G1 X173.11 Y142 E2367.502
G1 X176.56 Y145.45 E2367.745
G1 X176.56 Y146.01 F9000
G1 X173.07 Y142.52 E2367.991 F3600
G1 X169.58 Y139.04 E2368.237
G1 X166.1 Y135.55 E2368.483
G1 X162.61 Y132.06 E2368.729
G1 X159.12 Y128.57 E2368.975
G1 X155.63 Y125.09 E2369.221
G1 X152.15 Y121.6 E2369.467
G1 X148.66 Y118.11 E2369.713
G1 X145.17 Y114.62 E2369.959
G1 X141.68 Y111.14 E2370.205
G1 X138.2 Y107.65 E2370.451
G1 X134.71 Y104.16 E2370.698
G1 X131.22 Y100.68 E2370.944
G1 X127.73 Y97.19 E2371.19
G1 X124.25 Y93.7 E2371.436
G1 X120.76 Y90.21 E2371.682
G1 X120.05 Y90.07 F9000
G1 X123.58 Y93.6 E2371.931 F3600
G1 X127.11 Y97.13 E2372.18
G1 X130.65 Y100.66 E2372.429
G1 X134.18 Y104.2 E2372.678
G1 X137.71 Y107.73 E2372.928
G1 X141.24 Y111.26 E2373.177
G1 X144.77 Y114.79 E2373.426
G1 X148.3 Y118.32 E2373.675
G1 X151.84 Y121.85 E2373.924
G1 X155.37 Y125.39 E2374.174
G1 X158.9 Y128.92 E2374.423
G1 X162.43 Y132.45 E2374.672
G1 X165.96 Y135.98 E2374.921
G1 X169.49 Y139.51 E2375.17
G1 X173.03 Y143.05 E2375.419
G1 X176.56 Y146.58 E2375.669
G1 X176.56 Y147.14 F9000
G1 X173.19 Y143.78 E2375.906 F3600
G1 X169.83 Y140.41 E2376.144
G1 X166.46 Y137.05 E2376.381
G1 X163.1 Y133.68 E2376.619
G1 X159.73 Y130.31 E2376.856
G1 X156.36 Y126.95 E2377.093
G1 X153 Y123.58 E2377.331
G1 X149.63 Y120.22 E2377.568
G1 X146.27 Y116.85 E2377.806
G1 X142.9 Y113.49 E2378.043
G1 X139.54 Y110.12 E2378.281
G1 X136.17 Y106.75 E2378.518
G1 X132.8 Y103.39 E2378.756
G1 X129.44 Y100.02 E2378.993
G1 X126.07 Y96.66 E2379.231
G1 X122.71 Y93.29 E2379.468
G1 X119.34 Y89.93 E2379.706
G1 X118.63 Y89.78 F9000
G1 X122.04 Y93.19 E2379.946 F3600
G1 X125.45 Y96.6 E2380.186
G1 X128.85 Y100 E2380.427
G1 X132.26 Y103.41 E2380.667
G1 X135.67 Y106.82 E2380.908
G1 X139.08 Y110.23 E2381.148
G1 X142.48 Y113.63 E2381.388
G1 X145.89 Y117.04 E2381.629
G1 X149.3 Y120.45 E2381.869
G1 X152.71 Y123.86 E2382.11
G1 X156.11 Y127.26 E2382.35
G1 X159.52 Y130.67 E2382.591
G1 X162.93 Y134.08 E2382.831
G1 X166.34 Y137.49 E2383.071
G1 X169.74 Y140.89 E2383.312
G1 X173.15 Y144.3 E2383.552
G1 X176.56 Y147.71 E2383.793
G1 X176.56 Y148.27 F9000
G1 X173.11 Y144.82 E2384.036 F3600
G1 X169.66 Y141.38 E2384.279
G1 X166.21 Y137.93 E2384.523
G1 X162.76 Y134.48 E2384.766
G1 X159.31 Y131.03 E2385.009
G1 X155.86 Y127.58 E2385.253
G1 X152.41 Y124.13 E2385.496
G1 X148.97 Y120.68 E2385.739
G1 X145.52 Y117.23 E2385.983
G1 X142.07 Y113.78 E2386.226
G1 X138.62 Y110.33 E2386.469
G1 X135.17 Y106.88 E2386.713
G1 X131.72 Y103.44 E2386.956
G1 X128.27 Y99.99 E2387.2
G1 X124.82 Y96.54 E2387.443
G1 X121.37 Y93.09 E2387.686
G1 X117.92 Y89.64 E2387.93
G1 X117.21 Y89.5 F9000
G1 X120.7 Y92.99 E2388.176 F3600
G1 X124.2 Y96.48 E2388.422
G1 X127.69 Y99.97 E2388.669
G1 X131.18 Y103.46 E2388.915
G1 X134.67 Y106.95 E2389.161
G1 X138.16 Y110.44 E2389.407
G1 X141.65 Y113.93 E2389.654
G1 X145.14 Y117.42 E2389.9
G1 X148.63 Y120.91 E2390.146
G1 X152.12 Y124.4 E2390.393
G1 X155.61 Y127.89 E2390.639
G1 X159.1 Y131.39 E2390.885
G1 X162.59 Y134.88 E2391.131
G1 X166.09 Y138.37 E2391.378
G1 X169.58 Y141.86 E2391.624
G1 X173.07 Y145.35 E2391.87
G1 X176.56 Y148.84 E2392.117
G1 X176.56 Y149.41 F9000
G1 X173.03 Y145.87 E2392.366 F3600
G1 X169.49 Y142.34 E2392.615
G1 X165.96 Y138.81 E2392.864
G1 X162.43 Y135.28 E2393.114
G1 X158.9 Y131.74 E2393.363
G1 X155.36 Y128.21 E2393.612
G1 X151.83 Y124.68 E2393.861
G1 X148.3 Y121.15 E2394.111
G1 X144.77 Y117.61 E2394.36
G1 X141.23 Y114.08 E2394.609
G1 X137.7 Y110.55 E2394.858
G1 X134.17 Y107.01 E2395.108
G1 X130.64 Y103.48 E2395.357
G1 X127.1 Y99.95 E2395.606
G1 X123.57 Y96.42 E2395.855
G1 X120.04 Y92.88 E2396.105
G1 X116.51 Y89.35 E2396.354
G1 X115.8 Y89.21 F9000
G1 X119.17 Y92.58 E2396.592 F3600
G1 X122.55 Y95.96 E2396.83
G1 X125.92 Y99.34 E2397.068
G1 X129.3 Y102.71 E2397.306
G1 X132.67 Y106.09 E2397.545
G1 X136.05 Y109.46 E2397.783
G1 X139.43 Y112.84 E2398.021
G1 X142.8 Y116.21 E2398.259
G1 X146.18 Y119.59 E2398.497
G1 X149.55 Y122.97 E2398.736
G1 X152.93 Y126.34 E2398.974
G1 X156.3 Y129.72 E2399.212
G1 X159.68 Y133.09 E2399.45
G1 X163.06 Y136.47 E2399.688
G1 X166.43 Y139.84 E2399.926
G1 X169.81 Y143.22 E2400.165
G1 X173.18 Y146.6 E2400.403
G1 X176.56 Y149.97 E2400.641
G1 X176.56 Y150.54 F9000
G1 X173.14 Y147.12 E2400.882 F3600
G1 X169.73 Y143.71 E2401.123
G1 X166.31 Y140.29 E2401.364
G1 X162.9 Y136.88 E2401.605
G1 X159.48 Y133.46 E2401.846
G1 X156.07 Y130.05 E2402.087
G1 X152.65 Y126.63 E2402.328
G1 X149.24 Y123.22 E2402.569
G1 X145.82 Y119.8 E2402.81
G1 X142.41 Y116.39 E2403.05
G1 X138.99 Y112.97 E2403.291
G1 X135.58 Y109.56 E2403.532
G1 X132.16 Y106.14 E2403.773
G1 X128.75 Y102.73 E2404.014
G1 X125.33 Y99.31 E2404.255
G1 X121.92 Y95.9 E2404.496
G1 X118.5 Y92.48 E2404.737
G1 X115.09 Y89.06 E2404.978
G1 X114.38 Y88.92 F9000
G1 X117.83 Y92.38 E2405.222 F3600
G1 X121.29 Y95.83 E2405.466
G1 X124.74 Y99.28 E2405.709
G1 X128.2 Y102.74 E2405.953
G1 X131.65 Y106.19 E2406.197
G1 X135.1 Y109.65 E2406.441
G1 X138.56 Y113.1 E2406.684
G1 X142.01 Y116.56 E2406.928
G1 X145.47 Y120.01 E2407.172
G1 X148.92 Y123.47 E2407.415
G1 X152.38 Y126.92 E2407.659
G1 X155.83 Y130.38 E2407.903
G1 X159.29 Y133.83 E2408.147
G1 X162.74 Y137.28 E2408.39
G1 X166.19 Y140.74 E2408.634
G1 X169.65 Y144.19 E2408.878
G1 X173.1 Y147.65 E2409.122
G1 X176.56 Y151.1 E2409.365
G1 X176.56 Y151.67 F9000
G1 X173.06 Y148.17 E2409.612 F3600
G1 X169.57 Y144.68 E2409.858
G1 X166.08 Y141.19 E2410.105
G1 X162.58 Y137.69 E2410.351
G1 X159.09 Y134.2 E2410.598
G1 X155.59 Y130.7 E2410.844
G1 X152.1 Y127.21 E2411.091
G1 X148.61 Y123.72 E2411.337
G1 X145.11 Y120.22 E2411.584
G1 X141.62 Y116.73 E2411.831
G1 X138.13 Y113.23 E2412.077
G1 X134.63 Y109.74 E2412.324
G1 X131.14 Y106.25 E2412.57
G1 X127.64 Y102.75 E2412.817
G1 X124.15 Y99.26 E2413.063
G1 X120.66 Y95.76 E2413.31
G1 X117.16 Y92.27 E2413.556
G1 X113.67 Y88.78 E2413.803
G1 X112.96 Y88.63 F9000
G1 X116.49 Y92.17 E2414.052 F3600
G1 X120.02 Y95.7 E2414.301
G1 X123.56 Y99.23 E2414.551
G1 X127.09 Y102.77 E2414.8
G1 X130.62 Y106.3 E2415.049
G1 X134.16 Y109.83 E2415.298
G1 X137.69 Y113.37 E2415.548
G1 X141.22 Y116.9 E2415.797
G1 X144.76 Y120.43 E2416.046
G1 X148.29 Y123.97 E2416.296
G1 X151.82 Y127.5 E2416.545
G1 X155.36 Y131.03 E2416.794
G1 X158.89 Y134.57 E2417.043
G1 X162.42 Y138.1 E2417.293
G1 X165.96 Y141.63 E2417.542
G1 X169.49 Y145.17 E2417.791
G1 X173.02 Y148.7 E2418.041
G1 X176.56 Y152.23 E2418.29
G1 X176.3 Y152.54 F9000
G1 X172.93 Y149.17 E2418.528 F3600
G1 X169.56 Y145.8 E2418.766
G1 X166.19 Y142.43 E2419.004
G1 X162.82 Y139.06 E2419.241
G1 X159.45 Y135.69 E2419.479
G1 X156.08 Y132.32 E2419.717
G1 X152.7 Y128.95 E2419.955
G1 X149.33 Y125.57 E2420.193
G1 X145.96 Y122.2 E2420.431
G1 X142.59 Y118.83 E2420.669
G1 X139.22 Y115.46 E2420.906
G1 X135.85 Y112.09 E2421.144
G1 X132.48 Y108.72 E2421.382
G1 X129.11 Y105.35 E2421.62
G1 X125.73 Y101.98 E2421.858
G1 X122.36 Y98.6 E2422.096
G1 X118.99 Y95.23 E2422.334
G1 X115.62 Y91.86 E2422.571
G1 X112.25 Y88.49 E2422.809
G1 X111.54 Y88.35 F9000
G1 X114.92 Y91.73 E2423.048 F3600
G1 X118.31 Y95.11 E2423.287
G1 X121.69 Y98.5 E2423.526
G1 X125.08 Y101.88 E2423.764
G1 X128.46 Y105.27 E2424.003
G1 X131.84 Y108.65 E2424.242
G1 X135.23 Y112.03 E2424.481
G1 X138.61 Y115.42 E2424.719
G1 X141.99 Y118.8 E2424.958
G1 X145.38 Y122.19 E2425.197
G1 X148.76 Y125.57 E2425.436
G1 X152.15 Y128.95 E2425.674
G1 X155.53 Y132.34 E2425.913
G1 X158.91 Y135.72 E2426.152
G1 X162.3 Y139.1 E2426.391
G1 X165.68 Y142.49 E2426.629
G1 X169.07 Y145.87 E2426.868
G1 X172.45 Y149.26 E2427.107
G1 X175.83 Y152.64 E2427.346
G1 X175.36 Y152.74 F9000
G1 X171.97 Y149.34 E2427.585 F3600
G1 X168.57 Y145.94 E2427.825
G1 X165.17 Y142.55 E2428.064
G1 X161.78 Y139.15 E2428.304
G1 X158.38 Y135.75 E2428.544
G1 X154.98 Y132.36 E2428.783
G1 X151.59 Y128.96 E2429.023
G1 X148.19 Y125.56 E2429.263
G1 X144.79 Y122.17 E2429.502
G1 X141.4 Y118.77 E2429.742
G1 X138 Y115.37 E2429.981
G1 X134.61 Y111.98 E2430.221
G1 X131.21 Y108.58 E2430.461
G1 X127.81 Y105.19 E2430.7
G1 X124.42 Y101.79 E2430.94
G1 X121.02 Y98.39 E2431.18
G1 X117.62 Y95 E2431.419
G1 X114.23 Y91.6 E2431.659
G1 X110.83 Y88.2 E2431.899
G1 X110.12 Y88.06 F9000
G1 X113.53 Y91.47 E2432.139 F3600
G1 X116.94 Y94.88 E2432.38
G1 X120.35 Y98.29 E2432.62
G1 X123.76 Y101.7 E2432.861
G1 X127.17 Y105.1 E2433.101
G1 X130.58 Y108.51 E2433.342
G1 X133.98 Y111.92 E2433.582
G1 X137.39 Y115.33 E2433.823
G1 X140.8 Y118.74 E2434.063
G1 X144.21 Y122.15 E2434.304
G1 X147.62 Y125.56 E2434.544
G1 X151.03 Y128.97 E2434.785
G1 X154.44 Y132.38 E2435.025
G1 X157.85 Y135.79 E2435.266
G1 X161.26 Y139.19 E2435.506
G1 X164.67 Y142.6 E2435.747
G1 X168.07 Y146.01 E2435.987
G1 X171.48 Y149.42 E2436.228
G1 X174.89 Y152.83 E2436.468
G1 X174.42 Y152.93 F9000
G1 X171 Y149.5 E2436.71 F3600
G1 X167.58 Y146.08 E2436.951
G1 X164.16 Y142.66 E2437.193
G1 X160.74 Y139.24 E2437.434
G1 X157.31 Y135.82 E2437.676
G1 X153.89 Y132.4 E2437.917
G1 X150.47 Y128.97 E2438.158
G1 X147.05 Y125.55 E2438.4
G1 X143.63 Y122.13 E2438.641
G1 X140.21 Y118.71 E2438.883
G1 X136.78 Y115.29 E2439.124
G1 X133.36 Y111.87 E2439.365
G1 X129.94 Y108.45 E2439.607
G1 X126.52 Y105.02 E2439.848
G1 X123.1 Y101.6 E2440.09
G1 X119.68 Y98.18 E2440.331
G1 X116.26 Y94.76 E2440.572
G1 X112.83 Y91.34 E2440.814
G1 X109.41 Y87.92 E2441.055
G1 X108.7 Y87.77 F9000
G1 X112.14 Y91.21 E2441.298 F3600
G1 X115.57 Y94.64 E2441.54
G1 X119.01 Y98.08 E2441.782
G1 X122.44 Y101.51 E2442.024
G1 X125.87 Y104.94 E2442.267
G1 X129.31 Y108.38 E2442.509
G1 X132.74 Y111.81 E2442.751
G1 X136.18 Y115.25 E2442.994
G1 X139.61 Y118.68 E2443.236
G1 X143.04 Y122.11 E2443.478
G1 X146.48 Y125.55 E2443.72
G1 X149.91 Y128.98 E2443.963
G1 X153.35 Y132.42 E2444.205
G1 X156.78 Y135.85 E2444.447
G1 X160.21 Y139.28 E2444.69
G1 X163.65 Y142.72 E2444.932
G1 X167.08 Y146.15 E2445.174
G1 X170.52 Y149.59 E2445.416
G1 X173.95 Y153.02 E2445.659
G1 X173.48 Y153.12 F9000
G1 X170.03 Y149.67 E2445.902 F3600
G1 X166.59 Y146.22 E2446.145
G1 X163.14 Y142.78 E2446.388
G1 X159.69 Y139.33 E2446.631
G1 X156.25 Y135.88 E2446.875
G1 X152.8 Y132.44 E2447.118
G1 X149.35 Y128.99 E2447.361
G1 X145.91 Y125.54 E2447.604
G1 X142.46 Y122.1 E2447.847
G1 X139.01 Y118.65 E2448.091
G1 X135.57 Y115.2 E2448.334
G1 X132.12 Y111.76 E2448.577
G1 X128.67 Y108.31 E2448.82
G1 X125.23 Y104.86 E2449.063
G1 X121.78 Y101.42 E2449.306
G1 X118.33 Y97.97 E2449.55
G1 X114.89 Y94.52 E2449.793
G1 X111.44 Y91.08 E2450.036
G1 X108 Y87.63 E2450.279
G1 X107.29 Y87.49 F9000
G1 X110.74 Y90.95 E2450.523 F3600
G1 X114.2 Y94.4 E2450.767
G1 X117.66 Y97.86 E2451.011
G1 X121.12 Y101.32 E2451.255
G1 X124.58 Y104.78 E2451.499
G1 X128.04 Y108.24 E2451.744
G1 X131.5 Y111.7 E2451.988
G1 X134.96 Y115.16 E2452.232
G1 X138.42 Y118.62 E2452.476
G1 X141.88 Y122.08 E2452.72
G1 X145.34 Y125.54 E2452.964
G1 X148.8 Y129 E2453.208
G1 X152.25 Y132.46 E2453.452
G1 X155.71 Y135.91 E2453.696
G1 X159.17 Y139.37 E2453.94
G1 X162.63 Y142.83 E2454.184
G1 X166.09 Y146.29 E2454.428
G1 X169.55 Y149.75 E2454.672
G1 X173.01 Y153.21 E2454.916
G1 X172.54 Y153.31 F9000
G1 X169.07 Y149.83 E2455.161 F3600
G1 X165.6 Y146.36 E2455.406
G1 X162.12 Y142.89 E2455.651
G1 X158.65 Y139.42 E2455.896
G1 X155.18 Y135.95 E2456.141
G1 X151.71 Y132.48 E2456.386
G1 X148.24 Y129 E2456.631
G1 X144.77 Y125.53 E2456.876
G1 X141.29 Y122.06 E2457.121
G1 X137.82 Y118.59 E2457.366
G1 X134.35 Y115.12 E2457.611
G1 X130.88 Y111.65 E2457.856
G1 X127.41 Y108.17 E2458.101
G1 X123.93 Y104.7 E2458.346
G1 X120.46 Y101.23 E2458.591
G1 X116.99 Y97.76 E2458.836
G1 X113.52 Y94.29 E2459.081
G1 X110.05 Y90.81 E2459.325
G1 X106.58 Y87.34 E2459.57
G1 X105.87 Y87.2 F9000
G1 X109.35 Y90.68 E2459.816 F3600
G1 X112.84 Y94.17 E2460.062
G1 X116.32 Y97.65 E2460.308
G1 X119.8 Y101.14 E2460.554
G1 X123.29 Y104.62 E2460.8
G1 X126.77 Y108.1 E2461.045
G1 X130.26 Y111.59 E2461.291
G1 X133.74 Y115.07 E2461.537
G1 X137.23 Y118.56 E2461.783
G1 X140.71 Y122.04 E2462.029
G1 X144.19 Y125.53 E2462.275
G1 X147.68 Y129.01 E2462.52
G1 X151.16 Y132.5 E2462.766
G1 X154.65 Y135.98 E2463.012
G1 X158.13 Y139.46 E2463.258
G1 X161.62 Y142.95 E2463.504
G1 X165.1 Y146.43 E2463.75
G1 X168.58 Y149.92 E2463.996
G1 X172.07 Y153.4 E2464.241
G1 X171.6 Y153.5 F9000
G1 X168.1 Y150 E2464.488 F3600
G1 X164.61 Y146.5 E2464.735
G1 X161.11 Y143.01 E2464.982
G1 X157.61 Y139.51 E2465.228
G1 X154.11 Y136.01 E2465.475
G1 X150.62 Y132.52 E2465.722
G1 X147.12 Y129.02 E2465.968
G1 X143.62 Y125.52 E2466.215
G1 X140.13 Y122.02 E2466.462
G1 X136.63 Y118.53 E2466.709
G1 X133.13 Y115.03 E2466.955
G1 X129.64 Y111.53 E2467.202
G1 X126.14 Y108.04 E2467.449
G1 X122.64 Y104.54 E2467.695
G1 X119.15 Y101.04 E2467.942
G1 X115.65 Y97.55 E2468.189
G1 X112.15 Y94.05 E2468.436
G1 X108.65 Y90.55 E2468.682
G1 X105.16 Y87.06 E2468.929
G1 X104.45 Y86.91 F9000
G1 X107.96 Y90.42 E2469.177 F3600
G1 X111.47 Y93.93 E2469.424
G1 X114.98 Y97.44 E2469.672
G1 X118.49 Y100.95 E2469.92
G1 X122 Y104.46 E2470.167
G1 X125.5 Y107.97 E2470.415
G1 X129.01 Y111.48 E2470.662
G1 X132.52 Y114.99 E2470.91
G1 X136.03 Y118.5 E2471.158
G1 X139.54 Y122.01 E2471.405
G1 X143.05 Y125.52 E2471.653
G1 X146.56 Y129.03 E2471.9
G1 X150.07 Y132.54 E2472.148
G1 X153.58 Y136.04 E2472.396
G1 X157.09 Y139.55 E2472.643
G1 X160.6 Y143.06 E2472.891
G1 X164.11 Y146.57 E2473.139
G1 X167.62 Y150.08 E2473.386
G1 X171.13 Y153.59 E2473.634
G1 X170.66 Y153.69 F9000
G1 X167.14 Y150.17 E2473.882 F3600
G1 X163.61 Y146.64 E2474.131
G1 X160.09 Y143.12 E2474.379
