; Generated with MatterSlice 2.22.04
; filamentDiameter = 1.75
; extrusionWidth = 0.4
; firstLayerExtrusionWidth = 0.4
; layerThickness = 0.3
; firstLayerThickness = 0.3
; automatic settings before start_gcode
G21 ; set units to millimeters
M107 ; fan off
M140 S50 ; start heating the bed
M104 T0 S210 ; start heating T0
M190 S50 ; wait for bed temperature to be reached
T0 ; set the active extruder to 0
; settings from start_gcode
G28 X0 Y0 Z0 ; home all axes
G1 Z5 F5000
M109 S210 ; set the extruder temp and wait
G28 X0 Y0 Z0 ; Home Z again in case there was filament on nozzle
G29 ; probe the bed
; automatic settings after start_gcode
T0 ; set the active extruder to 0
G90 ; use absolute coordinates
G92 E0 ; reset the expected extruder position
M82 ; use absolute distance for extrusion
; Layer count: 7
; Layer Change GCode
; LAYER:0
; LAYER_HEIGHT:0.3
; TYPE:FILL
M400
M107
G1 X63.44 Y41.83 Z0.8 F9000
G1 X164.86 Y41.83
G1 Y161.9
G1 X168.58
; TYPE:SKIRT
G1 Z0.3
G1 F1800
G1 X146.85 Y215.67 E2.893 F1080
G1 X81.15 E6.171
G1 X59.42 Y161.9 E9.065
G1 X80.09 Y38.33 E15.316
G1 X147.91 E18.699
G1 X168.58 Y161.9 E24.95
G1 X168.17 Y161.86 F9000
G1 X146.58 Y215.27 E27.824 F1080
G1 X81.42 E31.075
G1 X59.83 Y161.86 E33.949
G1 X80.43 Y38.73 E40.177
G1 X147.57 E43.527
G1 X168.17 Y161.86 E49.755
G1 E46.755 F1800
G1 Z0.8
G1 X167.57 Y161.79 F9000
G1 X161.76 Y161.15
G1 X160.86
G1 X142.27 Y208.87
; TYPE:WALL-OUTER
G1 Z0.3
G1 E49.755 F1800
G1 X85.73 E52.576 F1080
G1 X66.44 Y161.13 E55.144
G1 X85.85 Y45.13 E61.012
G1 X142.15 E63.821
G1 X161.56 Y161.13 E69.689
G1 X142.28 Y208.83 E72.256
G1 X142.27 Y208.87
G1 X139.27
G1 X142 Y208.47 F9000
; TYPE:WALL-INNER
G1 X86 E75.049 F1080
G1 X66.86 Y161.09 E77.599
G1 X86.19 Y45.53 E83.444
G1 X141.81 E86.22
G1 X161.14 Y161.09 E92.065
G1 X142.01 Y208.43 E94.613
G1 X142 Y208.47
G1 E91.613 F1800
G1 Z0.8
G1 X141.7 Y208.02 F9000
G1 X142.13 Y205.45
G1 X144.46 Y160.15
G1 X145.04 Y158.35
G1 X132.02 Y62.42
G1 X131.34 Y61.82
; TYPE:WALL-OUTER
G1 Z0.3
G1 E94.613 F1800
G1 X144.42 Y158.97 E99.503 F1080
G1 X131.01 Y192.18 E101.29
G1 X96.99 E102.987
G1 X83.58 Y158.97 E104.774
G1 X96.66 Y61.82 E109.664
G1 X131.3 E111.393
G1 X131.34
G1 X131.74 Y64.79
G1 X131.69 Y61.42 F9000
; TYPE:WALL-INNER
G1 X144.84 Y159.02 E116.306 F1080
G1 X131.28 Y192.58 E118.112
G1 X96.72 E119.836
G1 X83.16 Y159.02 E121.642
G1 X96.31 Y61.42 E126.555
G1 X131.65 E128.318
G1 X131.69
G1 E125.318 F1800
G1 Z0.8
G1 X86.5 Y45.87 F9000
; TYPE:BOTTOM-FILL
G1 Z0.3
G1 E128.318 F1800
G1 X86.47 Y45.9 E128.32 F1080
G1 X87.07 Y45.87 F9000
G1 X86.36 Y46.58 E128.371 F1080
G1 X86.24 Y47.26 F9000
G1 X87.63 Y45.87 E128.469 F1080
G1 X88.2 F9000
G1 X86.13 Y47.94 E128.615 F1080
G1 X86.02 Y48.62 F9000
G1 X88.77 Y45.87 E128.809 F1080
G1 X89.33 F9000
G1 X85.9 Y49.3 E129.051 F1080
G1 X85.79 Y49.98 F9000
G1 X89.9 Y45.87 E129.341 F1080
G1 X90.46 F9000
G1 X85.67 Y50.66 E129.678 F1080
G1 X85.56 Y51.33 F9000
G1 X91.03 Y45.87 E130.064 F1080
G1 X91.59 F9000
G1 X85.45 Y52.01 E130.498 F1080
G1 X85.33 Y52.69 F9000
G1 X92.16 Y45.87 E130.979 F1080
G1 X92.73 F9000
G1 X85.22 Y53.37 E131.509 F1080
G1 X85.11 Y54.05 F9000
G1 X93.29 Y45.87 E132.086 F1080
G1 X93.86 F9000
G1 X84.99 Y54.73 E132.712 F1080
G1 X84.88 Y55.41 F9000
G1 X94.42 Y45.87 E133.385 F1080
G1 X94.99 F9000
G1 X84.77 Y56.09 E134.106 F1080
G1 X84.65 Y56.77 F9000
G1 X95.55 Y45.87 E134.875 F1080
G1 X96.12 F9000
G1 X84.54 Y57.45 E135.692 F1080
G1 X84.43 Y58.13 F9000
G1 X96.68 Y45.87 E136.557 F1080
G1 X97.25 F9000
G1 X84.31 Y58.81 E137.47 F1080
G1 X84.2 Y59.49 F9000
G1 X97.82 Y45.87 E138.431 F1080
G1 X98.38 F9000
G1 X84.08 Y60.17 E139.44 F1080
G1 X83.97 Y60.85 F9000
G1 X98.95 Y45.87 E140.497 F1080
G1 X99.51 F9000
G1 X83.86 Y61.52 E141.602 F1080
G1 X83.74 Y62.2 F9000
G1 X100.08 Y45.87 E142.754 F1080
G1 X100.64 F9000
G1 X83.63 Y62.88 E143.955 F1080
G1 X83.52 Y63.56 F9000
G1 X101.21 Y45.87 E145.203 F1080
G1 X101.78 F9000
G1 X83.4 Y64.24 E146.5 F1080
G1 X83.29 Y64.92 F9000
G1 X102.34 Y45.87 E147.844 F1080
G1 X102.91 F9000
G1 X83.17 Y65.6 E149.236 F1080
G1 X83.06 Y66.28 F9000
G1 X103.47 Y45.87 E150.676 F1080
G1 X104.04 F9000
G1 X82.95 Y66.96 E152.164 F1080
G1 X82.83 Y67.64 F9000
G1 X104.6 Y45.87 E153.7 F1080
G1 X105.17 F9000
G1 X82.72 Y68.32 E155.284 F1080
G1 X82.61 Y69 F9000
G1 X105.74 Y45.87 E156.916 F1080
G1 X106.3 F9000
G1 X82.49 Y69.68 E158.596 F1080
G1 X82.38 Y70.36 F9000
G1 X106.87 Y45.87 E160.324 F1080
G1 X107.43 F9000
G1 X82.27 Y71.04 E162.099 F1080
G1 X82.15 Y71.71 F9000
G1 X108 Y45.87 E163.923 F1080
G1 X108.56 F9000
G1 X82.04 Y72.39 E165.795 F1080
G1 X81.92 Y73.07 F9000
G1 X109.13 Y45.87 E167.714 F1080
G1 X109.7 F9000
G1 X81.81 Y73.75 E169.681 F1080
G1 X81.7 Y74.43 F9000
G1 X110.26 Y45.87 E171.697 F1080
G1 X110.83 F9000
G1 X81.58 Y75.11 E173.76 F1080
G1 X81.47 Y75.79 F9000
G1 X95.98 Y61.28 E174.784 F1080
G1 X96.18 Y61.08 F9000
G1 X111.39 Y45.87 E175.857 F1080
G1 X111.96 F9000
G1 X96.74 Y61.08 E176.931 F1080
G1 X97.31 F9000
G1 X112.52 Y45.87 E178.004 F1080
G1 X113.09 F9000
G1 X97.88 Y61.08 E179.078 F1080
G1 X98.44 F9000
G1 X113.66 Y45.87 E180.151 F1080
G1 X114.22 F9000
G1 X99.01 Y61.08 E181.224 F1080
G1 X99.57 F9000
G1 X114.79 Y45.87 E182.298 F1080
G1 X115.35 F9000
G1 X100.14 Y61.08 E183.371 F1080
G1 X100.7 F9000
G1 X115.92 Y45.87 E184.445 F1080
G1 X116.48 F9000
G1 X101.27 Y61.08 E185.518 F1080
G1 X101.84 F9000
G1 X117.05 Y45.87 E186.591 F1080
G1 X117.62 F9000
G1 X102.4 Y61.08 E187.665 F1080
G1 X102.97 F9000
G1 X118.18 Y45.87 E188.738 F1080
G1 X118.75 F9000
G1 X103.53 Y61.08 E189.812 F1080
G1 X104.1 F9000
G1 X119.31 Y45.87 E190.885 F1080
G1 X119.88 F9000
G1 X104.66 Y61.08 E191.958 F1080
G1 X105.23 F9000
G1 X120.44 Y45.87 E193.032 F1080
G1 X121.01 F9000
G1 X105.8 Y61.08 E194.105 F1080
G1 X106.36 F9000
G1 X121.57 Y45.87 E195.179 F1080
G1 X122.14 F9000
G1 X106.93 Y61.08 E196.252 F1080
G1 X107.49 F9000
G1 X122.71 Y45.87 E197.326 F1080
G1 X123.27 F9000
G1 X108.06 Y61.08 E198.399 F1080
G1 X108.62 F9000
G1 X123.84 Y45.87 E199.472 F1080
G1 X124.4 F9000
G1 X109.19 Y61.08 E200.546 F1080
G1 X109.76 F9000
G1 X124.97 Y45.87 E201.619 F1080
G1 X125.53 F9000
G1 X110.32 Y61.08 E202.693 F1080
G1 X110.89 F9000
G1 X126.1 Y45.87 E203.766 F1080
G1 X126.67 F9000
G1 X111.45 Y61.08 E204.839 F1080
G1 X112.02 F9000
G1 X127.23 Y45.87 E205.913 F1080
G1 X127.8 F9000
G1 X112.58 Y61.08 E206.986 F1080
G1 X113.15 F9000
G1 X128.36 Y45.87 E208.06 F1080
G1 X128.93 F9000
G1 X113.72 Y61.08 E209.133 F1080
G1 X114.28 Y61.08 F9000
G1 X129.49 Y45.87 E210.206 F1080
G1 X130.06 F9000
G1 X114.85 Y61.08 E211.28 F1080
G1 X115.41 F9000
G1 X130.63 Y45.87 E212.353 F1080
G1 X131.19 F9000
G1 X115.98 Y61.08 E213.426 F1080
G1 X116.54 F9000
G1 X131.76 Y45.87 E214.5 F1080
G1 X132.32 F9000
G1 X117.11 Y61.08 E215.573 F1080
G1 X117.68 F9000
G1 X132.89 Y45.87 E216.646 F1080
G1 X133.45 F9000
G1 X118.24 Y61.08 E217.72 F1080
G1 X118.81 F9000
G1 X134.02 Y45.87 E218.793 F1080
G1 X134.59 F9000
G1 X119.37 Y61.08 E219.866 F1080
G1 X119.94 F9000
G1 X135.15 Y45.87 E220.94 F1080
G1 X135.72 F9000
G1 X120.5 Y61.08 E222.013 F1080
G1 X121.07 F9000
G1 X136.28 Y45.87 E223.087 F1080
G1 X136.85 F9000
G1 X121.64 Y61.08 E224.16 F1080
G1 X122.2 F9000
G1 X137.41 Y45.87 E225.233 F1080
G1 X137.98 F9000
G1 X122.77 Y61.08 E226.307 F1080
G1 X123.33 F9000
G1 X138.55 Y45.87 E227.38 F1080
G1 X139.11 F9000
G1 X123.9 Y61.08 E228.453 F1080
G1 X124.46 F9000
G1 X139.68 Y45.87 E229.527 F1080
G1 X140.24 F9000
G1 X125.03 Y61.08 E230.6 F1080
G1 X125.6 F9000
G1 X140.81 Y45.87 E231.673 F1080
G1 X141.37 F9000
G1 X126.16 Y61.08 E232.747 F1080
G1 X126.73 F9000
G1 X141.58 Y46.22 E233.795 F1080
G1 X141.66 Y46.71 F9000
G1 X127.29 Y61.08 E234.809 F1080
G1 X127.86 F9000
G1 X141.74 Y47.19 E235.788 F1080
G1 X141.83 Y47.68 F9000
G1 X128.42 Y61.08 E236.734 F1080
G1 X128.99 F9000
G1 X141.91 Y48.16 E237.645 F1080
G1 X141.99 Y48.65 F9000
G1 X129.56 Y61.08 E238.523 F1080
G1 X130.12 F9000
G1 X142.07 Y49.13 E239.365 F1080
G1 X142.15 Y49.62 F9000
G1 X130.69 Y61.08 E240.174 F1080
G1 X131.25 F9000
G1 X142.23 Y50.1 E240.949 F1080
G1 X142.31 Y50.59 F9000
G1 X131.82 Y61.08 E241.689 F1080
G1 X132.04 Y61.43 F9000
G1 X142.39 Y51.07 E242.42 F1080
G1 X142.47 Y51.56 F9000
G1 X132.1 Y61.93 E243.152 F1080
G1 X132.17 Y62.43 F9000
G1 X142.55 Y52.04 E243.884 F1080
G1 X142.64 Y52.53 F9000
G1 X132.24 Y62.92 E244.618 F1080
G1 X132.3 Y63.42 F9000
G1 X142.72 Y53.01 E245.353 F1080
G1 X142.8 Y53.49 F9000
G1 X132.37 Y63.92 E246.088 F1080
G1 X132.44 Y64.42 F9000
G1 X142.88 Y53.98 E246.825 F1080
G1 X142.96 Y54.46 F9000
G1 X132.51 Y64.92 E247.563 F1080
G1 X132.57 Y65.42 F9000
G1 X143.04 Y54.95 E248.301 F1080
G1 X143.12 Y55.43 F9000
G1 X132.64 Y65.92 E249.041 F1080
G1 X132.71 Y66.41 F9000
G1 X143.2 Y55.92 E249.781 F1080
G1 X143.28 Y56.4 F9000
G1 X132.77 Y66.91 E250.523 F1080
G1 X132.84 Y67.41 F9000
G1 X143.37 Y56.89 E251.265 F1080
G1 X143.45 Y57.37 F9000
G1 X132.91 Y67.91 E252.009 F1080
G1 X132.98 Y68.41 F9000
G1 X143.53 Y57.86 E252.753 F1080
G1 X143.61 Y58.34 F9000
G1 X133.04 Y68.91 E253.499 F1080
G1 X133.11 Y69.41 F9000
G1 X143.69 Y58.83 E254.245 F1080
G1 X143.77 Y59.31 F9000
G1 X133.18 Y69.9 E254.993 F1080
G1 X133.24 Y70.4 F9000
G1 X143.85 Y59.79 E255.741 F1080
G1 X143.93 Y60.28 F9000
G1 X133.31 Y70.9 E256.49 F1080
G1 X133.38 Y71.4 F9000
G1 X144.01 Y60.76 E257.241 F1080
G1 X144.1 Y61.25 F9000
G1 X133.45 Y71.9 E257.992 F1080
G1 X133.51 Y72.4 F9000
G1 X144.18 Y61.73 E258.745 F1080
G1 X144.26 Y62.22 F9000
G1 X133.58 Y72.89 E259.498 F1080
G1 X133.65 Y73.39 F9000
G1 X144.34 Y62.7 E260.252 F1080
G1 X144.42 Y63.19 F9000
G1 X133.71 Y73.89 E261.007 F1080
G1 X133.78 Y74.39 F9000
G1 X144.5 Y63.67 E261.764 F1080
G1 X144.58 Y64.16 F9000
G1 X133.85 Y74.89 E262.521 F1080
G1 X133.92 Y75.39 F9000
G1 X144.66 Y64.64 E263.279 F1080
G1 X144.74 Y65.13 F9000
G1 X133.98 Y75.89 E264.038 F1080
G1 X134.05 Y76.38 F9000
G1 X144.82 Y65.61 E264.799 F1080
G1 X144.91 Y66.09 F9000
G1 X134.12 Y76.88 E265.56 F1080
G1 X134.18 Y77.38 F9000
G1 X144.99 Y66.58 E266.322 F1080
G1 X145.07 Y67.06 F9000
G1 X134.25 Y77.88 E267.085 F1080
G1 X134.32 Y78.38 F9000
G1 X145.15 Y67.55 E267.849 F1080
G1 X145.23 Y68.03 F9000
G1 X134.39 Y78.88 E268.614 F1080
G1 X134.45 Y79.38 F9000
G1 X145.31 Y68.52 E269.38 F1080
G1 X145.39 Y69 F9000
G1 X134.52 Y79.87 E270.148 F1080
G1 X134.59 Y80.37 F9000
G1 X145.47 Y69.49 E270.916 F1080
G1 X145.55 Y69.97 F9000
G1 X134.65 Y80.87 E271.685 F1080
G1 X134.72 Y81.37 F9000
G1 X145.64 Y70.46 E272.455 F1080
G1 X145.72 Y70.94 F9000
G1 X134.79 Y81.87 E273.226 F1080
G1 X134.86 Y82.37 F9000
G1 X145.8 Y71.43 E273.998 F1080
G1 X145.88 Y71.91 F9000
G1 X134.92 Y82.87 E274.771 F1080
G1 X134.99 Y83.36 F9000
G1 X145.96 Y72.4 E275.545 F1080
G1 X146.04 Y72.88 F9000
G1 X135.06 Y83.86 E276.32 F1080
G1 X135.12 Y84.36 F9000
G1 X146.12 Y73.36 E277.096 F1080
G1 X146.2 Y73.85 F9000
G1 X135.19 Y84.86 E277.872 F1080
G1 X135.26 Y85.36 F9000
G1 X146.28 Y74.33 E278.65 F1080
G1 X146.37 Y74.82 F9000
G1 X135.33 Y85.86 E279.429 F1080
G1 X135.39 Y86.36 F9000
G1 X146.45 Y75.3 E280.209 F1080
G1 X146.53 Y75.79 F9000
G1 X135.46 Y86.85 E280.99 F1080
G1 X135.53 Y87.35 F9000
G1 X146.61 Y76.27 E281.772 F1080
G1 X146.69 Y76.76 F9000
G1 X135.59 Y87.85 E282.555 F1080
G1 X135.66 Y88.35 F9000
G1 X146.77 Y77.24 E283.338 F1080
G1 X146.85 Y77.73 F9000
G1 X135.73 Y88.85 E284.123 F1080
G1 X135.8 Y89.35 F9000
G1 X146.93 Y78.21 E284.909 F1080
G1 X147.01 Y78.69 F9000
G1 X135.86 Y89.84 E285.695 F1080
G1 X135.93 Y90.34 F9000
G1 X147.1 Y79.18 E286.483 F1080
G1 X147.18 Y79.66 F9000
G1 X136 Y90.84 E287.272 F1080
G1 X136.06 Y91.34 F9000
G1 X147.26 Y80.15 E288.062 F1080
G1 X147.34 Y80.63 F9000
G1 X136.13 Y91.84 E288.852 F1080
G1 X136.2 Y92.34 F9000
G1 X147.42 Y81.12 E289.644 F1080
G1 X147.5 Y81.6 F9000
G1 X136.27 Y92.84 E290.437 F1080
G1 X136.33 Y93.34 F9000
G1 X147.58 Y82.09 E291.23 F1080
G1 X147.66 Y82.57 F9000
G1 X136.4 Y93.83 E292.025 F1080
G1 X136.47 Y94.33 F9000
G1 X147.74 Y83.06 E292.82 F1080
G1 X147.82 Y83.54 F9000
G1 X136.53 Y94.83 E293.617 F1080
G1 X136.6 Y95.33 F9000
G1 X147.91 Y84.03 E294.414 F1080
G1 X147.99 Y84.51 F9000
G1 X136.67 Y95.83 E295.213 F1080
G1 X136.74 Y96.33 F9000
G1 X148.07 Y84.99 E296.013 F1080
G1 X148.15 Y85.48 F9000
G1 X136.8 Y96.82 E296.813 F1080
G1 X136.87 Y97.32 F9000
G1 X148.23 Y85.96 E297.614 F1080
G1 X148.31 Y86.45 F9000
G1 X136.94 Y97.82 E298.417 F1080
G1 X137 Y98.32 F9000
G1 X148.39 Y86.93 E299.22 F1080
G1 X148.47 Y87.42 F9000
G1 X137.07 Y98.82 E300.025 F1080
G1 X137.14 Y99.32 F9000
G1 X148.55 Y87.9 E300.83 F1080
G1 X148.64 Y88.39 F9000
G1 X137.21 Y99.82 E301.636 F1080
G1 X137.27 Y100.31 F9000
G1 X148.72 Y88.87 E302.444 F1080
G1 X148.8 Y89.36 F9000
G1 X137.34 Y100.81 E303.252 F1080
G1 X137.41 Y101.31 F9000
G1 X148.88 Y89.84 E304.062 F1080
G1 X148.96 Y90.33 F9000
G1 X137.47 Y101.81 E304.872 F1080
G1 X137.54 Y102.31 F9000
G1 X149.04 Y90.81 E305.683 F1080
G1 X149.12 Y91.29 F9000
G1 X137.61 Y102.81 E306.495 F1080
G1 X137.68 Y103.31 F9000
G1 X149.2 Y91.78 E307.309 F1080
G1 X149.28 Y92.26 F9000
G1 X137.74 Y103.8 E308.123 F1080
G1 X137.81 Y104.3 F9000
G1 X149.36 Y92.75 E308.938 F1080
G1 X149.45 Y93.23 F9000
G1 X137.88 Y104.8 E309.754 F1080
G1 X137.94 Y105.3 F9000
G1 X149.53 Y93.72 E310.572 F1080
G1 X149.61 Y94.2 F9000
G1 X138.01 Y105.8 E311.39 F1080
G1 X138.08 Y106.3 F9000
G1 X149.69 Y94.69 E312.209 F1080
G1 X149.77 Y95.17 F9000
G1 X138.15 Y106.8 E313.029 F1080
G1 X138.21 Y107.29 F9000
G1 X149.85 Y95.66 E313.85 F1080
G1 X149.93 Y96.14 F9000
G1 X138.28 Y107.79 E314.672 F1080
G1 X138.35 Y108.29 F9000
G1 X150.01 Y96.63 E315.495 F1080
G1 X150.09 Y97.11 F9000
G1 X138.41 Y108.79 E316.319 F1080
G1 X138.48 Y109.29 F9000
G1 X150.18 Y97.59 E317.145 F1080
G1 X150.26 Y98.08 F9000
G1 X138.55 Y109.79 E317.971 F1080
G1 X138.62 Y110.29 F9000
G1 X150.34 Y98.56 E318.798 F1080
G1 X150.42 Y99.05 F9000
G1 X138.68 Y110.78 E319.625 F1080
G1 X138.75 Y111.28 F9000
G1 X150.5 Y99.53 E320.455 F1080
G1 X150.58 Y100.02 F9000
G1 X138.82 Y111.78 E321.284 F1080
G1 X138.88 Y112.28 F9000
G1 X150.66 Y100.5 E322.115 F1080
G1 X150.74 Y100.99 F9000
G1 X138.95 Y112.78 E322.947 F1080
G1 X139.02 Y113.28 F9000
G1 X150.82 Y101.47 E323.78 F1080
G1 X150.91 Y101.96 F9000
G1 X139.09 Y113.78 E324.614 F1080
G1 X139.15 Y114.27 F9000
G1 X150.99 Y102.44 E325.449 F1080
G1 X151.07 Y102.93 F9000
G1 X139.22 Y114.77 E326.285 F1080
G1 X139.29 Y115.27 F9000
G1 X151.15 Y103.41 E327.122 F1080
G1 X151.23 Y103.9 F9000
G1 X139.35 Y115.77 E327.96 F1080
G1 X139.42 Y116.27 F9000
G1 X151.31 Y104.38 E328.799 F1080
G1 X151.39 Y104.86 F9000
G1 X139.49 Y116.77 E329.638 F1080
G1 X139.56 Y117.27 F9000
G1 X151.47 Y105.35 E330.479 F1080
G1 X151.55 Y105.83 F9000
G1 X139.62 Y117.76 E331.321 F1080
G1 X139.69 Y118.26 F9000
G1 X151.63 Y106.32 E332.164 F1080
G1 X151.72 Y106.8 F9000
G1 X139.76 Y118.76 E333.007 F1080
G1 X139.82 Y119.26 F9000
G1 X151.8 Y107.29 E333.852 F1080
G1 X151.88 Y107.77 F9000
G1 X139.89 Y119.76 E334.698 F1080
G1 X139.96 Y120.26 F9000
G1 X151.96 Y108.26 E335.544 F1080
G1 X152.04 Y108.74 F9000
G1 X140.03 Y120.75 E336.392 F1080
G1 X140.09 Y121.25 F9000
G1 X152.12 Y109.23 E337.241 F1080
G1 X152.2 Y109.71 F9000
G1 X140.16 Y121.75 E338.09 F1080
G1 X140.23 Y122.25 F9000
G1 X152.28 Y110.19 E338.941 F1080
G1 X152.36 Y110.68 F9000
G1 X140.29 Y122.75 E339.792 F1080
G1 X140.36 Y123.25 F9000
G1 X152.45 Y111.16 E340.645 F1080
G1 X152.53 Y111.65 F9000
G1 X140.43 Y123.75 E341.499 F1080
G1 X140.5 Y124.25 F9000
G1 X152.61 Y112.13 E342.353 F1080
G1 X152.69 Y112.62 F9000
G1 X140.56 Y124.74 E343.209 F1080
G1 X140.63 Y125.24 F9000
G1 X152.77 Y113.1 E344.065 F1080
G1 X152.85 Y113.59 F9000
G1 X140.7 Y125.74 E344.923 F1080
G1 X140.76 Y126.24 F9000
G1 X152.93 Y114.07 E345.781 F1080
G1 X153.01 Y114.56 F9000
G1 X140.83 Y126.74 E346.641 F1080
G1 X140.9 Y127.24 F9000
G1 X153.09 Y115.04 E347.501 F1080
G1 X153.17 Y115.53 F9000
G1 X140.97 Y127.73 E348.362 F1080
G1 X141.03 Y128.23 F9000
G1 X153.26 Y116.01 E349.225 F1080
G1 X153.34 Y116.5 F9000
G1 X141.1 Y128.73 E350.088 F1080
G1 X141.17 Y129.23 F9000
G1 X153.42 Y116.98 E350.952 F1080
G1 X153.5 Y117.46 F9000
G1 X141.23 Y129.73 E351.818 F1080
G1 X141.3 Y130.23 F9000
G1 X153.58 Y117.95 E352.684 F1080
G1 X153.66 Y118.43 F9000
G1 X141.37 Y130.73 E353.551 F1080
G1 X141.44 Y131.22 F9000
G1 X153.74 Y118.92 E354.42 F1080
G1 X153.82 Y119.4 F9000
G1 X141.5 Y131.72 E355.289 F1080
G1 X141.57 Y132.22 F9000
G1 X153.9 Y119.89 E356.159 F1080
G1 X153.99 Y120.37 F9000
G1 X141.64 Y132.72 E357.03 F1080
G1 X141.7 Y133.22 F9000
G1 X154.07 Y120.86 E357.903 F1080
G1 X154.15 Y121.34 F9000
G1 X141.77 Y133.72 E358.776 F1080
G1 X141.84 Y134.22 F9000
G1 X154.23 Y121.83 E359.65 F1080
G1 X154.31 Y122.31 F9000
G1 X141.91 Y134.71 E360.525 F1080
G1 X141.97 Y135.21 F9000
G1 X154.39 Y122.79 E361.401 F1080
G1 X154.47 Y123.28 F9000
G1 X142.04 Y135.71 E362.278 F1080
G1 X142.11 Y136.21 F9000
G1 X154.55 Y123.76 E363.157 F1080
G1 X154.63 Y124.25 F9000
G1 X142.17 Y136.71 E364.036 F1080
G1 X142.24 Y137.21 F9000
G1 X154.71 Y124.73 E364.916 F1080
G1 X154.8 Y125.22 F9000
G1 X142.31 Y137.71 E365.797 F1080
G1 X142.38 Y138.2 F9000
G1 X154.88 Y125.7 E366.679 F1080
G1 X154.96 Y126.19 F9000
G1 X142.44 Y138.7 E367.562 F1080
G1 X142.51 Y139.2 F9000
G1 X155.04 Y126.67 E368.446 F1080
G1 X155.12 Y127.16 F9000
G1 X142.58 Y139.7 E369.331 F1080
G1 X142.64 Y140.2 F9000
G1 X155.2 Y127.64 E370.217 F1080
G1 X155.28 Y128.13 F9000
G1 X142.71 Y140.7 E371.104 F1080
G1 X142.78 Y141.2 F9000
G1 X155.36 Y128.61 E371.992 F1080
G1 X155.44 Y129.1 F9000
G1 X142.85 Y141.69 E372.881 F1080
G1 X142.91 Y142.19 F9000
G1 X155.53 Y129.58 E373.77 F1080
G1 X155.61 Y130.06 F9000
G1 X142.98 Y142.69 E374.661 F1080
G1 X143.05 Y143.19 F9000
G1 X155.69 Y130.55 E375.553 F1080
G1 X155.77 Y131.03 F9000
G1 X143.11 Y143.69 E376.446 F1080
G1 X143.18 Y144.19 F9000
G1 X155.85 Y131.52 E377.34 F1080
G1 X155.93 Y132 F9000
G1 X143.25 Y144.69 E378.235 F1080
G1 X143.32 Y145.18 F9000
G1 X156.01 Y132.49 E379.131 F1080
G1 X156.09 Y132.97 F9000
G1 X143.38 Y145.68 E380.027 F1080
G1 X143.45 Y146.18 F9000
G1 X156.17 Y133.46 E380.925 F1080
G1 X156.26 Y133.94 F9000
G1 X143.52 Y146.68 E381.824 F1080
G1 X143.58 Y147.18 F9000
G1 X156.34 Y134.43 E382.724 F1080
G1 X156.42 Y134.91 F9000
G1 X143.65 Y147.68 E383.624 F1080
G1 X143.72 Y148.17 F9000
G1 X156.5 Y135.4 E384.526 F1080
G1 X156.58 Y135.88 F9000
G1 X143.79 Y148.67 E385.429 F1080
G1 X143.85 Y149.17 F9000
G1 X156.66 Y136.36 E386.332 F1080
G1 X156.74 Y136.85 F9000
G1 X143.92 Y149.67 E387.237 F1080
G1 X143.99 Y150.17 F9000
G1 X156.82 Y137.33 E388.142 F1080
G1 X156.9 Y137.82 F9000
G1 X144.05 Y150.67 E389.049 F1080
G1 X144.12 Y151.17 F9000
G1 X156.98 Y138.3 E389.957 F1080
G1 X157.07 Y138.79 F9000
G1 X144.19 Y151.66 E390.865 F1080
G1 X144.26 Y152.16 F9000
G1 X157.15 Y139.27 E391.775 F1080
G1 X157.23 Y139.76 F9000
G1 X144.32 Y152.66 E392.685 F1080
G1 X144.39 Y153.16 F9000
G1 X157.31 Y140.24 E393.597 F1080
G1 X157.39 Y140.73 F9000
G1 X144.46 Y153.66 E394.509 F1080
G1 X144.52 Y154.16 F9000
G1 X157.47 Y141.21 E395.423 F1080
G1 X157.55 Y141.7 F9000
G1 X144.59 Y154.66 E396.337 F1080
G1 X144.66 Y155.15 F9000
G1 X157.63 Y142.18 E397.253 F1080
G1 X157.71 Y142.66 F9000
G1 X144.73 Y155.65 E398.169 F1080
G1 X144.79 Y156.15 F9000
G1 X157.8 Y143.15 E399.087 F1080
G1 X157.88 Y143.63 F9000
G1 X144.86 Y156.65 E400.005 F1080
G1 X144.93 Y157.15 F9000
G1 X157.96 Y144.12 E400.924 F1080
G1 X158.04 Y144.6 F9000
G1 X144.99 Y157.65 E401.845 F1080
G1 X145.06 Y158.15 F9000
G1 X158.12 Y145.09 E402.766 F1080
G1 X158.2 Y145.57 F9000
G1 X145.13 Y158.64 E403.688 F1080
G1 X145.12 Y159.22 F9000
G1 X158.28 Y146.06 E404.617 F1080
G1 X158.36 Y146.54 F9000
G1 X144.74 Y160.17 E405.578 F1080
G1 X144.35 Y161.12 F9000
G1 X158.44 Y147.03 E406.573 F1080
G1 X158.53 Y147.51 F9000
G1 X143.97 Y162.07 E407.6 F1080
G1 X143.59 Y163.01 F9000
G1 X158.61 Y148 E408.659 F1080
G1 X158.69 Y148.48 F9000
G1 X143.2 Y163.96 E409.752 F1080
G1 X142.82 Y164.91 F9000
G1 X158.77 Y148.96 E410.877 F1080
G1 X158.85 Y149.45 F9000
G1 X142.44 Y165.86 E412.035 F1080
G1 X142.05 Y166.81 F9000
G1 X158.93 Y149.93 E413.226 F1080
G1 X159.01 Y150.42 F9000
G1 X141.67 Y167.76 E414.45 F1080
G1 X141.29 Y168.71 F9000
G1 X159.09 Y150.9 E415.706 F1080
G1 X159.17 Y151.39 F9000
G1 X140.9 Y169.66 E416.995 F1080
G1 X140.52 Y170.61 F9000
G1 X159.25 Y151.87 E418.317 F1080
G1 X159.34 Y152.36 F9000
G1 X140.14 Y171.56 E419.672 F1080
G1 X139.75 Y172.51 F9000
G1 X159.42 Y152.84 E421.059 F1080
G1 X159.5 Y153.33 F9000
G1 X139.37 Y173.46 E422.479 F1080
G1 X138.99 Y174.4 F9000
G1 X159.58 Y153.81 E423.932 F1080
G1 X159.66 Y154.29 F9000
G1 X138.6 Y175.35 E425.418 F1080
G1 X138.22 Y176.3 F9000
G1 X159.74 Y154.78 E426.937 F1080
G1 X159.82 Y155.26 F9000
G1 X137.83 Y177.25 E428.488 F1080
G1 X137.45 Y178.2 F9000
G1 X159.9 Y155.75 E430.072 F1080
G1 X159.98 Y156.23 F9000
G1 X137.07 Y179.15 E431.689 F1080
G1 X136.68 Y180.1 F9000
G1 X160.07 Y156.72 E433.339 F1080
G1 X160.15 Y157.2 F9000
G1 X136.3 Y181.05 E435.021 F1080
G1 X135.92 Y182 F9000
G1 X160.23 Y157.69 E436.736 F1080
G1 X160.31 Y158.17 F9000
G1 X135.53 Y182.95 E438.484 F1080
G1 X135.15 Y183.9 F9000
G1 X160.39 Y158.66 E440.265 F1080
G1 X160.47 Y159.14 F9000
G1 X134.77 Y184.84 E442.078 F1080
G1 X134.38 Y185.79 F9000
G1 X160.55 Y159.63 E443.925 F1080
G1 X160.63 Y160.11 F9000
G1 X134 Y186.74 E445.804 F1080
G1 X133.62 Y187.69 F9000
G1 X160.71 Y160.6 E447.716 F1080
G1 X160.76 Y161.11 F9000
G1 X133.23 Y188.64 E449.658 F1080
G1 X132.85 Y189.59 F9000
G1 X160.38 Y162.06 E451.6 F1080
G1 X160 Y163.01 F9000
G1 X132.47 Y190.54 E453.543 F1080
G1 X132.08 Y191.49 F9000
G1 X159.61 Y163.96 E455.485 F1080
G1 X159.23 Y164.91 F9000
G1 X131.7 Y192.44 E457.428 F1080
G1 E454.428 F1800
G1 Z0.8
G1 X145.04 Y158.34 F9000
G1 X132 Y62.62
G1 X131.62 Y61.57
G1 X128.76 Y61.12
G1 X96.23 Y61.42
G1 X95.06 Y63.67
G1 X81.36 Y76.47
G1 Z0.3
G1 E457.428 F1800
G1 X95.89 Y61.93 E458.453 F1080
G1 X95.81 Y62.59 F9000
G1 X81.24 Y77.15 E459.481 F1080
G1 X81.13 Y77.83 F9000
G1 X95.72 Y63.24 E460.51 F1080
G1 X95.63 Y63.89 F9000
G1 X81.02 Y78.51 E461.541 F1080
G1 X80.9 Y79.19 F9000
G1 X95.54 Y64.55 E462.574 F1080
G1 X95.45 Y65.2 F9000
G1 X80.79 Y79.87 E463.608 F1080
G1 X80.68 Y80.55 F9000
G1 X95.37 Y65.85 E464.645 F1080
G1 X95.28 Y66.51 F9000
G1 X80.56 Y81.22 E465.683 F1080
G1 X80.45 Y81.9 F9000
G1 X95.19 Y67.16 E466.723 F1080
G1 X95.1 Y67.82 F9000
G1 X80.33 Y82.58 E467.765 F1080
G1 X80.22 Y83.26 F9000
G1 X95.01 Y68.47 E468.809 F1080
G1 X94.92 Y69.12 F9000
G1 X80.11 Y83.94 E469.854 F1080
G1 X79.99 Y84.62 F9000
G1 X94.84 Y69.78 E470.902 F1080
G1 X94.75 Y70.43 F9000
G1 X79.88 Y85.3 E471.951 F1080
G1 X79.77 Y85.98 F9000
G1 X94.66 Y71.08 E473.002 F1080
G1 X94.57 Y71.74 F9000
G1 X79.65 Y86.66 E474.055 F1080
G1 X79.54 Y87.34 F9000
G1 X94.49 Y72.39 E475.109 F1080
G1 X94.4 Y73.05 F9000
G1 X79.43 Y88.02 E476.165 F1080
G1 X79.31 Y88.7 F9000
G1 X94.31 Y73.7 E477.224 F1080
G1 X94.22 Y74.35 F9000
G1 X79.2 Y89.38 E478.283 F1080
G1 X79.08 Y90.06 F9000
G1 X94.13 Y75.01 E479.345 F1080
G1 X94.04 Y75.66 F9000
G1 X78.97 Y90.74 E480.409 F1080
G1 X78.86 Y91.41 F9000
G1 X93.96 Y76.31 E481.474 F1080
G1 X93.87 Y76.97 F9000
G1 X78.74 Y92.09 E482.541 F1080
G1 X78.63 Y92.77 F9000
G1 X93.78 Y77.62 E483.61 F1080
G1 X93.69 Y78.28 F9000
G1 X78.52 Y93.45 E484.681 F1080
G1 X78.4 Y94.13 F9000
G1 X93.6 Y78.93 E485.754 F1080
G1 X93.52 Y79.58 F9000
G1 X78.29 Y94.81 E486.828 F1080
G1 X78.17 Y95.49 F9000
G1 X93.43 Y80.24 E487.904 F1080
G1 X93.34 Y80.89 F9000
G1 X78.06 Y96.17 E488.982 F1080
G1 X77.95 Y96.85 F9000
G1 X93.25 Y81.54 E490.062 F1080
G1 X93.16 Y82.2 F9000
G1 X77.83 Y97.53 E491.144 F1080
G1 X77.72 Y98.21 F9000
G1 X93.08 Y82.85 E492.227 F1080
G1 X92.99 Y83.51 F9000
G1 X77.61 Y98.89 E493.312 F1080
G1 X77.49 Y99.57 F9000
G1 X92.9 Y84.16 E494.399 F1080
G1 X92.81 Y84.81 F9000
G1 X77.38 Y100.25 E495.488 F1080
G1 X77.27 Y100.92 F9000
G1 X92.72 Y85.47 E496.579 F1080
G1 X92.64 Y86.12 F9000
G1 X77.15 Y101.6 E497.671 F1080
G1 X77.04 Y102.28 F9000
G1 X92.55 Y86.77 E498.766 F1080
G1 X92.46 Y87.43 F9000
G1 X76.93 Y102.96 E499.862 F1080
G1 X76.81 Y103.64 F9000
G1 X92.37 Y88.08 E500.96 F1080
G1 X92.28 Y88.74 F9000
G1 X76.7 Y104.32 E502.059 F1080
G1 X76.58 Y105 F9000
G1 X92.2 Y89.39 E503.161 F1080
G1 X92.11 Y90.04 F9000
G1 X76.47 Y105.68 E504.264 F1080
G1 X76.36 Y106.36 F9000
G1 X92.02 Y90.7 E505.369 F1080
G1 X91.93 Y91.35 F9000
G1 X76.24 Y107.04 E506.476 F1080
G1 X76.13 Y107.72 F9000
G1 X91.84 Y92 E507.585 F1080
G1 X91.76 Y92.66 F9000
G1 X76.02 Y108.4 E508.695 F1080
G1 X75.9 Y109.08 F9000
G1 X91.67 Y93.31 E509.808 F1080
G1 X91.58 Y93.97 F9000
G1 X75.79 Y109.76 E510.922 F1080
G1 X75.68 Y110.44 F9000
G1 X91.49 Y94.62 E512.038 F1080
G1 X91.4 Y95.27 F9000
G1 X75.56 Y111.11 E513.155 F1080
G1 X75.45 Y111.79 F9000
G1 X91.32 Y95.93 E514.275 F1080
G1 X91.23 Y96.58 F9000
G1 X75.33 Y112.47 E515.396 F1080
G1 X75.22 Y113.15 F9000
G1 X91.14 Y97.23 E516.519 F1080
G1 X91.05 Y97.89 F9000
G1 X75.11 Y113.83 E517.644 F1080
G1 X74.99 Y114.51 F9000
G1 X90.96 Y98.54 E518.771 F1080
G1 X90.88 Y99.2 F9000
G1 X74.88 Y115.19 E519.9 F1080
G1 X74.77 Y115.87 F9000
G1 X90.79 Y99.85 E521.03 F1080
G1 X90.7 Y100.5 F9000
G1 X74.65 Y116.55 E522.162 F1080
G1 X74.54 Y117.23 F9000
G1 X90.61 Y101.16 E523.296 F1080
G1 X90.52 Y101.81 F9000
G1 X74.43 Y117.91 E524.432 F1080
G1 X74.31 Y118.59 F9000
G1 X90.44 Y102.46 E525.57 F1080
G1 X90.35 Y103.12 F9000
G1 X74.2 Y119.27 E526.709 F1080
G1 X74.08 Y119.95 F9000
G1 X90.26 Y103.77 E527.85 F1080
G1 X90.17 Y104.42 F9000
G1 X73.97 Y120.63 E528.993 F1080
G1 X73.86 Y121.3 F9000
G1 X90.08 Y105.08 E530.138 F1080
G1 X89.99 Y105.73 F9000
G1 X73.74 Y121.98 E531.285 F1080
G1 X73.63 Y122.66 F9000
G1 X89.91 Y106.39 E532.433 F1080
G1 X89.82 Y107.04 F9000
G1 X73.52 Y123.34 E533.584 F1080
G1 X73.4 Y124.02 F9000
G1 X89.73 Y107.69 E534.736 F1080
G1 X89.64 Y108.35 F9000
G1 X73.29 Y124.7 E535.889 F1080
G1 X73.18 Y125.38 F9000
G1 X89.56 Y109 E537.045 F1080
G1 X89.47 Y109.65 F9000
G1 X73.06 Y126.06 E538.203 F1080
G1 X72.95 Y126.74 F9000
G1 X89.38 Y110.31 E539.362 F1080
G1 X89.29 Y110.96 F9000
G1 X72.83 Y127.42 E540.523 F1080
G1 X72.72 Y128.1 F9000
G1 X89.2 Y111.62 E541.686 F1080
G1 X89.11 Y112.27 F9000
G1 X72.61 Y128.78 E542.851 F1080
G1 X72.49 Y129.46 F9000
G1 X89.03 Y112.92 E544.017 F1080
G1 X88.94 Y113.58 F9000
G1 X72.38 Y130.14 E545.185 F1080
G1 X72.27 Y130.81 F9000
G1 X88.85 Y114.23 E546.355 F1080
G1 X88.76 Y114.88 F9000
G1 X72.15 Y131.49 E547.527 F1080
G1 X72.04 Y132.17 F9000
G1 X88.67 Y115.54 E548.701 F1080
G1 X88.59 Y116.19 F9000
G1 X71.93 Y132.85 E549.877 F1080
G1 X71.81 Y133.53 F9000
G1 X88.5 Y116.85 E551.054 F1080
G1 X88.41 Y117.5 F9000
G1 X71.7 Y134.21 E552.233 F1080
G1 X71.58 Y134.89 F9000
G1 X88.32 Y118.15 E553.414 F1080
G1 X88.23 Y118.81 F9000
G1 X71.47 Y135.57 E554.597 F1080
G1 X71.36 Y136.25 F9000
G1 X88.15 Y119.46 E555.781 F1080
G1 X88.06 Y120.11 F9000
G1 X71.24 Y136.93 E556.968 F1080
G1 X71.13 Y137.61 F9000
G1 X87.97 Y120.77 E558.156 F1080
G1 X87.88 Y121.42 F9000
G1 X71.02 Y138.29 E559.346 F1080
G1 X70.9 Y138.97 F9000
G1 X87.79 Y122.07 E560.538 F1080
G1 X87.71 Y122.73 F9000
G1 X70.79 Y139.65 E561.731 F1080
G1 X70.68 Y140.33 F9000
G1 X87.62 Y123.38 E562.927 F1080
G1 X87.53 Y124.04 F9000
G1 X70.56 Y141 E564.124 F1080
G1 X70.45 Y141.68 F9000
G1 X87.44 Y124.69 E565.323 F1080
G1 X87.35 Y125.34 F9000
G1 X70.33 Y142.36 E566.524 F1080
G1 X70.22 Y143.04 F9000
G1 X87.27 Y126 E567.726 F1080
G1 X87.18 Y126.65 F9000
G1 X70.11 Y143.72 E568.931 F1080
G1 X69.99 Y144.4 F9000
G1 X87.09 Y127.3 E570.137 F1080
G1 X87 Y127.96 F9000
G1 X69.88 Y145.08 E571.345 F1080
G1 X69.77 Y145.76 F9000
G1 X86.91 Y128.61 E572.555 F1080
G1 X86.83 Y129.27 F9000
G1 X69.65 Y146.44 E573.767 F1080
G1 X69.54 Y147.12 F9000
G1 X86.74 Y129.92 E574.98 F1080
G1 X86.65 Y130.57 F9000
G1 X69.43 Y147.8 E576.195 F1080
G1 X69.31 Y148.48 F9000
G1 X86.56 Y131.23 E577.412 F1080
G1 X86.47 Y131.88 F9000
G1 X69.2 Y149.16 E578.631 F1080
G1 X69.08 Y149.84 F9000
G1 X86.39 Y132.53 E579.852 F1080
G1 X86.3 Y133.19 F9000
G1 X68.97 Y150.51 E581.074 F1080
G1 X68.86 Y151.19 F9000
G1 X86.21 Y133.84 E582.299 F1080
G1 X86.12 Y134.5 F9000
G1 X68.74 Y151.87 E583.525 F1080
G1 X68.63 Y152.55 F9000
G1 X86.03 Y135.15 E584.753 F1080
G1 X85.95 Y135.8 F9000
G1 X68.52 Y153.23 E585.982 F1080
G1 X68.4 Y153.91 F9000
G1 X85.86 Y136.46 E587.214 F1080
G1 X85.77 Y137.11 F9000
G1 X68.29 Y154.59 E588.447 F1080
G1 X68.18 Y155.27 F9000
G1 X85.68 Y137.76 E589.682 F1080
G1 X85.59 Y138.42 F9000
G1 X68.06 Y155.95 E590.919 F1080
G1 X67.95 Y156.63 F9000
G1 X85.51 Y139.07 E592.158 F1080
G1 X85.42 Y139.73 F9000
G1 X67.83 Y157.31 E593.399 F1080
G1 X67.72 Y157.99 F9000
G1 X85.33 Y140.38 E594.641 F1080
G1 X85.24 Y141.03 F9000
G1 X67.61 Y158.67 E595.885 F1080
G1 X67.49 Y159.35 F9000
G1 X85.15 Y141.69 E597.131 F1080
G1 X85.06 Y142.34 F9000
G1 X67.38 Y160.03 E598.379 F1080
G1 X67.27 Y160.7 F9000
G1 X84.98 Y142.99 E599.628 F1080
G1 X84.89 Y143.65 F9000
G1 X67.29 Y161.25 E600.87 F1080
G1 X67.45 Y161.65 F9000
G1 X84.8 Y144.3 E602.094 F1080
G1 X84.71 Y144.96 F9000
G1 X67.61 Y162.05 E603.301 F1080
G1 X67.78 Y162.46 F9000
G1 X84.63 Y145.61 E604.489 F1080
G1 X84.54 Y146.26 F9000
G1 X67.94 Y162.86 E605.66 F1080
G1 X68.1 Y163.26 F9000
G1 X84.45 Y146.92 E606.813 F1080
G1 X84.36 Y147.57 F9000
G1 X68.27 Y163.66 E607.949 F1080
G1 X68.43 Y164.07 F9000
G1 X84.27 Y148.22 E609.067 F1080
G1 X84.18 Y148.88 F9000
G1 X68.59 Y164.47 E610.167 F1080
G1 X68.75 Y164.87 F9000
G1 X84.1 Y149.53 E611.249 F1080
G1 X84.01 Y150.19 F9000
G1 X68.92 Y165.28 E612.314 F1080
G1 X69.08 Y165.68 F9000
G1 X83.92 Y150.84 E613.361 F1080
G1 X83.83 Y151.49 F9000
G1 X69.24 Y166.08 E614.391 F1080
G1 X69.41 Y166.48 F9000
G1 X83.74 Y152.15 E615.402 F1080
G1 X83.66 Y152.8 F9000
G1 X69.57 Y166.89 E616.396 F1080
G1 X69.73 Y167.29 F9000
G1 X83.57 Y153.45 E617.372 F1080
G1 X83.48 Y154.11 F9000
G1 X69.89 Y167.69 E618.331 F1080
G1 X70.06 Y168.1 F9000
G1 X83.39 Y154.76 E619.272 F1080
G1 X83.3 Y155.41 F9000
G1 X70.22 Y168.5 E620.195 F1080
G1 X70.38 Y168.9 F9000
G1 X83.22 Y156.07 E621.101 F1080
G1 X83.13 Y156.72 F9000
G1 X70.55 Y169.31 E621.988 F1080
G1 X70.71 Y169.71 F9000
G1 X83.04 Y157.38 E622.859 F1080
G1 X82.95 Y158.03 F9000
G1 X70.87 Y170.11 E623.711 F1080
G1 X71.03 Y170.51 F9000
G1 X82.86 Y158.68 E624.546 F1080
G1 X82.88 Y159.23 F9000
G1 X71.2 Y170.92 E625.37 F1080
G1 X71.36 Y171.32 F9000
G1 X83.05 Y159.63 E626.195 F1080
G1 X83.21 Y160.04 F9000
G1 X71.52 Y171.72 E627.019 F1080
G1 X71.69 Y172.13 F9000
G1 X83.37 Y160.44 E627.844 F1080
G1 X83.53 Y160.84 F9000
G1 X71.85 Y172.53 E628.668 F1080
G1 X72.01 Y172.93 F9000
G1 X83.7 Y161.25 E629.493 F1080
G1 X83.86 Y161.65 F9000
G1 X72.17 Y173.33 E630.317 F1080
G1 X72.34 Y173.74 F9000
G1 X84.02 Y162.05 E631.142 F1080
G1 X84.19 Y162.45 F9000
G1 X72.5 Y174.14 E631.966 F1080
G1 X72.66 Y174.54 F9000
G1 X84.35 Y162.86 E632.791 F1080
G1 X84.51 Y163.26 F9000
G1 X72.82 Y174.95 E633.615 F1080
G1 X72.99 Y175.35 F9000
G1 X84.67 Y163.66 E634.44 F1080
G1 X84.84 Y164.07 F9000
G1 X73.15 Y175.75 E635.264 F1080
G1 X73.31 Y176.15 F9000
G1 X85 Y164.47 E636.089 F1080
G1 X85.16 Y164.87 F9000
G1 X73.48 Y176.56 E636.913 F1080
G1 X73.64 Y176.96 F9000
G1 X85.32 Y165.27 E637.738 F1080
G1 X85.49 Y165.68 F9000
G1 X73.8 Y177.36 E638.562 F1080
G1 X73.96 Y177.77 F9000
G1 X85.65 Y166.08 E639.387 F1080
G1 X85.81 Y166.48 F9000
G1 X74.13 Y178.17 E640.211 F1080
G1 X74.29 Y178.57 F9000
G1 X85.98 Y166.89 E641.036 F1080
G1 X86.14 Y167.29 F9000
G1 X74.45 Y178.98 E641.86 F1080
G1 X74.62 Y179.38 F9000
G1 X86.3 Y167.69 E642.685 F1080
G1 X86.46 Y168.09 F9000
G1 X74.78 Y179.78 E643.509 F1080
G1 X74.94 Y180.18 F9000
G1 X86.63 Y168.5 E644.334 F1080
G1 X86.79 Y168.9 F9000
G1 X75.1 Y180.59 E645.158 F1080
G1 X75.27 Y180.99 F9000
G1 X86.95 Y169.3 E645.983 F1080
G1 X87.11 Y169.71 F9000
G1 X75.43 Y181.39 E646.807 F1080
G1 X75.59 Y181.8 F9000
G1 X87.28 Y170.11 E647.632 F1080
G1 X87.44 Y170.51 F9000
G1 X75.75 Y182.2 E648.457 F1080
G1 X75.92 Y182.6 F9000
G1 X87.6 Y170.91 E649.281 F1080
G1 X87.77 Y171.32 F9000
G1 X76.08 Y183 E650.106 F1080
G1 X76.24 Y183.41 F9000
G1 X87.93 Y171.72 E650.93 F1080
G1 X88.09 Y172.12 F9000
G1 X76.41 Y183.81 E651.755 F1080
G1 X76.57 Y184.21 F9000
G1 X88.25 Y172.53 E652.579 F1080
G1 X88.42 Y172.93 F9000
G1 X76.73 Y184.62 E653.404 F1080
G1 X76.89 Y185.02 F9000
G1 X88.58 Y173.33 E654.228 F1080
G1 X88.74 Y173.73 F9000
G1 X77.06 Y185.42 E655.053 F1080
G1 X77.22 Y185.82 F9000
G1 X88.91 Y174.14 E655.877 F1080
G1 X89.07 Y174.54 F9000
G1 X77.38 Y186.23 E656.702 F1080
G1 X77.55 Y186.63 F9000
G1 X89.23 Y174.94 E657.526 F1080
G1 X89.39 Y175.35 F9000
G1 X77.71 Y187.03 E658.351 F1080
G1 X77.87 Y187.44 F9000
G1 X89.56 Y175.75 E659.175 F1080
G1 X89.72 Y176.15 F9000
G1 X78.03 Y187.84 E660 F1080
G1 X78.2 Y188.24 F9000
G1 X89.88 Y176.56 E660.824 F1080
G1 X90.05 Y176.96 F9000
G1 X78.36 Y188.64 E661.649 F1080
G1 X78.52 Y189.05 F9000
G1 X90.21 Y177.36 E662.473 F1080
G1 X90.37 Y177.76 F9000
G1 X78.68 Y189.45 E663.298 F1080
G1 X78.85 Y189.85 F9000
G1 X90.53 Y178.17 E664.122 F1080
G1 X90.7 Y178.57 F9000
G1 X79.01 Y190.26 E664.947 F1080
G1 X79.17 Y190.66 F9000
G1 X90.86 Y178.97 E665.772 F1080
G1 X91.02 Y179.38 F9000
G1 X79.34 Y191.06 E666.596 F1080
G1 X79.5 Y191.46 F9000
G1 X91.18 Y179.78 E667.421 F1080
G1 X91.35 Y180.18 F9000
G1 X79.66 Y191.87 E668.245 F1080
G1 X79.82 Y192.27 F9000
G1 X91.51 Y180.58 E669.07 F1080
G1 X91.67 Y180.99 F9000
G1 X79.99 Y192.67 E669.894 F1080
G1 X80.15 Y193.08 F9000
G1 X91.84 Y181.39 E670.719 F1080
G1 X92 Y181.79 F9000
G1 X80.31 Y193.48 E671.543 F1080
G1 X80.48 Y193.88 F9000
G1 X92.16 Y182.2 E672.368 F1080
G1 X92.32 Y182.6 F9000
G1 X80.64 Y194.28 E673.192 F1080
G1 X80.8 Y194.69 F9000
G1 X92.49 Y183 E674.017 F1080
G1 X92.65 Y183.4 F9000
G1 X80.96 Y195.09 E674.841 F1080
G1 X81.13 Y195.49 F9000
G1 X92.81 Y183.81 E675.666 F1080
G1 X92.98 Y184.21 F9000
G1 X81.29 Y195.9 E676.49 F1080
G1 X81.45 Y196.3 F9000
G1 X93.14 Y184.61 E677.315 F1080
G1 X93.3 Y185.02 F9000
G1 X81.61 Y196.7 E678.139 F1080
G1 X81.78 Y197.11 F9000
G1 X93.46 Y185.42 E678.964 F1080
G1 X93.63 Y185.82 F9000
G1 X81.94 Y197.51 E679.788 F1080
G1 X82.1 Y197.91 F9000
G1 X93.79 Y186.23 E680.613 F1080
G1 X93.95 Y186.63 F9000
G1 X82.27 Y198.31 E681.437 F1080
G1 X82.43 Y198.72 F9000
G1 X94.12 Y187.03 E682.262 F1080
G1 X94.28 Y187.43 F9000
G1 X82.59 Y199.12 E683.086 F1080
G1 X82.75 Y199.52 F9000
G1 X94.44 Y187.84 E683.911 F1080
G1 X94.6 Y188.24 F9000
G1 X82.92 Y199.93 E684.735 F1080
G1 X83.08 Y200.33 F9000
G1 X94.77 Y188.64 E685.56 F1080
G1 X94.93 Y189.04 F9000
G1 X83.24 Y200.73 E686.384 F1080
G1 X83.41 Y201.13 F9000
G1 X95.09 Y189.45 E687.209 F1080
G1 X95.25 Y189.85 F9000
G1 X83.57 Y201.54 E688.033 F1080
G1 X83.73 Y201.94 F9000
G1 X95.42 Y190.25 E688.858 F1080
G1 X95.58 Y190.66 F9000
G1 X83.89 Y202.34 E689.682 F1080
G1 X84.06 Y202.75 F9000
G1 X95.74 Y191.06 E690.507 F1080
G1 X95.91 Y191.46 F9000
G1 X84.22 Y203.15 E691.331 F1080
G1 X84.38 Y203.55 F9000
G1 X96.07 Y191.87 E692.156 F1080
G1 X96.23 Y192.27 F9000
G1 X84.55 Y203.95 E692.98 F1080
G1 X84.71 Y204.36 F9000
G1 X96.39 Y192.67 E693.805 F1080
G1 X96.71 Y192.92 F9000
G1 X84.87 Y204.76 E694.64 F1080
G1 X85.03 Y205.16 F9000
G1 X97.28 Y192.92 E695.505 F1080
G1 X97.85 F9000
G1 X85.2 Y205.57 E696.397 F1080
G1 X85.36 Y205.97 F9000
G1 X98.41 Y192.92 E697.318 F1080
G1 X98.98 F9000
G1 X85.52 Y206.37 E698.267 F1080
G1 X85.68 Y206.77 F9000
G1 X99.54 Y192.92 E699.245 F1080
G1 X100.11 F9000
G1 X85.85 Y207.18 E700.251 F1080
G1 X86.01 Y207.58 F9000
G1 X100.67 Y192.92 E701.285 F1080
G1 X101.24 F9000
G1 X86.17 Y207.98 E702.348 F1080
G1 X86.59 Y208.13 F9000
G1 X101.8 Y192.92 E703.422 F1080
G1 X102.37 F9000
G1 X87.16 Y208.13 E704.495 F1080
G1 X87.72 F9000
G1 X102.94 Y192.92 E705.569 F1080
G1 X103.5 F9000
G1 X88.29 Y208.13 E706.642 F1080
G1 X88.85 F9000
G1 X104.07 Y192.92 E707.715 F1080
G1 X104.63 F9000
G1 X89.42 Y208.13 E708.789 F1080
G1 X89.99 F9000
G1 X105.2 Y192.92 E709.862 F1080
G1 X105.76 F9000
G1 X90.55 Y208.13 E710.935 F1080
G1 X91.12 F9000
G1 X106.33 Y192.92 E712.009 F1080
G1 X106.9 F9000
G1 X91.68 Y208.13 E713.082 F1080
G1 X92.25 F9000
G1 X107.46 Y192.92 E714.156 F1080
G1 X108.03 F9000
G1 X92.81 Y208.13 E715.229 F1080
G1 X93.38 F9000
G1 X108.59 Y192.92 E716.302 F1080
G1 X109.16 F9000
G1 X93.95 Y208.13 E717.376 F1080
G1 X94.51 F9000
G1 X109.72 Y192.92 E718.449 F1080
G1 X110.29 F9000
G1 X95.08 Y208.13 E719.522 F1080
G1 X95.64 F9000
G1 X110.86 Y192.92 E720.596 F1080
G1 X111.42 F9000
G1 X96.21 Y208.13 E721.669 F1080
G1 X96.77 F9000
G1 X111.99 Y192.92 E722.743 F1080
G1 X112.55 F9000
G1 X97.34 Y208.13 E723.816 F1080
G1 X97.91 F9000
G1 X113.12 Y192.92 E724.889 F1080
G1 X113.68 F9000
G1 X98.47 Y208.13 E725.963 F1080
G1 X99.04 F9000
G1 X114.25 Y192.92 E727.036 F1080
G1 X114.82 F9000
G1 X99.6 Y208.13 E728.109 F1080
G1 X100.17 F9000
G1 X115.38 Y192.92 E729.183 F1080
G1 X115.95 F9000
G1 X100.73 Y208.13 E730.256 F1080
G1 X101.3 F9000
G1 X116.51 Y192.92 E731.33 F1080
G1 X117.08 F9000
G1 X101.87 Y208.13 E732.403 F1080
G1 X102.43 F9000
G1 X117.64 Y192.92 E733.476 F1080
G1 X118.21 F9000
G1 X103 Y208.13 E734.55 F1080
G1 X103.56 F9000
G1 X118.78 Y192.92 E735.623 F1080
G1 X119.34 F9000
G1 X104.13 Y208.13 E736.696 F1080
G1 X104.69 F9000
G1 X119.91 Y192.92 E737.77 F1080
G1 X120.47 F9000
G1 X105.26 Y208.13 E738.843 F1080
G1 X105.82 F9000
G1 X121.04 Y192.92 E739.917 F1080
G1 X121.6 F9000
G1 X106.39 Y208.13 E740.99 F1080
G1 X106.96 F9000
G1 X122.17 Y192.92 E742.063 F1080
G1 X122.74 F9000
G1 X107.52 Y208.13 E743.137 F1080
G1 X108.09 F9000
G1 X123.3 Y192.92 E744.21 F1080
G1 X123.87 F9000
G1 X108.65 Y208.13 E745.283 F1080
G1 X109.22 F9000
G1 X124.43 Y192.92 E746.357 F1080
G1 X125 F9000
G1 X109.78 Y208.13 E747.43 F1080
G1 X110.35 F9000
G1 X125.56 Y192.92 E748.504 F1080
G1 X126.13 F9000
G1 X110.92 Y208.13 E749.577 F1080
G1 X111.48 F9000
G1 X126.7 Y192.92 E750.65 F1080
G1 X127.26 F9000
G1 X112.05 Y208.13 E751.724 F1080
G1 X112.61 F9000
G1 X127.83 Y192.92 E752.797 F1080
G1 X128.39 F9000
G1 X113.18 Y208.13 E753.87 F1080
G1 X113.74 F9000
G1 X128.96 Y192.92 E754.944 F1080
G1 X129.52 F9000
G1 X114.31 Y208.13 E756.017 F1080
G1 X114.88 F9000
G1 X130.09 Y192.92 E757.09 F1080
G1 X130.65 F9000
G1 X115.44 Y208.13 E758.164 F1080
G1 X116.01 F9000
G1 X131.22 Y192.92 E759.237 F1080
G1 E756.237 F1800
G1 Z0.8
G1 X116.57 Y208.13 F9000
G1 Z0.3
G1 E759.237 F1800
G1 X158.85 Y165.86 E762.22 F1080
G1 X158.46 Y166.81 F9000
G1 X117.14 Y208.13 E765.135 F1080
G1 X117.7 F9000
G1 X158.08 Y167.76 E767.984 F1080
G1 X157.7 Y168.7 F9000
G1 X118.27 Y208.13 E770.766 F1080
G1 X118.84 F9000
G1 X157.31 Y169.65 E773.481 F1080
G1 X156.93 Y170.6 F9000
G1 X119.4 Y208.13 E776.128 F1080
G1 X119.97 F9000
G1 X156.55 Y171.55 E778.709 F1080
G1 X156.16 Y172.5 F9000
G1 X120.53 Y208.13 E781.223 F1080
G1 X121.1 F9000
G1 X155.78 Y173.45 E783.67 F1080
G1 X155.4 Y174.4 F9000
G1 X121.66 Y208.13 E786.05 F1080
G1 X122.23 F9000
G1 X155.01 Y175.35 E788.363 F1080
G1 X154.63 Y176.3 F9000
G1 X122.8 Y208.13 E790.609 F1080
G1 X123.36 F9000
G1 X154.24 Y177.25 E792.788 F1080
G1 X153.86 Y178.2 F9000
G1 X123.93 Y208.13 E794.9 F1080
G1 X124.49 F9000
G1 X153.48 Y179.15 E796.945 F1080
G1 X153.09 Y180.09 F9000
G1 X125.06 Y208.13 E798.923 F1080
G1 X125.62 F9000
G1 X152.71 Y181.04 E800.834 F1080
G1 X152.33 Y181.99 F9000
G1 X126.19 Y208.13 E802.678 F1080
G1 X126.76 F9000
G1 X151.94 Y182.94 E804.455 F1080
G1 X151.56 Y183.89 F9000
G1 X127.32 Y208.13 E806.166 F1080
G1 X127.89 F9000
G1 X151.18 Y184.84 E807.809 F1080
G1 X150.79 Y185.79 F9000
G1 X128.45 Y208.13 E809.385 F1080
G1 X129.02 F9000
G1 X150.41 Y186.74 E810.895 F1080
G1 X150.03 Y187.69 F9000
G1 X129.58 Y208.13 E812.337 F1080
G1 X130.15 F9000
G1 X149.64 Y188.64 E813.712 F1080
G1 X149.26 Y189.59 F9000
G1 X130.72 Y208.13 E815.021 F1080
G1 X131.28 F9000
G1 X148.88 Y190.54 E816.262 F1080
G1 X148.49 Y191.48 F9000
G1 X131.85 Y208.13 E817.437 F1080
G1 X132.41 F9000
G1 X148.11 Y192.43 E818.544 F1080
G1 X147.73 Y193.38 F9000
G1 X132.98 Y208.13 E819.585 F1080
G1 X133.54 F9000
G1 X147.34 Y194.33 E820.558 F1080
G1 X146.96 Y195.28 F9000
G1 X134.11 Y208.13 E821.465 F1080
G1 X134.67 F9000
G1 X146.57 Y196.23 E822.304 F1080
G1 X146.19 Y197.18 F9000
G1 X135.24 Y208.13 E823.077 F1080
G1 X135.81 F9000
G1 X145.81 Y198.13 E823.783 F1080
G1 X145.42 Y199.08 F9000
G1 X136.37 Y208.13 E824.421 F1080
G1 X136.94 F9000
G1 X145.04 Y200.03 E824.993 F1080
G1 X144.66 Y200.98 F9000
G1 X137.5 Y208.13 E825.498 F1080
G1 X138.07 F9000
G1 X144.27 Y201.93 E825.936 F1080
G1 X143.89 Y202.87 F9000
G1 X138.63 Y208.13 E826.307 F1080
G1 X139.2 F9000
G1 X143.51 Y203.82 E826.61 F1080
G1 X143.12 Y204.77 F9000
G1 X139.77 Y208.13 E826.847 F1080
G1 X140.33 F9000
G1 X142.74 Y205.72 E827.017 F1080
G1 X142.36 Y206.67 F9000
G1 X140.9 Y208.13 E827.12 F1080
G1 X141.46 F9000
G1 X141.97 Y207.62 E827.156 F1080
G1 E824.156 F1800
G1 Z0.8
G1 X130.87 Y191.98 F9000
G1 X130.54 Y191.48
G1 X130.09 Y191.03
G1 X129.55 Y190.02
G1 X129.42 Y189.82
; TYPE:WALL-OUTER
G1 Z0.3
G1 E827.156 F1800
G1 X98.58 E828.695 F1080
G1 X85.99 Y158.66 E830.371
G1 X98.72 Y64.18 E835.128
G1 X129.28 E836.652
G1 X142.01 Y158.66 E841.409
G1 X129.43 Y189.78 E843.083
G1 X129.42 Y189.82
G1 X126.42
G1 X129.15 Y189.42 F9000
; TYPE:WALL-INNER
G1 X98.85 E844.595 F1080
G1 X86.4 Y158.61 E846.253
G1 X99.07 Y64.58 E850.986
G1 X128.93 E852.476
G1 X141.6 Y158.61 E857.21
G1 X129.16 Y189.38 E858.866
G1 X129.15 Y189.42
G1 X128.83 Y189.08 F9000
; TYPE:BOTTOM-FILL
G1 X128.97 Y188.94 E858.876 F1080
G1 X128.27 Y189.08 F9000
G1 X129.36 Y187.99 E858.953 F1080
G1 X129.74 Y187.04 F9000
G1 X127.7 Y189.08 E859.096 F1080
G1 X127.14 F9000
G1 X130.13 Y186.09 E859.307 F1080
G1 X130.51 Y185.14 F9000
G1 X126.57 Y189.08 E859.585 F1080
G1 X126.01 F9000
G1 X130.89 Y184.19 E859.93 F1080
G1 X131.28 Y183.24 F9000
G1 X125.44 Y189.08 E860.342 F1080
G1 X124.88 F9000
G1 X131.66 Y182.3 E860.82 F1080
G1 X132.04 Y181.35 F9000
G1 X124.31 Y189.08 E861.366 F1080
G1 X123.74 F9000
G1 X132.43 Y180.4 E861.979 F1080
G1 X132.81 Y179.45 F9000
G1 X123.18 Y189.08 E862.658 F1080
G1 X122.61 F9000
G1 X133.19 Y178.5 E863.405 F1080
G1 X133.58 Y177.55 F9000
G1 X122.05 Y189.08 E864.218 F1080
G1 X121.48 F9000
G1 X133.96 Y176.6 E865.099 F1080
G1 X134.34 Y175.65 F9000
G1 X120.92 Y189.08 E866.046 F1080
G1 X120.35 F9000
G1 X134.73 Y174.7 E867.061 F1080
G1 X135.11 Y173.75 F9000
G1 X119.78 Y189.08 E868.142 F1080
G1 X119.22 F9000
G1 X135.5 Y172.8 E869.291 F1080
G1 X135.88 Y171.85 F9000
G1 X118.65 Y189.08 E870.506 F1080
G1 X118.09 F9000
G1 X136.26 Y170.9 E871.789 F1080
G1 X136.65 Y169.96 F9000
G1 X117.52 Y189.08 E873.138 F1080
G1 X116.96 F9000
G1 X137.03 Y169.01 E874.554 F1080
G1 X137.41 Y168.06 F9000
G1 X116.39 Y189.08 E876.038 F1080
G1 X115.82 F9000
G1 X137.8 Y167.11 E877.588 F1080
G1 X138.18 Y166.16 F9000
G1 X115.26 Y189.08 E879.205 F1080
G1 X114.69 F9000
G1 X138.56 Y165.21 E880.89 F1080
G1 X138.95 Y164.26 F9000
G1 X114.13 Y189.08 E882.641 F1080
G1 X113.56 F9000
G1 X139.33 Y163.31 E884.459 F1080
G1 X139.72 Y162.36 F9000
G1 X113 Y189.08 E886.344 F1080
G1 X112.43 F9000
G1 X140.1 Y161.41 E888.296 F1080
G1 X140.48 Y160.46 F9000
G1 X111.86 Y189.08 E890.316 F1080
G1 X111.3 F9000
G1 X140.87 Y159.51 E892.402 F1080
G1 X141.25 Y158.57 F9000
G1 X110.73 Y189.08 E894.555 F1080
G1 X110.17 F9000
G1 X141.18 Y158.07 E896.743 F1080
G1 X141.11 Y157.57 F9000
G1 X109.6 Y189.08 E898.966 F1080
G1 X109.04 F9000
G1 X141.05 Y157.07 E901.225 F1080
G1 X140.98 Y156.57 F9000
G1 X108.47 Y189.08 E903.518 F1080
G1 X107.9 F9000
G1 X140.91 Y156.07 E905.847 F1080
G1 X140.85 Y155.57 F9000
G1 X107.34 Y189.08 E908.211 F1080
G1 X106.77 F9000
G1 X140.78 Y155.08 E910.611 F1080
G1 X140.71 Y154.58 F9000
G1 X106.21 Y189.08 E913.045 F1080
G1 X105.64 F9000
G1 X140.64 Y154.08 E915.515 F1080
G1 X140.58 Y153.58 F9000
G1 X105.08 Y189.08 E918.019 F1080
G1 X104.51 F9000
G1 X140.51 Y153.08 E920.559 F1080
G1 X140.44 Y152.58 F9000
G1 X103.94 Y189.08 E923.134 F1080
G1 X103.38 F9000
G1 X140.37 Y152.08 E925.745 F1080
G1 X140.31 Y151.59 F9000
G1 X102.81 Y189.08 E928.39 F1080
G1 X102.25 F9000
G1 X140.24 Y151.09 E931.071 F1080
G1 X140.17 Y150.59 F9000
G1 X101.68 Y189.08 E933.786 F1080
G1 X101.12 F9000
G1 X140.11 Y150.09 E936.537 F1080
G1 X140.04 Y149.59 F9000
G1 X100.55 Y189.08 E939.323 F1080
G1 X99.98 F9000
G1 X139.97 Y149.09 E942.145 F1080
G1 X139.9 Y148.59 F9000
G1 X99.42 Y189.08 E945.001 F1080
G1 X99.02 Y188.92 F9000
G1 X139.84 Y148.1 E947.881 F1080
G1 X139.77 Y147.6 F9000
G1 X98.85 Y188.52 E950.768 F1080
G1 X98.69 Y188.11 F9000
G1 X139.7 Y147.1 E953.662 F1080
G1 X139.64 Y146.6 F9000
G1 X98.53 Y187.71 E956.563 F1080
G1 X98.36 Y187.31 F9000
G1 X139.57 Y146.1 E959.47 F1080
G1 X139.5 Y145.6 F9000
G1 X98.2 Y186.9 E962.384 F1080
G1 X98.04 Y186.5 F9000
G1 X139.44 Y145.1 E965.304 F1080
G1 X139.37 Y144.61 F9000
G1 X97.88 Y186.1 E968.232 F1080
G1 X97.71 Y185.7 F9000
G1 X139.3 Y144.11 E971.166 F1080
G1 X139.23 Y143.61 F9000
G1 X97.55 Y185.29 E974.107 F1080
G1 X97.39 Y184.89 F9000
G1 X139.17 Y143.11 E977.055 F1080
G1 X139.1 Y142.61 F9000
G1 X97.23 Y184.49 E980.009 F1080
G1 X97.06 Y184.08 F9000
G1 X139.03 Y142.11 E982.971 F1080
G1 X138.96 Y141.62 F9000
G1 X96.9 Y183.68 E985.938 F1080
G1 X96.74 Y183.28 F9000
G1 X138.9 Y141.12 E988.913 F1080
G1 X138.83 Y140.62 F9000
G1 X96.57 Y182.87 E991.895 F1080
G1 X96.41 Y182.47 F9000
G1 X138.76 Y140.12 E994.883 F1080
G1 X138.7 Y139.62 F9000
G1 X96.25 Y182.07 E997.878 F1080
G1 X96.09 Y181.67 F9000
G1 X138.63 Y139.12 E1000.879 F1080
G1 X138.56 Y138.62 F9000
G1 X95.92 Y181.26 E1003.888 F1080
G1 X95.76 Y180.86 F9000
G1 X138.49 Y138.13 E1006.903 F1080
G1 X138.43 Y137.63 F9000
G1 X95.6 Y180.46 E1009.925 F1080
G1 X95.43 Y180.05 F9000
G1 X138.36 Y137.13 E1012.954 F1080
G1 X138.29 Y136.63 F9000
G1 X95.27 Y179.65 E1015.989 F1080
G1 X95.11 Y179.25 F9000
G1 X138.23 Y136.13 E1019.031 F1080
G1 X138.16 Y135.63 F9000
G1 X94.95 Y178.85 E1022.08 F1080
G1 X94.78 Y178.44 F9000
G1 X138.09 Y135.13 E1025.136 F1080
G1 X138.02 Y134.64 F9000
G1 X94.62 Y178.04 E1028.198 F1080
G1 X94.46 Y177.64 F9000
G1 X137.96 Y134.14 E1031.267 F1080
G1 X137.89 Y133.64 F9000
G1 X94.29 Y177.23 E1034.343 F1080
G1 X94.13 Y176.83 F9000
G1 X137.82 Y133.14 E1037.426 F1080
G1 X137.76 Y132.64 F9000
G1 X93.97 Y176.43 E1040.515 F1080
G1 X93.81 Y176.03 F9000
G1 X137.69 Y132.14 E1043.611 F1080
G1 X137.62 Y131.64 F9000
G1 X93.64 Y175.62 E1046.714 F1080
G1 X93.48 Y175.22 F9000
G1 X137.55 Y131.15 E1049.824 F1080
G1 X137.49 Y130.65 F9000
G1 X93.32 Y174.82 E1052.94 F1080
G1 X93.15 Y174.41 F9000
G1 X137.42 Y130.15 E1056.063 F1080
G1 X137.35 Y129.65 F9000
G1 X92.99 Y174.01 E1059.193 F1080
G1 X92.83 Y173.61 F9000
G1 X137.29 Y129.15 E1062.33 F1080
G1 X137.22 Y128.65 F9000
G1 X92.67 Y173.21 E1065.473 F1080
G1 X92.5 Y172.8 F9000
G1 X137.15 Y128.15 E1068.624 F1080
G1 X137.08 Y127.66 F9000
G1 X92.34 Y172.4 E1071.78 F1080
G1 X92.18 Y172 F9000
G1 X137.02 Y127.16 E1074.944 F1080
G1 X136.95 Y126.66 F9000
G1 X92.02 Y171.59 E1078.115 F1080
G1 X91.85 Y171.19 F9000
G1 X136.88 Y126.16 E1081.292 F1080
G1 X136.82 Y125.66 F9000
G1 X91.69 Y170.79 E1084.476 F1080
G1 X91.53 Y170.39 F9000
G1 X136.75 Y125.16 E1087.666 F1080
G1 X136.68 Y124.67 F9000
G1 X91.36 Y169.98 E1090.864 F1080
G1 X91.2 Y169.58 F9000
G1 X136.61 Y124.17 E1094.068 F1080
G1 X136.55 Y123.67 F9000
G1 X91.04 Y169.18 E1097.279 F1080
G1 X90.88 Y168.77 F9000
G1 X136.48 Y123.17 E1100.496 F1080
G1 X136.41 Y122.67 F9000
G1 X90.71 Y168.37 E1103.721 F1080
G1 X90.55 Y167.97 F9000
G1 X136.35 Y122.17 E1106.952 F1080
G1 X136.28 Y121.67 F9000
G1 X90.39 Y167.57 E1110.19 F1080
G1 X90.22 Y167.16 F9000
G1 X136.21 Y121.18 E1113.434 F1080
G1 X136.14 Y120.68 F9000
G1 X90.06 Y166.76 E1116.686 F1080
G1 X89.9 Y166.36 F9000
G1 X136.08 Y120.18 E1119.944 F1080
G1 X136.01 Y119.68 F9000
G1 X89.74 Y165.95 E1123.209 F1080
G1 X89.57 Y165.55 F9000
G1 X135.94 Y119.18 E1126.48 F1080
G1 X135.88 Y118.68 F9000
G1 X89.41 Y165.15 E1129.758 F1080
G1 X89.25 Y164.74 F9000
G1 X135.81 Y118.18 E1133.044 F1080
G1 X135.74 Y117.69 F9000
G1 X89.08 Y164.34 E1136.335 F1080
G1 X88.92 Y163.94 F9000
G1 X135.67 Y117.19 E1139.634 F1080
G1 X135.61 Y116.69 F9000
G1 X88.76 Y163.54 E1142.939 F1080
G1 X88.6 Y163.13 F9000
G1 X135.54 Y116.19 E1146.251 F1080
G1 X135.47 Y115.69 F9000
G1 X88.43 Y162.73 E1149.57 F1080
G1 X88.27 Y162.33 F9000
G1 X135.41 Y115.19 E1152.896 F1080
G1 X135.34 Y114.69 F9000
G1 X88.11 Y161.92 E1156.228 F1080
G1 X87.95 Y161.52 F9000
G1 X135.27 Y114.2 E1159.567 F1080
G1 X135.2 Y113.7 F9000
G1 X87.78 Y161.12 E1162.913 F1080
G1 X87.62 Y160.72 F9000
G1 X135.14 Y113.2 E1166.266 F1080
G1 X135.07 Y112.7 F9000
G1 X87.46 Y160.31 E1169.625 F1080
G1 X87.29 Y159.91 F9000
G1 X135 Y112.2 E1172.991 F1080
G1 X134.94 Y111.7 F9000
G1 X87.13 Y159.51 E1176.364 F1080
G1 X86.97 Y159.1 F9000
G1 X134.87 Y111.2 E1179.744 F1080
G1 X134.8 Y110.71 F9000
G1 X86.81 Y158.7 E1183.13 F1080
G1 X86.81 Y158.13 F9000
G1 X134.73 Y110.21 E1186.511 F1080
G1 X134.67 Y109.71 F9000
G1 X86.9 Y157.48 E1189.882 F1080
G1 X86.99 Y156.82 F9000
G1 X134.6 Y109.21 E1193.241 F1080
G1 X134.53 Y108.71 F9000
G1 X87.07 Y156.17 E1196.589 F1080
G1 X87.16 Y155.52 F9000
G1 X134.47 Y108.21 E1199.927 F1080
G1 X134.4 Y107.71 F9000
G1 X87.25 Y154.86 E1203.254 F1080
G1 X87.34 Y154.21 F9000
G1 X134.33 Y107.22 E1206.569 F1080
G1 X134.26 Y106.72 F9000
G1 X87.43 Y153.56 E1209.874 F1080
G1 X87.51 Y152.9 F9000
G1 X134.2 Y106.22 E1213.168 F1080
G1 X134.13 Y105.72 F9000
G1 X87.6 Y152.25 E1216.45 F1080
G1 X87.69 Y151.59 F9000
G1 X134.06 Y105.22 E1219.722 F1080
G1 X134 Y104.72 F9000
G1 X87.78 Y150.94 E1222.983 F1080
G1 X87.87 Y150.29 F9000
G1 X133.93 Y104.23 E1226.233 F1080
G1 X133.86 Y103.73 F9000
G1 X87.95 Y149.63 E1229.472 F1080
G1 X88.04 Y148.98 F9000
G1 X133.79 Y103.23 E1232.7 F1080
G1 X133.73 Y102.73 F9000
G1 X88.13 Y148.33 E1235.917 F1080
G1 X88.22 Y147.67 F9000
G1 X133.66 Y102.23 E1239.123 F1080
G1 X133.59 Y101.73 F9000
G1 X88.31 Y147.02 E1242.318 F1080
G1 X88.39 Y146.36 F9000
G1 X133.53 Y101.23 E1245.502 F1080
G1 X133.46 Y100.74 F9000
G1 X88.48 Y145.71 E1248.676 F1080
G1 X88.57 Y145.06 F9000
G1 X133.39 Y100.24 E1251.838 F1080
G1 X133.32 Y99.74 F9000
G1 X88.66 Y144.4 E1254.989 F1080
G1 X88.75 Y143.75 F9000
G1 X133.26 Y99.24 E1258.13 F1080
G1 X133.19 Y98.74 F9000
G1 X88.84 Y143.1 E1261.259 F1080
G1 X88.92 Y142.44 F9000
G1 X133.12 Y98.24 E1264.378 F1080
G1 X133.05 Y97.74 F9000
G1 X89.01 Y141.79 E1267.485 F1080
G1 X89.1 Y141.13 F9000
G1 X132.99 Y97.25 E1270.582 F1080
G1 X132.92 Y96.75 F9000
G1 X89.19 Y140.48 E1273.667 F1080
G1 X89.28 Y139.83 F9000
G1 X132.85 Y96.25 E1276.742 F1080
G1 X132.79 Y95.75 F9000
G1 X89.36 Y139.17 E1279.806 F1080
G1 X89.45 Y138.52 F9000
G1 X132.72 Y95.25 E1282.859 F1080
G1 X132.65 Y94.75 F9000
G1 X89.54 Y137.87 E1285.9 F1080
G1 X89.63 Y137.21 F9000
G1 X132.59 Y94.25 E1288.931 F1080
G1 X132.52 Y93.76 F9000
G1 X89.72 Y136.56 E1291.951 F1080
G1 X89.8 Y135.91 F9000
G1 X132.45 Y93.26 E1294.96 F1080
G1 X132.38 Y92.76 F9000
G1 X89.89 Y135.25 E1297.958 F1080
G1 X89.98 Y134.6 F9000
G1 X132.32 Y92.26 E1300.946 F1080
G1 X132.25 Y91.76 F9000
G1 X90.07 Y133.94 E1303.922 F1080
G1 X90.16 Y133.29 F9000
G1 X132.18 Y91.26 E1306.887 F1080
G1 X132.12 Y90.76 F9000
G1 X90.24 Y132.64 E1309.841 F1080
G1 X90.33 Y131.98 F9000
G1 X132.05 Y90.27 E1312.785 F1080
G1 X131.98 Y89.77 F9000
G1 X90.42 Y131.33 E1315.717 F1080
G1 X90.51 Y130.68 F9000
G1 X131.91 Y89.27 E1318.638 F1080
G1 X131.85 Y88.77 F9000
G1 X90.6 Y130.02 E1321.549 F1080
G1 X90.68 Y129.37 F9000
G1 X131.78 Y88.27 E1324.448 F1080
G1 X131.71 Y87.77 F9000
G1 X90.77 Y128.71 E1327.337 F1080
G1 X90.86 Y128.06 F9000
G1 X131.64 Y87.28 E1330.214 F1080
G1 X131.58 Y86.78 F9000
G1 X90.95 Y127.41 E1333.081 F1080
G1 X91.04 Y126.75 F9000
G1 X131.51 Y86.28 E1335.937 F1080
G1 X131.44 Y85.78 F9000
G1 X91.12 Y126.1 E1338.782 F1080
G1 X91.21 Y125.44 F9000
G1 X131.38 Y85.28 E1341.615 F1080
G1 X131.31 Y84.78 F9000
G1 X91.3 Y124.79 E1344.438 F1080
G1 X91.39 Y124.14 F9000
G1 X131.24 Y84.28 E1347.25 F1080
G1 X131.17 Y83.79 F9000
G1 X91.48 Y123.48 E1350.051 F1080
G1 X91.56 Y122.83 F9000
G1 X131.11 Y83.29 E1352.841 F1080
G1 X131.04 Y82.79 F9000
G1 X91.65 Y122.18 E1355.62 F1080
G1 X91.74 Y121.52 F9000
G1 X130.97 Y82.29 E1358.388 F1080
G1 X130.91 Y81.79 F9000
G1 X91.83 Y120.87 E1361.145 F1080
G1 X91.92 Y120.22 F9000
G1 X130.84 Y81.29 E1363.891 F1080
G1 X130.77 Y80.79 F9000
G1 X92 Y119.56 E1366.627 F1080
G1 X92.09 Y118.91 F9000
G1 X130.71 Y80.3 E1369.351 F1080
G1 X130.64 Y79.8 F9000
G1 X92.18 Y118.25 E1372.064 F1080
G1 X92.27 Y117.6 F9000
G1 X130.57 Y79.3 E1374.767 F1080
G1 X130.5 Y78.8 F9000
G1 X92.36 Y116.95 E1377.458 F1080
G1 X92.45 Y116.29 F9000
G1 X130.44 Y78.3 E1380.139 F1080
G1 X130.37 Y77.8 F9000
G1 X92.53 Y115.64 E1382.808 F1080
G1 X92.62 Y114.99 F9000
G1 X130.3 Y77.3 E1385.467 F1080
G1 X130.23 Y76.81 F9000
G1 X92.71 Y114.33 E1388.115 F1080
G1 X92.8 Y113.68 F9000
G1 X130.17 Y76.31 E1390.751 F1080
G1 X130.1 Y75.81 F9000
G1 X92.88 Y113.02 E1393.377 F1080
G1 X92.97 Y112.37 F9000
G1 X130.03 Y75.31 E1395.992 F1080
G1 X129.97 Y74.81 F9000
G1 X93.06 Y111.72 E1398.596 F1080
G1 X93.15 Y111.06 F9000
G1 X129.9 Y74.31 E1401.189 F1080
G1 X129.83 Y73.81 F9000
G1 X93.24 Y110.41 E1403.771 F1080
G1 X93.33 Y109.76 F9000
G1 X129.76 Y73.32 E1406.342 F1080
G1 X129.7 Y72.82 F9000
G1 X93.41 Y109.1 E1408.902 F1080
G1 X93.5 Y108.45 F9000
G1 X129.63 Y72.32 E1411.451 F1080
G1 X129.56 Y71.82 F9000
G1 X93.59 Y107.79 E1413.989 F1080
G1 X93.68 Y107.14 F9000
G1 X129.5 Y71.32 E1416.516 F1080
G1 X129.43 Y70.82 F9000
G1 X93.77 Y106.49 E1419.032 F1080
G1 X93.85 Y105.83 F9000
G1 X129.36 Y70.33 E1421.538 F1080
G1 X129.29 Y69.83 F9000
G1 X93.94 Y105.18 E1424.032 F1080
G1 X94.03 Y104.53 F9000
G1 X129.23 Y69.33 E1426.515 F1080
G1 X129.16 Y68.83 F9000
G1 X94.12 Y103.87 E1428.988 F1080
G1 X94.21 Y103.22 F9000
G1 X129.09 Y68.33 E1431.449 F1080
G1 X129.03 Y67.83 F9000
G1 X94.29 Y102.56 E1433.9 F1080
G1 X94.38 Y101.91 F9000
G1 X128.96 Y67.33 E1436.339 F1080
G1 X128.89 Y66.84 F9000
G1 X94.47 Y101.26 E1438.768 F1080
G1 X94.56 Y100.6 F9000
G1 X128.82 Y66.34 E1441.186 F1080
G1 X128.76 Y65.84 F9000
G1 X94.65 Y99.95 E1443.592 F1080
G1 X94.73 Y99.3 F9000
G1 X128.69 Y65.34 E1445.988 F1080
G1 X128.55 Y64.92 F9000
G1 X94.82 Y98.64 E1448.368 F1080
G1 X94.91 Y97.99 F9000
G1 X127.98 Y64.92 E1450.701 F1080
G1 X127.42 F9000
G1 X95 Y97.33 E1452.988 F1080
G1 X95.09 Y96.68 F9000
G1 X126.85 Y64.92 E1455.229 F1080
G1 X126.28 F9000
G1 X95.17 Y96.03 E1457.424 F1080
G1 X95.26 Y95.37 F9000
G1 X125.72 Y64.92 E1459.573 F1080
G1 X125.15 F9000
G1 X95.35 Y94.72 E1461.676 F1080
G1 X95.44 Y94.07 F9000
G1 X124.59 Y64.92 E1463.733 F1080
G1 X124.02 F9000
G1 X95.53 Y93.41 E1465.743 F1080
G1 X95.61 Y92.76 F9000
G1 X123.46 Y64.92 E1467.707 F1080
G1 X122.89 F9000
G1 X95.7 Y92.1 E1469.626 F1080
G1 X95.79 Y91.45 F9000
G1 X122.32 Y64.92 E1471.498 F1080
G1 X121.76 F9000
G1 X95.88 Y90.8 E1473.324 F1080
G1 X95.97 Y90.14 F9000
G1 X121.19 Y64.92 E1475.104 F1080
G1 X120.63 F9000
G1 X96.05 Y89.49 E1476.837 F1080
G1 X96.14 Y88.84 F9000
G1 X120.06 Y64.92 E1478.525 F1080
G1 X119.5 F9000
G1 X96.23 Y88.18 E1480.166 F1080
G1 X96.32 Y87.53 F9000
G1 X118.93 Y64.92 E1481.762 F1080
G1 X118.36 F9000
G1 X96.41 Y86.88 E1483.311 F1080
G1 X96.49 Y86.22 F9000
G1 X117.8 Y64.92 E1484.814 F1080
G1 X117.23 F9000
G1 X96.58 Y85.57 E1486.271 F1080
G1 X96.67 Y84.91 F9000
G1 X116.67 Y64.92 E1487.682 F1080
G1 X116.1 F9000
G1 X96.76 Y84.26 E1489.047 F1080
G1 X96.85 Y83.61 F9000
G1 X115.54 Y64.92 E1490.365 F1080
G1 X114.97 F9000
G1 X96.94 Y82.95 E1491.638 F1080
G1 X97.02 Y82.3 F9000
G1 X114.4 Y64.92 E1492.864 F1080
G1 X113.84 Y64.92 F9000
G1 X97.11 Y81.65 E1494.044 F1080
G1 X97.2 Y80.99 F9000
G1 X113.27 Y64.92 E1495.179 F1080
G1 X112.71 F9000
G1 X97.29 Y80.34 E1496.266 F1080
G1 X97.38 Y79.68 F9000
G1 X112.14 Y64.92 E1497.308 F1080
G1 X111.58 F9000
G1 X97.46 Y79.03 E1498.304 F1080
G1 X97.55 Y78.38 F9000
G1 X111.01 Y64.92 E1499.253 F1080
G1 X110.44 F9000
G1 X97.64 Y77.72 E1500.157 F1080
G1 X97.73 Y77.07 F9000
G1 X109.88 Y64.92 E1501.014 F1080
G1 X109.31 F9000
G1 X97.82 Y76.42 E1501.825 F1080
G1 X97.9 Y75.76 F9000
G1 X108.75 Y64.92 E1502.591 F1080
G1 X108.18 F9000
G1 X97.99 Y75.11 E1503.309 F1080
G1 X98.08 Y74.45 F9000
G1 X107.62 Y64.92 E1503.982 F1080
G1 X107.05 F9000
G1 X98.17 Y73.8 E1504.609 F1080
G1 X98.26 Y73.15 F9000
G1 X106.48 Y64.92 E1505.19 F1080
G1 X105.92 F9000
G1 X98.34 Y72.49 E1505.724 F1080
G1 X98.43 Y71.84 F9000
G1 X105.35 Y64.92 E1506.212 F1080
G1 X104.79 F9000
G1 X98.52 Y71.19 E1506.654 F1080
G1 X98.61 Y70.53 F9000
G1 X104.22 Y64.92 E1507.051 F1080
G1 X103.66 F9000
G1 X98.7 Y69.88 E1507.401 F1080
G1 X98.78 Y69.22 F9000
G1 X103.09 Y64.92 E1507.704 F1080
G1 X102.52 F9000
G1 X98.87 Y68.57 E1507.962 F1080
G1 X98.96 Y67.92 F9000
G1 X101.96 Y64.92 E1508.174 F1080
G1 X101.39 F9000
G1 X99.05 Y67.26 E1508.339 F1080
G1 X99.14 Y66.61 F9000
G1 X100.83 Y64.92 E1508.458 F1080
G1 X100.26 F9000
G1 X99.22 Y65.96 E1508.532 F1080
G1 X99.31 Y65.3 F9000
G1 X99.7 Y64.92 E1508.559 F1080
; Layer Change GCode
; LAYER:1
; LAYER_HEIGHT:0.3
; TYPE:FILL
G1 X98.79 Y64.27 Z0.6 F9000
; TYPE:WALL-INNER
G1 X103.14 E1508.775 F3600
G1 X107.48 E1508.992
G1 X111.83 E1509.209
G1 X116.17 E1509.426
G1 X120.52 E1509.642
G1 X124.86 E1509.859
G1 X129.21 E1510.076
G1 X129.84 Y68.98 E1510.314
G1 X130.48 Y73.7 E1510.551
G1 X131.11 Y78.42 E1510.789
G1 X131.75 Y83.14 E1511.026
G1 X132.38 Y87.86 E1511.264
G1 X133.02 Y92.58 E1511.501
G1 X133.65 Y97.3 E1511.739
G1 X134.29 Y102.02 E1511.976
G1 X134.92 Y106.74 E1512.214
G1 X135.56 Y111.46 E1512.452
G1 X136.19 Y116.18 E1512.689
G1 X136.83 Y120.9 E1512.927
G1 X137.46 Y125.62 E1513.164
G1 X138.1 Y130.34 E1513.402
G1 X138.73 Y135.05 E1513.639
G1 X139.37 Y139.77 E1513.877
G1 X140 Y144.49 E1514.115
G1 X140.64 Y149.21 E1514.352
G1 X141.27 Y153.93 E1514.59
G1 X141.91 Y158.65 E1514.827
G1 X140.12 Y163.09 E1515.066
G1 X138.32 Y167.53 E1515.305
G1 X136.53 Y171.97 E1515.544
G1 X134.74 Y176.41 E1515.783
G1 X132.94 Y180.85 E1516.022
G1 X131.15 Y185.29 E1516.261
G1 X129.36 Y189.73 E1516.5
G1 X124.97 E1516.719
G1 X120.58 E1516.938
G1 X116.19 E1517.157
G1 X111.81 E1517.375
G1 X107.42 E1517.594
G1 X103.03 E1517.813
G1 X98.64 E1518.032
G1 X96.85 Y185.29 E1518.271
G1 X95.05 Y180.85 E1518.51
G1 X93.26 Y176.41 E1518.749
G1 X91.47 Y171.97 E1518.988
G1 X89.68 Y167.53 E1519.227
G1 X87.88 Y163.09 E1519.466
G1 X86.09 Y158.65 E1519.705
G1 X86.72 Y153.93 E1519.942
G1 X87.36 Y149.22 E1520.18
G1 X87.99 Y144.5 E1520.417
G1 X88.63 Y139.78 E1520.655
G1 X89.26 Y135.06 E1520.892
G1 X89.9 Y130.35 E1521.129
G1 X90.53 Y125.63 E1521.367
G1 X91.17 Y120.91 E1521.604
G1 X91.8 Y116.19 E1521.842
G1 X92.44 Y111.48 E1522.079
G1 X93.07 Y106.76 E1522.317
G1 X93.71 Y102.04 E1522.554
G1 X94.34 Y97.33 E1522.792
G1 X94.98 Y92.61 E1523.029
G1 X95.61 Y87.89 E1523.267
G1 X96.25 Y83.17 E1523.504
G1 X96.88 Y78.46 E1523.742
G1 X97.52 Y73.74 E1523.979
G1 X98.15 Y69.02 E1524.217
G1 X98.79 Y64.3 E1524.454
G1 X98.79 Y64.27
G1 X98.44 Y63.87 F9000
; TYPE:WALL-OUTER
G1 X102.89 E1524.676 F3000
G1 X107.33 E1524.898
G1 X111.78 E1525.119
G1 X116.22 E1525.341
G1 X120.67 E1525.563
G1 X125.11 E1525.784
G1 X129.56 E1526.006
G1 X130.19 Y68.61 E1526.245
G1 X130.83 Y73.35 E1526.484
G1 X131.47 Y78.09 E1526.722
G1 X132.11 Y82.83 E1526.961
G1 X132.75 Y87.57 E1527.2
G1 X133.38 Y92.32 E1527.438
G1 X134.02 Y97.06 E1527.677
G1 X134.66 Y101.8 E1527.916
G1 X135.3 Y106.54 E1528.155
G1 X135.94 Y111.28 E1528.393
G1 X136.58 Y116.03 E1528.632
G1 X137.21 Y120.77 E1528.871
G1 X137.85 Y125.51 E1529.109
G1 X138.49 Y130.25 E1529.348
G1 X139.13 Y134.99 E1529.587
G1 X139.77 Y139.73 E1529.825
G1 X140.41 Y144.48 E1530.064
G1 X141.04 Y149.22 E1530.303
G1 X141.68 Y153.96 E1530.542
G1 X142.32 Y158.7 E1530.78
G1 X140.51 Y163.19 E1531.022
G1 X138.69 Y167.68 E1531.263
G1 X136.88 Y172.17 E1531.505
G1 X135.07 Y176.66 E1531.747
G1 X133.25 Y181.15 E1531.988
G1 X131.44 Y185.64 E1532.23
G1 X129.63 Y190.13 E1532.471
G1 X125.16 E1532.694
G1 X120.7 E1532.917
G1 X116.23 E1533.14
G1 X111.77 E1533.363
G1 X107.3 E1533.585
G1 X102.84 E1533.808
G1 X98.37 E1534.031
G1 X96.56 Y185.64 E1534.272
G1 X94.74 Y181.15 E1534.514
G1 X92.93 Y176.66 E1534.756
G1 X91.12 Y172.17 E1534.997
G1 X89.3 Y167.68 E1535.239
G1 X87.49 Y163.19 E1535.48
G1 X85.68 Y158.7 E1535.722
G1 X86.32 Y153.96 E1535.961
G1 X86.95 Y149.22 E1536.199
G1 X87.59 Y144.48 E1536.438
G1 X88.23 Y139.74 E1536.677
G1 X88.87 Y135 E1536.915
G1 X89.51 Y130.26 E1537.154
G1 X90.14 Y125.52 E1537.392
G1 X90.78 Y120.78 E1537.631
G1 X91.42 Y116.04 E1537.87
G1 X92.06 Y111.3 E1538.108
G1 X92.7 Y106.56 E1538.347
G1 X93.33 Y101.82 E1538.585
G1 X93.97 Y97.08 E1538.824
G1 X94.61 Y92.34 E1539.063
G1 X95.25 Y87.6 E1539.301
G1 X95.89 Y82.86 E1539.54
G1 X96.52 Y78.12 E1539.778
G1 X97.16 Y73.38 E1540.017
G1 X97.8 Y68.64 E1540.256
G1 X98.44 Y63.9 E1540.494
G1 X98.44 Y63.87
G1 X101.44
G1 X98.79 Y64.27 F9000
G1 E1537.494 F1800
G1 Z1.1
G1 X108.71 Y64.38 F9000
G1 X118.62 Y64.49
G1 X128.53 Y64.6
; TYPE:FILL
G1 Z0.6
G1 E1540.494 F1800
G1 X128.97 Y65.04 E1540.525 F3600
G1 X129.05 Y65.7 F9000
G1 X127.96 Y64.6 E1540.602 F3600
G1 X127.4 F9000
G1 X129.14 Y66.35 E1540.726 F3600
G1 X129.23 Y67.01 F9000
G1 X126.83 Y64.6 E1540.895 F3600
G1 X126.26 F9000
G1 X129.32 Y67.66 E1541.111 F3600
G1 X129.41 Y68.31 F9000
G1 X125.7 Y64.6 E1541.372 F3600
G1 X125.13 F9000
G1 X127.31 Y66.79 E1541.526 F3600
G1 X129.49 Y68.97 E1541.68
G1 X129.58 Y69.62 F9000
G1 X127.07 Y67.11 E1541.857 F3600
G1 X124.57 Y64.6 E1542.034
G1 X124 Y64.6 F9000
G1 X126.84 Y67.44 E1542.234 F3600
G1 X129.67 Y70.27 E1542.434
G1 X129.76 Y70.93 F9000
G1 X126.6 Y67.77 E1542.657 F3600
G1 X123.44 Y64.6 E1542.88
G1 X122.87 Y64.6 F9000
G1 X126.36 Y68.09 E1543.126 F3600
G1 X129.85 Y71.58 E1543.372
G1 X129.94 Y72.24 F9000
G1 X127.39 Y69.69 E1543.552 F3600
G1 X124.85 Y67.15 E1543.731
G1 X122.3 Y64.6 E1543.911
G1 X121.74 Y64.6 F9000
G1 X124.5 Y67.37 E1544.105 F3600
G1 X127.26 Y70.13 E1544.3
G1 X130.02 Y72.89 E1544.495
G1 X130.11 Y73.54 F9000
G1 X127.13 Y70.56 E1544.705 F3600
G1 X124.15 Y67.58 E1544.915
G1 X121.17 Y64.6 E1545.126
G1 X120.61 Y64.6 F9000
G1 X123.8 Y67.8 E1545.351 F3600
G1 X127 Y71 E1545.577
G1 X130.2 Y74.2 E1545.802
G1 X130.29 Y74.85 F9000
G1 X126.87 Y71.43 E1546.043 F3600
G1 X123.46 Y68.02 E1546.284
G1 X120.04 Y64.6 E1546.525
G1 X119.48 Y64.6 F9000
G1 X122.2 Y67.33 E1546.717 F3600
G1 X124.93 Y70.05 E1546.91
G1 X127.65 Y72.78 E1547.102
G1 X130.37 Y75.5 E1547.294
G1 X130.46 Y76.16 F9000
G1 X127.57 Y73.27 E1547.498 F3600
G1 X124.69 Y70.38 E1547.702
G1 X121.8 Y67.49 E1547.905
G1 X118.91 Y64.6 E1548.109
G1 X118.34 Y64.6 F9000
G1 X121.4 Y67.66 E1548.324 F3600
G1 X124.45 Y70.71 E1548.54
G1 X127.5 Y73.76 E1548.755
G1 X130.55 Y76.81 E1548.97
G1 X130.64 Y77.46 F9000
G1 X127.42 Y74.25 E1549.197 F3600
G1 X124.21 Y71.03 E1549.424
G1 X120.99 Y67.82 E1549.651
G1 X117.78 Y64.6 E1549.878
G1 X117.21 Y64.6 F9000
G1 X120.59 Y67.98 E1550.116 F3600
G1 X123.97 Y71.36 E1550.354
G1 X127.35 Y74.74 E1550.593
G1 X130.73 Y78.12 E1550.831
G1 X130.81 Y78.77 F9000
G1 X127.98 Y75.94 E1551.031 F3600
G1 X125.15 Y73.1 E1551.231
G1 X122.31 Y70.27 E1551.431
G1 X119.48 Y67.44 E1551.631
G1 X116.65 Y64.6 E1551.831
G1 X116.08 Y64.6 F9000
G1 X119.05 Y67.57 E1552.04 F3600
G1 X122.01 Y70.53 E1552.249
G1 X124.97 Y73.5 E1552.458
G1 X127.94 Y76.46 E1552.667
G1 X130.9 Y79.43 E1552.876
G1 X130.99 Y80.08 F9000
G1 X127.9 Y76.98 E1553.095 F3600
G1 X124.8 Y73.89 E1553.313
G1 X121.71 Y70.79 E1553.532
G1 X118.61 Y67.7 E1553.75
G1 X115.52 Y64.6 E1553.968
G1 X114.95 Y64.6 F9000
G1 X118.18 Y67.83 E1554.196 F3600
G1 X121.4 Y71.06 E1554.423
G1 X124.63 Y74.28 E1554.651
G1 X127.85 Y77.51 E1554.879
G1 X131.08 Y80.73 E1555.106
G1 X131.17 Y81.39 F9000
G1 X127.81 Y78.03 E1555.343 F3600
G1 X124.45 Y74.67 E1555.58
G1 X121.1 Y71.32 E1555.817
G1 X117.74 Y67.96 E1556.053
G1 X114.39 Y64.6 E1556.29
G1 X113.82 Y64.6 F9000
G1 X117.31 Y68.09 E1556.536 F3600
G1 X120.79 Y71.58 E1556.782
G1 X124.28 Y75.07 E1557.028
G1 X127.77 Y78.55 E1557.274
G1 X131.25 Y82.04 E1557.52
G1 X131.34 Y82.69 F9000
G1 X128.33 Y79.68 E1557.733 F3600
G1 X125.31 Y76.66 E1557.946
G1 X122.3 Y73.65 E1558.159
G1 X119.28 Y70.63 E1558.371
G1 X116.27 Y67.62 E1558.584
G1 X113.25 Y64.6 E1558.797
G1 X112.69 Y64.6 F9000
G1 X115.81 Y67.73 E1559.017 F3600
G1 X118.94 Y70.85 E1559.238
G1 X122.06 Y73.98 E1559.458
G1 X125.18 Y77.1 E1559.678
G1 X128.31 Y80.22 E1559.899
G1 X131.43 Y83.35 E1560.119
G1 X131.52 Y84 F9000
G1 X128.29 Y80.77 E1560.347 F3600
G1 X125.05 Y77.54 E1560.575
G1 X121.82 Y74.3 E1560.803
G1 X118.59 Y71.07 E1561.031
G1 X115.35 Y67.84 E1561.26
G1 X112.12 Y64.6 E1561.488
G1 X111.56 Y64.6 F9000
G1 X114.9 Y67.95 E1561.723 F3600
G1 X118.24 Y71.29 E1561.959
G1 X121.58 Y74.63 E1562.195
G1 X124.92 Y77.97 E1562.431
G1 X128.26 Y81.31 E1562.667
G1 X131.61 Y84.65 E1562.902
G1 X131.7 Y85.31 F9000
G1 X128.24 Y81.86 E1563.146 F3600
G1 X124.79 Y78.41 E1563.389
G1 X121.34 Y74.96 E1563.633
G1 X117.89 Y71.51 E1563.876
G1 X114.44 Y68.05 E1564.12
G1 X110.99 Y64.6 E1564.363
G1 X110.43 Y64.6 F9000
G1 X113.48 Y67.66 E1564.578 F3600
G1 X116.53 Y70.71 E1564.794
G1 X119.58 Y73.76 E1565.009
G1 X122.63 Y76.81 E1565.224
G1 X125.68 Y79.86 E1565.439
G1 X128.73 Y82.91 E1565.655
G1 X131.78 Y85.96 E1565.87
G1 X131.87 Y86.62 F9000
G1 X128.73 Y83.47 E1566.092 F3600
G1 X125.58 Y80.33 E1566.314
G1 X122.44 Y77.18 E1566.536
G1 X119.29 Y74.04 E1566.757
G1 X116.15 Y70.89 E1566.979
G1 X113 Y67.75 E1567.201
G1 X109.86 Y64.6 E1567.423
G1 X109.29 Y64.6 F9000
G1 X112.53 Y67.84 E1567.651 F3600
G1 X115.77 Y71.08 E1567.88
G1 X119.01 Y74.32 E1568.108
G1 X122.24 Y77.56 E1568.337
G1 X125.48 Y80.79 E1568.565
G1 X128.72 Y84.03 E1568.794
G1 X131.96 Y87.27 E1569.022
G1 X132.05 Y87.92 F9000
G1 X128.71 Y84.59 E1569.257 F3600
G1 X125.38 Y81.26 E1569.492
G1 X122.05 Y77.93 E1569.727
G1 X118.72 Y74.6 E1569.962
G1 X115.39 Y71.27 E1570.197
G1 X112.06 Y67.94 E1570.432
G1 X108.73 Y64.6 E1570.667
G1 X108.16 Y64.6 F9000
G1 X111.59 Y68.03 E1570.909 F3600
G1 X115.01 Y71.45 E1571.151
G1 X118.44 Y74.88 E1571.392
G1 X121.86 Y78.3 E1571.634
G1 X125.28 Y81.73 E1571.876
G1 X128.71 Y85.15 E1572.117
G1 X132.13 Y88.58 E1572.359
G1 X132.22 Y89.23 F9000
G1 X128.7 Y85.71 E1572.607 F3600
G1 X125.19 Y82.19 E1572.855
G1 X121.67 Y78.68 E1573.103
G1 X118.15 Y75.16 E1573.352
G1 X114.63 Y71.64 E1573.6
G1 X111.11 Y68.12 E1573.848
G1 X107.6 Y64.6 E1574.096
G1 X107.03 Y64.6 F9000
G1 X110.19 Y67.76 E1574.319 F3600
G1 X113.35 Y70.92 E1574.542
G1 X116.51 Y74.08 E1574.765
G1 X119.67 Y77.24 E1574.988
G1 X122.83 Y80.4 E1575.211
G1 X125.99 Y83.56 E1575.434
G1 X129.15 Y86.72 E1575.657
G1 X132.31 Y89.88 E1575.88
G1 X132.4 Y90.54 F9000
G1 X129.16 Y87.3 E1576.109 F3600
G1 X125.91 Y84.05 E1576.337
G1 X122.67 Y80.81 E1576.566
G1 X119.43 Y77.57 E1576.795
G1 X116.19 Y74.33 E1577.023
G1 X112.95 Y71.09 E1577.252
G1 X109.71 Y67.85 E1577.481
G1 X106.47 Y64.6 E1577.71
G1 X105.9 Y64.6 F9000
G1 X109.22 Y67.93 E1577.944 F3600
G1 X112.55 Y71.25 E1578.179
G1 X115.87 Y74.57 E1578.413
G1 X119.19 Y77.9 E1578.648
G1 X122.52 Y81.22 E1578.882
G1 X125.84 Y84.55 E1579.117
G1 X129.16 Y87.87 E1579.351
G1 X132.49 Y91.19 E1579.586
G1 X132.57 Y91.85 F9000
G1 X129.17 Y88.44 E1579.826 F3600
G1 X125.76 Y85.03 E1580.066
G1 X122.36 Y81.63 E1580.306
G1 X118.95 Y78.22 E1580.547
G1 X115.55 Y74.82 E1580.787
G1 X112.14 Y71.41 E1581.027
G1 X108.74 Y68.01 E1581.267
G1 X105.33 Y64.6 E1581.508
G1 X104.77 Y64.6 F9000
G1 X108.25 Y68.09 E1581.754 F3600
G1 X111.74 Y71.58 E1582
G1 X115.23 Y75.06 E1582.246
G1 X118.72 Y78.55 E1582.492
G1 X122.2 Y82.04 E1582.738
G1 X125.69 Y85.53 E1582.984
G1 X129.18 Y89.01 E1583.23
G1 X132.66 Y92.5 E1583.476
G1 X132.75 Y93.15 F9000
G1 X129.58 Y89.98 E1583.699 F3600
G1 X126.41 Y86.81 E1583.923
G1 X123.23 Y83.64 E1584.147
G1 X120.06 Y80.46 E1584.371
G1 X116.89 Y77.29 E1584.595
G1 X113.72 Y74.12 E1584.818
G1 X110.55 Y70.95 E1585.042
G1 X107.37 Y67.78 E1585.266
G1 X104.2 Y64.6 E1585.49
G1 X103.64 Y64.6 F9000
G1 X106.88 Y67.85 E1585.719 F3600
G1 X110.13 Y71.09 E1585.948
G1 X113.37 Y74.34 E1586.177
G1 X116.62 Y77.58 E1586.406
G1 X119.86 Y80.83 E1586.635
G1 X123.11 Y84.07 E1586.863
G1 X126.35 Y87.32 E1587.092
G1 X129.59 Y90.56 E1587.321
G1 X132.84 Y93.81 E1587.55
G1 X132.93 Y94.46 F9000
G1 X129.61 Y91.14 E1587.784 F3600
G1 X126.29 Y87.83 E1588.018
G1 X122.97 Y84.51 E1588.252
G1 X119.66 Y81.19 E1588.486
G1 X116.34 Y77.87 E1588.721
G1 X113.02 Y74.56 E1588.955
G1 X109.71 Y71.24 E1589.189
G1 X106.39 Y67.92 E1589.423
G1 X103.07 Y64.6 E1589.657
G1 X102.51 Y64.6 F9000
G1 X105.89 Y67.99 E1589.896 F3600
G1 X109.28 Y71.38 E1590.135
G1 X112.67 Y74.77 E1590.374
G1 X116.06 Y78.16 E1590.613
G1 X119.45 Y81.55 E1590.853
G1 X122.84 Y84.94 E1591.092
G1 X126.23 Y88.33 E1591.331
G1 X129.62 Y91.72 E1591.57
G1 X133.01 Y95.11 E1591.809
G1 X133.1 Y95.77 F9000
G1 X129.64 Y92.3 E1592.054 F3600
G1 X126.18 Y88.84 E1592.298
G1 X122.71 Y85.38 E1592.542
G1 X119.25 Y81.92 E1592.786
G1 X115.79 Y78.45 E1593.031
G1 X112.33 Y74.99 E1593.275
G1 X108.86 Y71.53 E1593.519
G1 X105.4 Y68.07 E1593.764
G1 X101.94 Y64.6 E1594.008
G1 X101.37 Y64.6 F9000
G1 X104.91 Y68.14 E1594.257 F3600
G1 X108.44 Y71.67 E1594.507
G1 X111.98 Y75.21 E1594.756
G1 X115.51 Y78.74 E1595.006
G1 X119.05 Y82.28 E1595.255
G1 X122.58 Y85.82 E1595.505
G1 X126.12 Y89.35 E1595.754
G1 X129.65 Y92.89 E1596.003
G1 X133.19 Y96.42 E1596.253
G1 X133.28 Y97.08 F9000
G1 X130.03 Y93.83 E1596.482 F3600
G1 X126.78 Y90.58 E1596.711
G1 X123.54 Y87.33 E1596.94
G1 X120.29 Y84.09 E1597.169
G1 X117.04 Y80.84 E1597.398
G1 X113.8 Y77.59 E1597.627
G1 X110.55 Y74.35 E1597.856
G1 X107.3 Y71.1 E1598.086
G1 X104.06 Y67.85 E1598.315
G1 X100.81 Y64.6 E1598.544
G1 X100.24 Y64.6 F9000
G1 X103.55 Y67.92 E1598.777 F3600
G1 X106.87 Y71.23 E1599.011
G1 X110.18 Y74.54 E1599.245
G1 X113.49 Y77.85 E1599.479
G1 X116.8 Y81.17 E1599.712
G1 X120.12 Y84.48 E1599.946
G1 X123.43 Y87.79 E1600.18
G1 X126.74 Y91.1 E1600.413
G1 X130.05 Y94.42 E1600.647
G1 X133.37 Y97.73 E1600.881
G1 X133.46 Y98.38 F9000
G1 X130.08 Y95 E1601.119 F3600
G1 X126.7 Y91.63 E1601.358
G1 X123.32 Y88.25 E1601.596
G1 X119.94 Y84.87 E1601.834
G1 X116.57 Y81.49 E1602.072
G1 X113.19 Y78.12 E1602.311
G1 X109.81 Y74.74 E1602.549
G1 X106.43 Y71.36 E1602.787
G1 X103.05 Y67.98 E1603.026
G1 X99.68 Y64.6 E1603.264
G1 X99.11 Y64.6 F9000
G1 X102.55 Y68.05 E1603.507 F3600
G1 X106 Y71.49 E1603.75
G1 X109.44 Y74.93 E1603.993
G1 X112.88 Y78.38 E1604.236
G1 X116.33 Y81.82 E1604.479
G1 X119.77 Y85.26 E1604.722
G1 X123.21 Y88.71 E1604.965
G1 X126.66 Y92.15 E1605.208
G1 X130.1 Y95.59 E1605.45
G1 X133.54 Y99.04 E1605.693
G1 X133.63 Y99.69 F9000
G1 X130.17 Y96.23 E1605.938 F3600
G1 X126.71 Y92.77 E1606.182
G1 X123.25 Y89.31 E1606.426
G1 X119.79 Y85.85 E1606.67
G1 X116.33 Y82.39 E1606.914
G1 X112.87 Y78.93 E1607.158
G1 X109.41 Y75.47 E1607.403
G1 X105.95 Y72.01 E1607.647
G1 X102.49 Y68.54 E1607.891
G1 X99.03 Y65.08 E1608.135
G1 X98.96 Y65.58 F9000
G1 X102.43 Y69.06 E1608.38 F3600
G1 X105.91 Y72.54 E1608.625
G1 X109.39 Y76.01 E1608.871
G1 X112.86 Y79.49 E1609.116
G1 X116.34 Y82.96 E1609.361
G1 X119.81 Y86.44 E1609.606
G1 X123.29 Y89.92 E1609.852
G1 X126.77 Y93.39 E1610.097
G1 X130.24 Y96.87 E1610.342
G1 X133.72 Y100.34 E1610.587
G1 X133.81 Y101 F9000
G1 X130.31 Y97.5 E1610.834 F3600
G1 X126.82 Y94.01 E1611.08
G1 X123.33 Y90.52 E1611.327
G1 X119.84 Y87.03 E1611.573
G1 X116.35 Y83.54 E1611.819
G1 X112.86 Y80.05 E1612.066
G1 X109.37 Y76.56 E1612.312
G1 X105.87 Y73.06 E1612.558
G1 X102.38 Y69.57 E1612.805
G1 X98.89 Y66.08 E1613.051
G1 X98.82 Y66.58 F9000
G1 X102.33 Y70.09 E1613.298 F3600
G1 X105.84 Y73.59 E1613.546
G1 X109.35 Y77.1 E1613.793
G1 X112.85 Y80.61 E1614.041
G1 X116.36 Y84.12 E1614.288
G1 X119.87 Y87.62 E1614.536
G1 X123.37 Y91.13 E1614.783
G1 X126.88 Y94.64 E1615.03
G1 X130.39 Y98.14 E1615.278
G1 X133.89 Y101.65 E1615.525
G1 X133.98 Y102.3 F9000
G1 X130.46 Y98.78 E1615.774 F3600
G1 X126.94 Y95.26 E1616.022
G1 X123.41 Y91.74 E1616.271
G1 X119.89 Y88.21 E1616.519
G1 X116.37 Y84.69 E1616.768
G1 X112.85 Y81.17 E1617.017
G1 X109.32 Y77.65 E1617.265
G1 X105.8 Y74.12 E1617.514
G1 X102.28 Y70.6 E1617.762
G1 X98.76 Y67.08 E1618.011
G1 X98.69 Y67.58 F9000
G1 X101.91 Y70.79 E1618.238 F3600
G1 X105.12 Y74.01 E1618.465
G1 X108.34 Y77.23 E1618.691
G1 X111.56 Y80.44 E1618.918
G1 X114.77 Y83.66 E1619.145
G1 X117.99 Y86.88 E1619.372
G1 X121.2 Y90.09 E1619.599
G1 X124.42 Y93.31 E1619.826
G1 X127.64 Y96.53 E1620.053
G1 X130.85 Y99.74 E1620.28
G1 X134.07 Y102.96 E1620.507
G1 X134.16 Y103.61 F9000
G1 X130.93 Y100.38 E1620.735 F3600
G1 X127.7 Y97.15 E1620.963
G1 X124.47 Y93.92 E1621.191
G1 X121.24 Y90.69 E1621.419
G1 X118.01 Y87.46 E1621.647
G1 X114.78 Y84.23 E1621.875
G1 X111.54 Y81 E1622.102
G1 X108.31 Y77.77 E1622.33
G1 X105.08 Y74.54 E1622.558
G1 X101.85 Y71.31 E1622.786
G1 X98.62 Y68.08 E1623.014
G1 X98.56 Y68.57 F9000
G1 X101.8 Y71.82 E1623.243 F3600
G1 X105.04 Y75.06 E1623.472
G1 X108.29 Y78.31 E1623.701
G1 X111.53 Y81.55 E1623.93
G1 X114.78 Y84.8 E1624.159
G1 X118.02 Y88.04 E1624.388
G1 X121.27 Y91.29 E1624.617
G1 X124.51 Y94.53 E1624.846
G1 X127.76 Y97.78 E1625.075
G1 X131 Y101.02 E1625.303
G1 X134.25 Y104.27 E1625.532
G1 X134.33 Y104.92 F9000
G1 X131.08 Y101.66 E1625.762 F3600
G1 X127.82 Y98.4 E1625.992
G1 X124.56 Y95.14 E1626.222
G1 X121.3 Y91.88 E1626.452
G1 X118.04 Y88.63 E1626.682
G1 X114.78 Y85.37 E1626.912
G1 X111.52 Y82.11 E1627.142
G1 X108.26 Y78.85 E1627.372
G1 X105.01 Y75.59 E1627.602
G1 X101.75 Y72.33 E1627.832
G1 X98.49 Y69.07 E1628.062
G1 X98.42 Y69.57 F9000
G1 X101.69 Y72.84 E1628.292 F3600
G1 X104.97 Y76.12 E1628.523
G1 X108.24 Y79.39 E1628.754
G1 X111.51 Y82.66 E1628.985
G1 X114.79 Y85.94 E1629.216
G1 X118.06 Y89.21 E1629.447
G1 X121.33 Y92.48 E1629.678
G1 X124.6 Y95.75 E1629.909
G1 X127.88 Y99.03 E1630.14
G1 X131.15 Y102.3 E1630.371
G1 X134.42 Y105.57 E1630.602
G1 X134.51 Y106.23 F9000
G1 X131.22 Y102.94 E1630.834 F3600
G1 X127.94 Y99.65 E1631.065
G1 X124.65 Y96.37 E1631.297
G1 X121.36 Y93.08 E1631.529
G1 X118.08 Y89.79 E1631.761
G1 X114.79 Y86.5 E1631.993
G1 X111.5 Y83.22 E1632.225
G1 X108.22 Y79.93 E1632.457
G1 X104.93 Y76.64 E1632.689
G1 X101.64 Y73.36 E1632.921
G1 X98.36 Y70.07 E1633.153
G1 X98.29 Y70.57 F9000
G1 X101.59 Y73.87 E1633.386 F3600
G1 X104.89 Y77.17 E1633.618
G1 X108.19 Y80.47 E1633.851
G1 X111.49 Y83.77 E1634.084
G1 X114.79 Y87.07 E1634.317
G1 X118.09 Y90.38 E1634.55
G1 X121.39 Y93.68 E1634.783
G1 X124.7 Y96.98 E1635.016
G1 X128 Y100.28 E1635.249
G1 X131.3 Y103.58 E1635.482
G1 X134.6 Y106.88 E1635.715
G1 X134.69 Y107.53 F9000
G1 X131.37 Y104.22 E1635.948 F3600
G1 X128.06 Y100.9 E1636.182
G1 X124.74 Y97.59 E1636.416
G1 X121.43 Y94.27 E1636.65
G1 X118.11 Y90.96 E1636.884
G1 X114.8 Y87.64 E1637.118
G1 X111.48 Y84.33 E1637.352
G1 X108.17 Y81.01 E1637.586
G1 X104.85 Y77.7 E1637.82
G1 X101.54 Y74.38 E1638.054
G1 X98.22 Y71.07 E1638.287
G1 X98.15 Y71.57 F9000
G1 X101.48 Y74.9 E1638.522 F3600
G1 X104.81 Y78.22 E1638.757
G1 X108.14 Y81.55 E1638.992
G1 X111.47 Y84.88 E1639.227
G1 X114.8 Y88.21 E1639.462
G1 X118.13 Y91.54 E1639.697
G1 X121.46 Y94.87 E1639.932
G1 X124.79 Y98.2 E1640.167
G1 X128.12 Y101.53 E1640.401
G1 X131.44 Y104.86 E1640.636
G1 X134.77 Y108.19 E1640.871
G1 X134.86 Y108.84 F9000
G1 X131.52 Y105.5 E1641.107 F3600
G1 X128.18 Y102.15 E1641.343
G1 X124.83 Y98.81 E1641.579
G1 X121.49 Y95.47 E1641.815
G1 X118.15 Y92.12 E1642.051
G1 X114.8 Y88.78 E1642.287
G1 X111.46 Y85.44 E1642.523
G1 X108.12 Y82.09 E1642.758
G1 X104.77 Y78.75 E1642.994
G1 X101.43 Y75.41 E1643.23
G1 X98.09 Y72.06 E1643.466
G1 X98.02 Y72.56 F9000
G1 X101.38 Y75.92 E1643.703 F3600
G1 X104.73 Y79.28 E1643.94
G1 X108.09 Y82.64 E1644.177
G1 X111.45 Y85.99 E1644.414
G1 X114.81 Y89.35 E1644.65
G1 X118.16 Y92.71 E1644.887
G1 X121.52 Y96.06 E1645.124
G1 X124.88 Y99.42 E1645.361
G1 X128.24 Y102.78 E1645.598
G1 X131.59 Y106.14 E1645.835
G1 X134.95 Y109.49 E1646.072
G1 X135.04 Y110.15 F9000
G1 X131.67 Y106.78 E1646.31 F3600
G1 X128.3 Y103.4 E1646.548
G1 X124.92 Y100.03 E1646.785
G1 X121.55 Y96.66 E1647.023
G1 X118.18 Y93.29 E1647.261
G1 X114.81 Y89.92 E1647.499
G1 X111.44 Y86.55 E1647.737
G1 X108.07 Y83.18 E1647.975
G1 X104.69 Y79.8 E1648.213
G1 X101.32 Y76.43 E1648.451
G1 X97.95 Y73.06 E1648.688
G1 X97.88 Y73.56 F9000
G1 X101.27 Y76.95 E1648.927 F3600
G1 X104.66 Y80.33 E1649.166
G1 X108.04 Y83.72 E1649.405
G1 X111.43 Y87.1 E1649.644
G1 X114.81 Y90.49 E1649.883
G1 X118.2 Y93.87 E1650.122
G1 X121.58 Y97.26 E1650.361
G1 X124.97 Y100.65 E1650.599
G1 X128.35 Y104.03 E1650.838
G1 X131.74 Y107.42 E1651.077
G1 X135.13 Y110.8 E1651.316
G1 X135.22 Y111.46 F9000
G1 X131.82 Y108.06 E1651.556 F3600
G1 X128.42 Y104.66 E1651.796
G1 X125.02 Y101.26 E1652.036
G1 X121.62 Y97.86 E1652.276
G1 X118.22 Y94.46 E1652.515
G1 X114.82 Y91.06 E1652.755
G1 X111.42 Y87.66 E1652.995
G1 X108.02 Y84.26 E1653.235
G1 X104.62 Y80.86 E1653.475
G1 X101.22 Y77.46 E1653.715
G1 X97.82 Y74.06 E1653.955
G1 X97.75 Y74.56 F9000
G1 X101.16 Y77.97 E1654.196 F3600
G1 X104.58 Y81.38 E1654.436
G1 X107.99 Y84.8 E1654.677
G1 X111.41 Y88.21 E1654.918
G1 X114.82 Y91.63 E1655.159
G1 X118.23 Y95.04 E1655.4
G1 X121.65 Y98.45 E1655.641
G1 X125.06 Y101.87 E1655.882
G1 X128.47 Y105.28 E1656.122
G1 X131.89 Y108.7 E1656.363
G1 X135.3 Y112.11 E1656.604
G1 X135.39 Y112.76 F9000
G1 X131.96 Y109.34 E1656.846 F3600
G1 X128.54 Y105.91 E1657.088
G1 X125.11 Y102.48 E1657.33
G1 X121.68 Y99.05 E1657.572
G1 X118.25 Y95.62 E1657.814
G1 X114.82 Y92.2 E1658.055
G1 X111.4 Y88.77 E1658.297
G1 X107.97 Y85.34 E1658.539
G1 X104.54 Y81.91 E1658.781
G1 X101.11 Y78.48 E1659.023
G1 X97.68 Y75.06 E1659.265
G1 X97.62 Y75.55 F9000
G1 X101.06 Y79 E1659.508 F3600
G1 X104.5 Y82.44 E1659.75
G1 X107.94 Y85.88 E1659.993
G1 X111.38 Y89.32 E1660.236
G1 X114.83 Y92.76 E1660.479
G1 X118.27 Y96.21 E1660.722
G1 X121.71 Y99.65 E1660.965
G1 X125.15 Y103.09 E1661.208
G1 X128.59 Y106.53 E1661.45
G1 X132.04 Y109.97 E1661.693
G1 X135.48 Y113.42 E1661.936
G1 X135.57 Y114.07 F9000
G1 X132.11 Y110.61 E1662.18 F3600
G1 X128.65 Y107.16 E1662.424
G1 X125.2 Y103.7 E1662.668
G1 X121.74 Y100.25 E1662.912
G1 X118.29 Y96.79 E1663.155
G1 X114.83 Y93.33 E1663.399
G1 X111.37 Y89.88 E1663.643
G1 X107.92 Y86.42 E1663.887
G1 X104.46 Y82.97 E1664.131
G1 X101.01 Y79.51 E1664.375
G1 X97.55 Y76.05 E1664.618
G1 X97.48 Y76.55 F9000
G1 X100.95 Y80.02 E1664.863 F3600
G1 X104.42 Y83.49 E1665.108
G1 X107.89 Y86.96 E1665.353
G1 X111.36 Y90.43 E1665.598
G1 X114.83 Y93.9 E1665.843
G1 X118.3 Y97.37 E1666.087
G1 X121.77 Y100.84 E1666.332
G1 X125.24 Y104.31 E1666.577
G1 X128.71 Y107.78 E1666.822
G1 X132.18 Y111.25 E1667.067
G1 X135.65 Y114.72 E1667.312
G1 X135.74 Y115.38 F9000
G1 X132.26 Y111.89 E1667.558 F3600
G1 X128.77 Y108.41 E1667.803
G1 X125.29 Y104.92 E1668.049
G1 X121.8 Y101.44 E1668.295
G1 X118.32 Y97.96 E1668.541
G1 X114.84 Y94.47 E1668.787
G1 X111.35 Y90.99 E1669.033
G1 X107.87 Y87.5 E1669.278
G1 X104.38 Y84.02 E1669.524
G1 X100.9 Y80.53 E1669.77
G1 X97.42 Y77.05 E1670.016
G1 X97.35 Y77.55 F9000
G1 X100.85 Y81.05 E1670.263 F3600
G1 X104.34 Y84.55 E1670.51
G1 X107.84 Y88.04 E1670.756
G1 X111.34 Y91.54 E1671.003
G1 X114.84 Y95.04 E1671.25
G1 X118.34 Y98.54 E1671.497
G1 X121.84 Y102.04 E1671.744
G1 X125.33 Y105.54 E1671.99
G1 X128.83 Y109.03 E1672.237
G1 X132.33 Y112.53 E1672.484
G1 X135.83 Y116.03 E1672.731
G1 X135.92 Y116.69 F9000
G1 X132.41 Y113.17 E1672.979 F3600
G1 X128.89 Y109.66 E1673.227
G1 X125.38 Y106.15 E1673.474
G1 X121.87 Y102.63 E1673.722
G1 X118.36 Y99.12 E1673.97
G1 X114.84 Y95.61 E1674.218
G1 X111.33 Y92.1 E1674.466
G1 X107.82 Y88.58 E1674.714
G1 X104.31 Y85.07 E1674.961
G1 X100.79 Y81.56 E1675.209
G1 X97.28 Y78.05 E1675.457
G1 X97.21 Y78.55 F9000
G1 X100.74 Y82.07 E1675.706 F3600
G1 X104.27 Y85.6 E1675.955
G1 X107.79 Y89.13 E1676.204
G1 X111.32 Y92.65 E1676.452
G1 X114.85 Y96.18 E1676.701
G1 X118.37 Y99.71 E1676.95
G1 X121.9 Y103.23 E1677.199
G1 X125.43 Y106.76 E1677.448
G1 X128.95 Y110.29 E1677.697
G1 X132.48 Y113.81 E1677.945
G1 X136.01 Y117.34 E1678.194
G1 X136.09 Y117.99 F9000
G1 X132.85 Y114.75 E1678.423 F3600
G1 X129.6 Y111.5 E1678.652
G1 X126.36 Y108.26 E1678.881
G1 X123.11 Y105.01 E1679.11
G1 X119.87 Y101.76 E1679.339
G1 X116.62 Y98.52 E1679.568
G1 X113.37 Y95.27 E1679.797
G1 X110.13 Y92.03 E1680.026
G1 X106.88 Y88.78 E1680.255
G1 X103.64 Y85.54 E1680.484
G1 X100.39 Y82.29 E1680.713
G1 X97.15 Y79.04 E1680.942
G1 X97.08 Y79.54 F9000
G1 X100.34 Y82.8 E1681.172 F3600
G1 X103.6 Y86.06 E1681.402
G1 X106.86 Y89.32 E1681.632
G1 X110.11 Y92.58 E1681.862
G1 X113.37 Y95.84 E1682.092
G1 X116.63 Y99.09 E1682.322
G1 X119.89 Y102.35 E1682.552
G1 X123.15 Y105.61 E1682.781
G1 X126.41 Y108.87 E1683.011
G1 X129.67 Y112.13 E1683.241
G1 X132.92 Y115.39 E1683.471
G1 X136.18 Y118.65 E1683.701
G1 X136.27 Y119.3 F9000
G1 X133 Y116.03 E1683.932 F3600
G1 X129.73 Y112.76 E1684.163
G1 X126.46 Y109.49 E1684.394
G1 X123.18 Y106.21 E1684.624
G1 X119.91 Y102.94 E1684.855
G1 X116.64 Y99.67 E1685.086
G1 X113.37 Y96.4 E1685.317
G1 X110.1 Y93.13 E1685.548
G1 X106.83 Y89.86 E1685.779
G1 X103.56 Y86.58 E1686.009
G1 X100.28 Y83.31 E1686.24
G1 X97.01 Y80.04 E1686.471
G1 X96.95 Y80.54 F9000
G1 X100.23 Y83.82 E1686.703 F3600
G1 X103.51 Y87.11 E1686.935
G1 X106.8 Y90.39 E1687.166
G1 X110.08 Y93.68 E1687.398
G1 X113.37 Y96.96 E1687.63
G1 X116.65 Y100.25 E1687.861
G1 X119.94 Y103.53 E1688.093
G1 X123.22 Y106.82 E1688.325
G1 X126.51 Y110.1 E1688.557
G1 X129.79 Y113.39 E1688.788
G1 X133.07 Y116.67 E1689.02
G1 X136.36 Y119.95 E1689.252
G1 X136.45 Y120.61 F9000
G1 X133.15 Y117.31 E1689.485 F3600
G1 X129.85 Y114.01 E1689.717
G1 X126.55 Y110.71 E1689.95
G1 X123.26 Y107.42 E1690.183
G1 X119.96 Y104.12 E1690.415
G1 X116.66 Y100.82 E1690.648
G1 X113.36 Y97.53 E1690.88
G1 X110.07 Y94.23 E1691.113
G1 X106.77 Y90.93 E1691.346
G1 X103.47 Y87.63 E1691.578
G1 X100.17 Y84.34 E1691.811
G1 X96.88 Y81.04 E1692.044
G1 X96.81 Y81.54 F9000
G1 X100.12 Y84.85 E1692.277 F3600
G1 X103.43 Y88.16 E1692.511
G1 X106.74 Y91.47 E1692.744
G1 X110.05 Y94.78 E1692.978
G1 X113.36 Y98.09 E1693.212
G1 X116.67 Y101.4 E1693.445
G1 X119.98 Y104.71 E1693.679
G1 X123.29 Y108.02 E1693.912
G1 X126.6 Y111.33 E1694.146
G1 X129.91 Y114.64 E1694.379
G1 X133.22 Y117.95 E1694.613
G1 X136.53 Y121.26 E1694.846
G1 X136.62 Y121.92 F9000
G1 X133.3 Y118.59 E1695.081 F3600
G1 X129.98 Y115.27 E1695.315
G1 X126.65 Y111.95 E1695.55
G1 X123.33 Y108.62 E1695.784
G1 X120.01 Y105.3 E1696.019
G1 X116.68 Y101.98 E1696.253
G1 X113.36 Y98.65 E1696.488
G1 X110.04 Y95.33 E1696.722
G1 X106.71 Y92.01 E1696.957
G1 X103.39 Y88.68 E1697.191
G1 X100.07 Y85.36 E1697.426
G1 X96.74 Y82.04 E1697.66
G1 X96.68 Y82.53 F9000
G1 X100.01 Y85.87 E1697.895 F3600
G1 X103.35 Y89.21 E1698.131
G1 X106.69 Y92.54 E1698.366
G1 X110.02 Y95.88 E1698.602
G1 X113.36 Y99.21 E1698.837
G1 X116.69 Y102.55 E1699.072
G1 X120.03 Y105.89 E1699.308
G1 X123.37 Y109.22 E1699.543
G1 X126.7 Y112.56 E1699.779
G1 X130.04 Y115.9 E1700.014
G1 X133.37 Y119.23 E1700.249
G1 X136.71 Y122.57 E1700.485
G1 X136.8 Y123.22 F9000
G1 X133.45 Y119.87 E1700.721 F3600
G1 X130.1 Y116.52 E1700.957
G1 X126.75 Y113.17 E1701.194
G1 X123.4 Y109.83 E1701.43
G1 X120.05 Y106.48 E1701.666
G1 X116.7 Y103.13 E1701.902
G1 X113.35 Y99.78 E1702.139
G1 X110.01 Y96.43 E1702.375
G1 X106.66 Y93.08 E1702.611
G1 X103.31 Y89.73 E1702.848
G1 X99.96 Y86.38 E1703.084
G1 X96.61 Y83.03 E1703.32
G1 X96.54 Y83.53 F9000
G1 X99.9 Y86.89 E1703.557 F3600
G1 X103.27 Y90.26 E1703.795
G1 X106.63 Y93.62 E1704.032
G1 X109.99 Y96.98 E1704.269
G1 X113.35 Y100.34 E1704.506
G1 X116.71 Y103.7 E1704.743
G1 X120.08 Y107.07 E1704.981
G1 X123.44 Y110.43 E1705.218
G1 X126.8 Y113.79 E1705.455
G1 X130.16 Y117.15 E1705.692
G1 X133.52 Y120.51 E1705.93
G1 X136.89 Y123.88 E1706.167
G1 X136.98 Y124.53 F9000
G1 X133.6 Y121.15 E1706.405 F3600
G1 X130.23 Y117.78 E1706.643
G1 X126.85 Y114.4 E1706.881
G1 X123.48 Y111.03 E1707.119
G1 X120.1 Y107.65 E1707.357
G1 X116.73 Y104.28 E1707.595
G1 X113.35 Y100.9 E1707.834
G1 X109.98 Y97.53 E1708.072
G1 X106.6 Y94.15 E1708.31
G1 X103.23 Y90.78 E1708.548
G1 X99.85 Y87.4 E1708.786
G1 X96.48 Y84.03 E1709.024
G1 X96.41 Y84.53 F9000
G1 X99.8 Y87.92 E1709.263 F3600
G1 X103.18 Y91.3 E1709.502
G1 X106.57 Y94.69 E1709.741
G1 X109.96 Y98.08 E1709.98
G1 X113.35 Y101.47 E1710.219
G1 X116.74 Y104.86 E1710.458
G1 X120.12 Y108.24 E1710.697
G1 X123.51 Y111.63 E1710.936
G1 X126.9 Y115.02 E1711.175
G1 X130.29 Y118.41 E1711.414
G1 X133.67 Y121.8 E1711.654
G1 X137.06 Y125.18 E1711.893
G1 X137.15 Y125.84 F9000
G1 X133.75 Y122.44 E1712.133 F3600
G1 X130.35 Y119.04 E1712.372
G1 X126.95 Y115.63 E1712.612
G1 X123.55 Y112.23 E1712.852
G1 X120.15 Y108.83 E1713.092
G1 X116.75 Y105.43 E1713.332
G1 X113.35 Y102.03 E1713.572
G1 X109.94 Y98.63 E1713.812
G1 X106.54 Y95.23 E1714.052
G1 X103.14 Y91.83 E1714.292
G1 X99.74 Y88.43 E1714.532
G1 X96.34 Y85.03 E1714.772
G1 X96.27 Y85.53 F9000
G1 X99.69 Y88.94 E1715.013 F3600
G1 X103.1 Y92.35 E1715.254
G1 X106.52 Y95.77 E1715.494
G1 X109.93 Y99.18 E1715.735
G1 X113.34 Y102.59 E1715.976
G1 X116.76 Y106.01 E1716.217
G1 X120.17 Y109.42 E1716.458
G1 X123.58 Y112.84 E1716.699
G1 X127 Y116.25 E1716.94
G1 X130.41 Y119.66 E1717.18
G1 X133.82 Y123.08 E1717.421
G1 X137.24 Y126.49 E1717.662
G1 X137.33 Y127.14 F9000
G1 X133.9 Y123.72 E1717.904 F3600
G1 X130.47 Y120.29 E1718.146
G1 X127.05 Y116.86 E1718.388
G1 X123.62 Y113.44 E1718.629
G1 X120.19 Y110.01 E1718.871
G1 X116.77 Y106.58 E1719.113
G1 X113.34 Y103.16 E1719.355
G1 X109.91 Y99.73 E1719.596
G1 X106.49 Y96.3 E1719.838
G1 X103.06 Y92.88 E1720.08
G1 X99.63 Y89.45 E1720.322
G1 X96.21 Y86.02 E1720.563
G1 X96.14 Y86.52 F9000
G1 X99.58 Y89.96 E1720.806 F3600
G1 X103.02 Y93.4 E1721.049
G1 X106.46 Y96.84 E1721.292
G1 X109.9 Y100.28 E1721.534
G1 X113.34 Y103.72 E1721.777
G1 X116.78 Y107.16 E1722.02
G1 X120.22 Y110.6 E1722.262
G1 X123.66 Y114.04 E1722.505
G1 X127.1 Y117.48 E1722.748
G1 X130.53 Y120.92 E1722.99
G1 X133.97 Y124.36 E1723.233
G1 X137.41 Y127.8 E1723.476
G1 X137.5 Y128.45 F9000
G1 X134.05 Y125 E1723.719 F3600
G1 X130.6 Y121.55 E1723.963
G1 X127.14 Y118.09 E1724.206
G1 X123.69 Y114.64 E1724.45
G1 X120.24 Y111.19 E1724.694
G1 X116.79 Y107.74 E1724.937
G1 X113.33 Y104.28 E1725.181
G1 X109.88 Y100.83 E1725.424
G1 X106.43 Y97.38 E1725.668
G1 X102.98 Y93.93 E1725.912
G1 X99.52 Y90.47 E1726.155
G1 X96.07 Y87.02 E1726.399
G1 X96.01 Y87.52 F9000
G1 X99.47 Y90.99 E1726.643 F3600
G1 X102.94 Y94.45 E1726.888
G1 X106.4 Y97.92 E1727.132
G1 X109.87 Y101.38 E1727.377
G1 X113.33 Y104.85 E1727.621
G1 X116.8 Y108.31 E1727.866
G1 X120.26 Y111.78 E1728.11
G1 X123.73 Y115.24 E1728.355
G1 X127.19 Y118.71 E1728.599
G1 X130.66 Y122.17 E1728.844
G1 X134.12 Y125.64 E1729.088
G1 X137.59 Y129.11 E1729.333
G1 X137.68 Y129.76 F9000
G1 X134.2 Y126.28 E1729.578 F3600
G1 X130.72 Y122.8 E1729.824
G1 X127.24 Y119.32 E1730.069
G1 X123.76 Y115.85 E1730.314
G1 X120.29 Y112.37 E1730.56
G1 X116.81 Y108.89 E1730.805
G1 X113.33 Y105.41 E1731.051
G1 X109.85 Y101.93 E1731.296
G1 X106.37 Y98.45 E1731.542
G1 X102.89 Y94.98 E1731.787
G1 X99.42 Y91.5 E1732.032
G1 X95.94 Y88.02 E1732.278
G1 X95.87 Y88.52 F9000
G1 X99.36 Y92.01 E1732.524 F3600
G1 X102.85 Y95.5 E1732.77
G1 X106.35 Y98.99 E1733.017
G1 X109.84 Y102.48 E1733.263
G1 X113.33 Y105.97 E1733.509
G1 X116.82 Y109.47 E1733.756
G1 X120.31 Y112.96 E1734.002
G1 X123.8 Y116.45 E1734.248
G1 X127.29 Y119.94 E1734.495
G1 X130.78 Y123.43 E1734.741
G1 X134.28 Y126.92 E1734.987
G1 X137.77 Y130.41 E1735.234
G1 X137.85 Y131.07 F9000
G1 X134.35 Y127.56 E1735.481 F3600
G1 X130.85 Y124.06 E1735.728
G1 X127.34 Y120.55 E1735.975
G1 X123.84 Y117.05 E1736.223
G1 X120.33 Y113.55 E1736.47
G1 X116.83 Y110.04 E1736.717
G1 X113.32 Y106.54 E1736.964
G1 X109.82 Y103.03 E1737.212
G1 X106.32 Y99.53 E1737.459
G1 X102.81 Y96.02 E1737.706
G1 X99.31 Y92.52 E1737.953
G1 X95.8 Y89.02 E1738.201
G1 X95.74 Y89.51 F9000
G1 X99.25 Y93.03 E1738.449 F3600
G1 X102.77 Y96.55 E1738.697
G1 X106.29 Y100.07 E1738.945
G1 X109.81 Y103.58 E1739.193
G1 X113.32 Y107.1 E1739.441
G1 X116.84 Y110.62 E1739.69
G1 X120.36 Y114.13 E1739.938
G1 X123.87 Y117.65 E1740.186
G1 X127.39 Y121.17 E1740.434
G1 X130.91 Y124.69 E1740.682
G1 X134.43 Y128.2 E1740.93
G1 X137.94 Y131.72 E1741.178
G1 X138.03 Y132.37 F9000
G1 X134.5 Y128.84 E1741.428 F3600
G1 X130.97 Y125.31 E1741.677
G1 X127.44 Y121.78 E1741.926
G1 X123.91 Y118.25 E1742.175
G1 X120.38 Y114.72 E1742.424
G1 X116.85 Y111.19 E1742.673
G1 X113.32 Y107.66 E1742.922
G1 X109.79 Y104.13 E1743.171
G1 X106.26 Y100.6 E1743.42
G1 X102.73 Y97.07 E1743.669
G1 X99.2 Y93.54 E1743.918
G1 X95.67 Y90.01 E1744.167
G1 X95.6 Y90.51 F9000
G1 X98.87 Y93.78 E1744.398 F3600
G1 X102.14 Y97.05 E1744.629
G1 X105.41 Y100.32 E1744.859
G1 X108.68 Y103.59 E1745.09
G1 X111.95 Y106.86 E1745.321
G1 X115.23 Y110.13 E1745.552
G1 X118.5 Y113.4 E1745.782
G1 X121.77 Y116.67 E1746.013
G1 X125.04 Y119.95 E1746.244
G1 X128.31 Y123.22 E1746.475
G1 X131.58 Y126.49 E1746.705
G1 X134.85 Y129.76 E1746.936
G1 X138.12 Y133.03 E1747.167
G1 X138.21 Y133.68 F9000
G1 X134.92 Y130.4 E1747.399 F3600
G1 X131.64 Y127.12 E1747.63
G1 X128.36 Y123.83 E1747.862
G1 X125.08 Y120.55 E1748.093
G1 X121.79 Y117.27 E1748.325
G1 X118.51 Y113.99 E1748.557
G1 X115.23 Y110.7 E1748.788
G1 X111.95 Y107.42 E1749.02
G1 X108.66 Y104.14 E1749.251
G1 X105.38 Y100.86 E1749.483
G1 X102.1 Y97.57 E1749.714
G1 X98.82 Y94.29 E1749.946
G1 X95.54 Y91.01 E1750.178
G1 X95.47 Y91.51 F9000
G1 X98.76 Y94.8 E1750.41 F3600
G1 X102.06 Y98.1 E1750.643
G1 X105.35 Y101.39 E1750.875
G1 X108.65 Y104.69 E1751.107
G1 X111.94 Y107.98 E1751.34
G1 X115.23 Y111.27 E1751.572
G1 X118.53 Y114.57 E1751.805
G1 X121.82 Y117.86 E1752.037
G1 X125.12 Y121.16 E1752.27
G1 X128.41 Y124.45 E1752.502
G1 X131.71 Y127.75 E1752.734
G1 X135 Y131.04 E1752.967
G1 X138.29 Y134.33 E1753.199
G1 X138.38 Y134.99 F9000
G1 X135.08 Y131.68 E1753.433 F3600
G1 X131.77 Y128.38 E1753.666
G1 X128.46 Y125.07 E1753.899
G1 X125.16 Y121.76 E1754.132
G1 X121.85 Y118.46 E1754.366
G1 X118.54 Y115.15 E1754.599
G1 X115.24 Y111.84 E1754.832
G1 X111.93 Y108.54 E1755.065
G1 X108.63 Y105.23 E1755.299
G1 X105.32 Y101.93 E1755.532
G1 X102.01 Y98.62 E1755.765
G1 X98.71 Y95.31 E1755.999
G1 X95.4 Y92.01 E1756.232
G1 X95.33 Y92.51 F9000
G1 X98.65 Y95.82 E1756.466 F3600
G1 X101.97 Y99.14 E1756.7
G1 X105.29 Y102.46 E1756.934
G1 X108.61 Y105.78 E1757.168
G1 X111.92 Y109.1 E1757.402
G1 X115.24 Y112.41 E1757.636
G1 X118.56 Y115.73 E1757.871
G1 X121.88 Y119.05 E1758.105
G1 X125.2 Y122.37 E1758.339
G1 X128.52 Y125.69 E1758.573
G1 X131.83 Y129.01 E1758.807
G1 X135.15 Y132.32 E1759.041
G1 X138.47 Y135.64 E1759.275
G1 X138.56 Y136.3 F9000
G1 X135.23 Y132.97 E1759.51 F3600
G1 X131.9 Y129.64 E1759.745
G1 X128.57 Y126.31 E1759.98
G1 X125.24 Y122.98 E1760.215
G1 X121.91 Y119.65 E1760.45
G1 X118.58 Y116.32 E1760.685
G1 X115.25 Y112.98 E1760.92
G1 X111.92 Y109.65 E1761.155
G1 X108.59 Y106.32 E1761.39
G1 X105.26 Y102.99 E1761.625
G1 X101.93 Y99.66 E1761.86
G1 X98.6 Y96.33 E1762.095
G1 X95.27 Y93 E1762.33
G1 X95.2 Y93.5 F9000
G1 X98.54 Y96.85 E1762.566 F3600
G1 X101.88 Y100.19 E1762.801
G1 X105.23 Y103.53 E1763.037
G1 X108.57 Y106.87 E1763.273
G1 X111.91 Y110.21 E1763.509
G1 X115.25 Y113.56 E1763.745
G1 X118.59 Y116.9 E1763.98
G1 X121.94 Y120.24 E1764.216
G1 X125.28 Y123.58 E1764.452
G1 X128.62 Y126.92 E1764.688
G1 X131.96 Y130.27 E1764.924
G1 X135.3 Y133.61 E1765.159
G1 X138.65 Y136.95 E1765.395
G1 X138.74 Y137.6 F9000
G1 X135.38 Y134.25 E1765.632 F3600
G1 X132.03 Y130.9 E1765.868
G1 X128.67 Y127.54 E1766.105
G1 X125.32 Y124.19 E1766.342
G1 X121.97 Y120.83 E1766.578
G1 X118.61 Y117.48 E1766.815
G1 X115.26 Y114.13 E1767.052
G1 X111.9 Y110.77 E1767.288
G1 X108.55 Y107.42 E1767.525
G1 X105.2 Y104.06 E1767.762
G1 X101.84 Y100.71 E1767.998
G1 X98.49 Y97.36 E1768.235
G1 X95.13 Y94 E1768.471
G1 X95.07 Y94.5 F9000
G1 X98.43 Y97.87 E1768.709 F3600
G1 X101.8 Y101.23 E1768.946
G1 X105.16 Y104.6 E1769.184
G1 X108.53 Y107.96 E1769.421
G1 X111.9 Y111.33 E1769.659
G1 X115.26 Y114.7 E1769.896
G1 X118.63 Y118.06 E1770.134
G1 X121.99 Y121.43 E1770.371
G1 X125.36 Y124.79 E1770.609
G1 X128.72 Y128.16 E1770.846
G1 X132.09 Y131.53 E1771.084
G1 X135.46 Y134.89 E1771.321
G1 X138.82 Y138.26 E1771.559
G1 X138.91 Y138.91 F9000
G1 X135.53 Y135.53 E1771.797 F3600
G1 X132.16 Y132.16 E1772.035
G1 X128.78 Y128.78 E1772.274
G1 X125.4 Y125.4 E1772.512
G1 X122.02 Y122.02 E1772.75
G1 X118.64 Y118.64 E1772.989
G1 X115.27 Y115.27 E1773.227
G1 X111.89 Y111.89 E1773.465
G1 X108.51 Y108.51 E1773.704
G1 X105.13 Y105.13 E1773.942
G1 X101.75 Y101.75 E1774.18
G1 X98.38 Y98.38 E1774.419
G1 X95 Y95 E1774.657
G1 X94.93 Y95.5 F9000
G1 X98.32 Y98.89 E1774.896 F3600
G1 X101.71 Y102.28 E1775.135
G1 X105.1 Y105.67 E1775.374
G1 X108.49 Y109.06 E1775.614
G1 X111.88 Y112.45 E1775.853
G1 X115.27 Y115.84 E1776.092
G1 X118.66 Y119.23 E1776.331
G1 X122.05 Y122.62 E1776.57
G1 X125.44 Y126 E1776.809
G1 X128.83 Y129.39 E1777.049
G1 X132.22 Y132.78 E1777.288
G1 X135.61 Y136.17 E1777.527
G1 X139 Y139.56 E1777.766
G1 X139.09 Y140.22 F9000
G1 X135.69 Y136.82 E1778.006 F3600
G1 X132.28 Y133.41 E1778.246
G1 X128.88 Y130.01 E1778.486
G1 X125.48 Y126.61 E1778.726
G1 X122.08 Y123.21 E1778.966
G1 X118.68 Y119.81 E1779.206
G1 X115.27 Y116.41 E1779.446
G1 X111.87 Y113 E1779.686
G1 X108.47 Y109.6 E1779.926
G1 X105.07 Y106.2 E1780.166
G1 X101.67 Y102.8 E1780.406
G1 X98.27 Y99.4 E1780.646
G1 X94.86 Y96 E1780.886
G1 X94.8 Y96.49 F9000
G1 X98.21 Y99.91 E1781.127 F3600
G1 X101.62 Y103.32 E1781.368
G1 X105.04 Y106.73 E1781.609
G1 X108.45 Y110.15 E1781.85
G1 X111.87 Y113.56 E1782.09
G1 X115.28 Y116.98 E1782.331
G1 X118.69 Y120.39 E1782.572
G1 X122.11 Y123.8 E1782.813
G1 X125.52 Y127.22 E1783.054
G1 X128.93 Y130.63 E1783.295
G1 X132.35 Y134.04 E1783.536
G1 X135.76 Y137.46 E1783.776
G1 X139.17 Y140.87 E1784.017
G1 X139.26 Y141.53 F9000
G1 X135.84 Y138.1 E1784.259 F3600
G1 X132.41 Y134.67 E1784.501
G1 X128.99 Y131.25 E1784.742
G1 X125.56 Y127.82 E1784.984
G1 X122.13 Y124.4 E1785.226
G1 X118.71 Y120.97 E1785.467
G1 X115.28 Y117.55 E1785.709
G1 X111.86 Y114.12 E1785.951
G1 X108.43 Y110.7 E1786.192
G1 X105.01 Y107.27 E1786.434
G1 X101.58 Y103.84 E1786.676
G1 X98.16 Y100.42 E1786.918
G1 X94.73 Y96.99 E1787.159
G1 X94.66 Y97.49 F9000
G1 X98.1 Y100.93 E1787.402 F3600
G1 X101.54 Y104.37 E1787.644
G1 X104.98 Y107.8 E1787.887
G1 X108.41 Y111.24 E1788.129
G1 X111.85 Y114.68 E1788.372
G1 X115.29 Y118.12 E1788.614
G1 X118.73 Y121.55 E1788.857
G1 X122.16 Y124.99 E1789.1
G1 X125.6 Y128.43 E1789.342
G1 X129.04 Y131.87 E1789.585
G1 X132.48 Y135.3 E1789.827
G1 X135.91 Y138.74 E1790.07
G1 X139.35 Y142.18 E1790.312
G1 X139.44 Y142.83 F9000
G1 X135.99 Y139.38 E1790.556 F3600
G1 X132.54 Y135.93 E1790.799
G1 X129.09 Y132.48 E1791.042
G1 X125.64 Y129.03 E1791.286
G1 X122.19 Y125.59 E1791.529
G1 X118.74 Y122.14 E1791.772
G1 X115.29 Y118.69 E1792.016
G1 X111.84 Y115.24 E1792.259
G1 X108.39 Y111.79 E1792.503
G1 X104.94 Y108.34 E1792.746
G1 X101.49 Y104.89 E1792.989
G1 X98.05 Y101.44 E1793.233
G1 X94.6 Y97.99 E1793.476
G1 X94.53 Y98.49 F9000
G1 X97.99 Y101.95 E1793.72 F3600
G1 X101.45 Y105.41 E1793.964
G1 X104.91 Y108.87 E1794.209
G1 X108.37 Y112.33 E1794.453
G1 X111.84 Y115.79 E1794.697
G1 X115.3 Y119.26 E1794.941
G1 X118.76 Y122.72 E1795.186
G1 X122.22 Y126.18 E1795.43
G1 X125.68 Y129.64 E1795.674
G1 X129.14 Y133.1 E1795.918
G1 X132.6 Y136.56 E1796.162
G1 X136.07 Y140.02 E1796.407
G1 X139.53 Y143.49 E1796.651
G1 X139.61 Y144.14 F9000
G1 X136.14 Y140.67 E1796.896 F3600
G1 X132.67 Y137.19 E1797.141
G1 X129.19 Y133.72 E1797.386
G1 X125.72 Y130.25 E1797.631
G1 X122.25 Y126.77 E1797.876
G1 X118.77 Y123.3 E1798.121
G1 X115.3 Y119.83 E1798.366
G1 X111.83 Y116.35 E1798.611
G1 X108.35 Y112.88 E1798.856
G1 X104.88 Y109.41 E1799.101
G1 X101.41 Y105.93 E1799.347
G1 X97.94 Y102.46 E1799.592
G1 X94.46 Y98.99 E1799.837
G1 X94.4 Y99.49 F9000
G1 X97.88 Y102.97 E1800.083 F3600
G1 X101.37 Y106.46 E1800.328
G1 X104.85 Y109.94 E1800.574
G1 X108.34 Y113.43 E1800.82
G1 X111.82 Y116.91 E1801.066
G1 X115.31 Y120.4 E1801.312
G1 X118.79 Y123.88 E1801.558
G1 X122.28 Y127.37 E1801.804
G1 X125.76 Y130.85 E1802.05
G1 X129.25 Y134.34 E1802.296
G1 X132.73 Y137.82 E1802.542
G1 X136.22 Y141.31 E1802.787
G1 X139.7 Y144.79 E1803.033
G1 X139.79 Y145.45 F9000
G1 X136.29 Y141.95 E1803.28 F3600
G1 X132.8 Y138.45 E1803.527
G1 X129.3 Y134.96 E1803.774
G1 X125.8 Y131.46 E1804.02
G1 X122.3 Y127.96 E1804.267
G1 X118.81 Y124.46 E1804.514
G1 X115.31 Y120.97 E1804.761
G1 X111.81 Y117.47 E1805.007
G1 X108.32 Y113.97 E1805.254
G1 X104.82 Y110.48 E1805.501
G1 X101.32 Y106.98 E1805.748
G1 X97.83 Y103.48 E1805.994
G1 X94.33 Y99.98 E1806.241
G1 X94.26 Y100.48 F9000
G1 X97.77 Y103.99 E1806.489 F3600
G1 X101.28 Y107.5 E1806.736
G1 X104.79 Y111.01 E1806.984
G1 X108.3 Y114.52 E1807.231
G1 X111.81 Y118.03 E1807.479
G1 X115.31 Y121.54 E1807.727
G1 X118.82 Y125.05 E1807.974
G1 X122.33 Y128.56 E1808.222
G1 X125.84 Y132.06 E1808.469
G1 X129.35 Y135.57 E1808.717
G1 X132.86 Y139.08 E1808.964
G1 X136.37 Y142.59 E1809.212
G1 X139.88 Y146.1 E1809.46
G1 X139.97 Y146.76 F9000
G1 X136.45 Y143.23 E1809.708 F3600
G1 X132.92 Y139.71 E1809.956
G1 X129.4 Y136.19 E1810.205
G1 X125.88 Y132.67 E1810.453
G1 X122.36 Y129.15 E1810.702
G1 X118.84 Y125.63 E1810.95
G1 X115.32 Y122.11 E1811.199
G1 X111.8 Y118.59 E1811.447
G1 X108.28 Y115.07 E1811.695
G1 X104.76 Y111.54 E1811.944
G1 X101.24 Y108.02 E1812.192
G1 X97.71 Y104.5 E1812.441
G1 X94.19 Y100.98 E1812.689
G1 X94.13 Y101.48 F9000
G1 X97.66 Y105.01 E1812.938 F3600
G1 X101.19 Y108.55 E1813.188
G1 X104.72 Y112.08 E1813.437
G1 X108.26 Y115.61 E1813.686
G1 X111.79 Y119.14 E1813.936
G1 X115.32 Y122.68 E1814.185
G1 X118.86 Y126.21 E1814.434
G1 X122.39 Y129.74 E1814.683
G1 X125.92 Y133.28 E1814.933
G1 X129.46 Y136.81 E1815.182
G1 X132.99 Y140.34 E1815.431
G1 X136.52 Y143.88 E1815.68
G1 X140.05 Y147.41 E1815.93
G1 X140.14 Y148.06 F9000
G1 X136.85 Y144.77 E1816.162 F3600
G1 X133.56 Y141.48 E1816.394
G1 X130.27 Y138.19 E1816.626
G1 X126.98 Y134.9 E1816.859
G1 X123.68 Y131.6 E1817.091
G1 X120.39 Y128.31 E1817.323
G1 X117.1 Y125.02 E1817.555
G1 X113.81 Y121.73 E1817.788
G1 X110.52 Y118.44 E1818.02
G1 X107.23 Y115.14 E1818.252
G1 X103.93 Y111.85 E1818.484
G1 X100.64 Y108.56 E1818.717
G1 X97.35 Y105.27 E1818.949
G1 X94.06 Y101.98 E1819.181
G1 X93.99 Y102.48 F9000
G1 X97.29 Y105.78 E1819.414 F3600
G1 X100.6 Y109.08 E1819.647
G1 X103.9 Y112.39 E1819.88
G1 X107.2 Y115.69 E1820.113
G1 X110.51 Y118.99 E1820.346
G1 X113.81 Y122.29 E1820.579
G1 X117.11 Y125.6 E1820.812
G1 X120.41 Y128.9 E1821.045
G1 X123.72 Y132.2 E1821.278
G1 X127.02 Y135.5 E1821.511
G1 X130.32 Y138.81 E1821.744
G1 X133.62 Y142.11 E1821.977
G1 X136.93 Y145.41 E1822.21
G1 X140.23 Y148.72 E1822.443
G1 X140.32 Y149.37 F9000
G1 X137 Y146.06 E1822.677 F3600
G1 X133.69 Y142.74 E1822.911
G1 X130.38 Y139.43 E1823.145
G1 X127.06 Y136.11 E1823.379
G1 X123.75 Y132.8 E1823.613
G1 X120.43 Y129.49 E1823.846
G1 X117.12 Y126.17 E1824.08
G1 X113.81 Y122.86 E1824.314
G1 X110.49 Y119.54 E1824.548
G1 X107.18 Y116.23 E1824.782
G1 X103.87 Y112.92 E1825.015
G1 X100.55 Y109.6 E1825.249
G1 X97.24 Y106.29 E1825.483
G1 X93.92 Y102.98 E1825.717
G1 X93.86 Y103.47 F9000
G1 X97.18 Y106.8 E1825.951 F3600
G1 X100.51 Y110.12 E1826.186
G1 X103.83 Y113.45 E1826.421
G1 X107.16 Y116.77 E1826.655
G1 X110.48 Y120.1 E1826.89
G1 X113.81 Y123.42 E1827.124
G1 X117.13 Y126.75 E1827.359
G1 X120.46 Y130.07 E1827.594
G1 X123.78 Y133.4 E1827.828
G1 X127.11 Y136.72 E1828.063
G1 X130.43 Y140.05 E1828.297
G1 X133.76 Y143.37 E1828.532
G1 X137.08 Y146.7 E1828.766
G1 X140.41 Y150.02 E1829.001
G1 X140.5 Y150.68 F9000
G1 X137.16 Y147.34 E1829.236 F3600
G1 X133.82 Y144 E1829.472
G1 X130.49 Y140.67 E1829.707
G1 X127.15 Y137.33 E1829.943
G1 X123.81 Y134 E1830.178
G1 X120.48 Y130.66 E1830.413
G1 X117.14 Y127.32 E1830.649
G1 X113.81 Y123.99 E1830.884
G1 X110.47 Y120.65 E1831.119
G1 X107.13 Y117.32 E1831.355
G1 X103.8 Y113.98 E1831.59
G1 X100.46 Y110.64 E1831.826
G1 X97.13 Y107.31 E1832.061
G1 X93.79 Y103.97 E1832.296
G1 X93.72 Y104.47 F9000
G1 X97.07 Y107.82 E1832.533 F3600
G1 X100.42 Y111.17 E1832.769
G1 X103.76 Y114.51 E1833.005
G1 X107.11 Y117.86 E1833.241
G1 X110.46 Y121.21 E1833.477
G1 X113.81 Y124.55 E1833.713
G1 X117.15 Y127.9 E1833.949
G1 X120.5 Y131.25 E1834.186
G1 X123.85 Y134.59 E1834.422
G1 X127.19 Y137.94 E1834.658
G1 X130.54 Y141.29 E1834.894
G1 X133.89 Y144.64 E1835.13
G1 X137.23 Y147.98 E1835.366
G1 X140.58 Y151.33 E1835.603
G1 X140.67 Y151.98 F9000
G1 X137.31 Y148.63 E1835.839 F3600
G1 X133.95 Y145.27 E1836.076
G1 X130.6 Y141.91 E1836.313
G1 X127.24 Y138.55 E1836.55
G1 X123.88 Y135.19 E1836.787
G1 X120.52 Y131.84 E1837.024
G1 X117.16 Y128.48 E1837.261
G1 X113.81 Y125.12 E1837.498
G1 X110.45 Y121.76 E1837.735
G1 X107.09 Y118.4 E1837.972
G1 X103.73 Y115.04 E1838.209
G1 X100.37 Y111.69 E1838.446
G1 X97.02 Y108.33 E1838.683
G1 X93.66 Y104.97 E1838.92
G1 X93.59 Y105.47 F9000
G1 X96.96 Y108.84 E1839.157 F3600
G1 X100.33 Y112.21 E1839.395
G1 X103.7 Y115.58 E1839.633
G1 X107.07 Y118.95 E1839.87
G1 X110.44 Y122.32 E1840.108
G1 X113.8 Y125.68 E1840.346
G1 X117.17 Y129.05 E1840.584
G1 X120.54 Y132.42 E1840.821
G1 X123.91 Y135.79 E1841.059
G1 X127.28 Y139.16 E1841.297
G1 X130.65 Y142.53 E1841.535
G1 X134.02 Y145.9 E1841.772
G1 X137.39 Y149.27 E1842.01
G1 X140.76 Y152.64 E1842.248
G1 X140.85 Y153.29 F9000
G1 X137.47 Y149.91 E1842.486 F3600
G1 X134.09 Y146.53 E1842.725
