; Generated with MatterSlice 2.22.04
; filamentDiameter = 1.75
; extrusionWidth = 0.4
; firstLayerExtrusionWidth = 0.4
; layerThickness = 0.3
; firstLayerThickness = 0.3
; automatic settings before start_gcode
G21 ; set units to millimeters
M107 ; fan off
M140 S50 ; start heating the bed
M104 T0 S210 ; start heating T0
M190 S50 ; wait for bed temperature to be reached
T0 ; set the active extruder to 0
; settings from start_gcode
G28 X0 Y0 Z0 ; home all axes
G1 Z5 F5000
M109 S210 ; set the extruder temp and wait
G28 X0 Y0 Z0 ; Home Z again in case there was filament on nozzle
G29 ; probe the bed
; automatic settings after start_gcode
T0 ; set the active extruder to 0
G90 ; use absolute coordinates
G92 E0 ; reset the expected extruder position
M82 ; use absolute distance for extrusion
; Layer count: 7
; Layer Change GCode
; LAYER:0
; LAYER_HEIGHT:0.3
; TYPE:FILL
M400
M107
G1 X68.93 Y47.09 Z0.8 F9000
G1 X159.37 Y47.09
G1 Y161.32
G1 X163.08
; TYPE:SKIRT
G1 Z0.3
G1 F1800
G1 X143.25 Y210.41 E2.641 F1080
G1 X84.75 E5.56
G1 X64.92 Y161.32 E8.201
G1 X83.65 Y43.61 E14.148
G1 X144.34 Y43.58 E17.176
G1 X163.08 Y161.32 E23.124
G1 X162.67 Y161.28 F9000
G1 X142.98 Y210.01 E25.746 F1080
G1 X85.02 E28.637
G1 X65.33 Y161.28 E31.26
G1 X84 Y44.01 E37.184
G1 X144 Y43.98 E40.178
G1 X162.67 Y161.28 E46.103
G1 E43.103 F1800
G1 Z0.8
G1 X162.07 Y161.21 F9000
G1 X156.94 Y160.66
G1 X156.27 Y160.55
G1 X155.37
G1 X138.66 Y203.61
; TYPE:WALL-OUTER
G1 Z0.3
G1 E46.103 F1800
G1 X89.34 E48.564 F1080
G1 X71.93 Y160.53 E50.882
G1 X89.46 Y50.41 E56.445
G1 X138.54 Y50.39 E58.894
G1 X156.07 Y160.53 E64.458
G1 X138.68 Y203.58 E66.774
G1 X138.66 Y203.61
G1 X135.66
G1 X138.39 Y203.21 F9000
; TYPE:WALL-INNER
G1 X89.61 E69.208 F1080
G1 X72.35 Y160.48 E71.507
G1 X89.8 Y50.81 E77.048
G1 X138.2 Y50.79 E79.463
G1 X155.65 Y160.48 E85.004
G1 X138.41 Y203.18 E87.302
G1 X138.39 Y203.21
G1 E84.302 F1800
G1 Z0.8
G1 X138.09 Y202.76 F9000
G1 X139.1 Y197.84
G1 X144.05 Y161.57
G1 X145.04 Y158.43
G1 X132.02 Y62.36
G1 X131.34 Y61.91
; TYPE:WALL-OUTER
G1 Z0.3
G1 E87.302 F1800
G1 X144.42 Y159.05 E92.192 F1080
G1 X131.01 Y192.26 E93.979
G1 X96.99 E95.676
G1 X83.58 Y159.05 E97.462
G1 X96.66 Y61.91 E102.353
G1 X131.3 E104.081
G1 X131.34
G1 X131.74 Y64.88
G1 X131.69 Y61.51 F9000
; TYPE:WALL-INNER
G1 X144.83 Y159.11 E108.994 F1080
G1 X131.28 Y192.66 E110.8
G1 X96.72 E112.524
G1 X83.17 Y159.11 E114.329
G1 X96.31 Y61.51 E119.242
G1 X131.65 E121.006
G1 X131.69
G1 E118.006 F1800
G1 Z0.8
G1 X90.28 Y51.15 F9000
; TYPE:BOTTOM-FILL
G1 Z0.3
G1 E121.006 F1800
G1 X90.05 Y51.37 E121.021 F1080
G1 X89.95 Y52.04 F9000
G1 X90.84 Y51.15 E121.085 F1080
G1 X91.41 Y51.14 F9000
G1 X89.84 Y52.71 E121.195 F1080
G1 X89.73 Y53.39 F9000
G1 X91.97 Y51.14 E121.353 F1080
G1 X92.54 F9000
G1 X89.63 Y54.06 E121.559 F1080
G1 X89.52 Y54.73 F9000
G1 X93.11 Y51.14 E121.812 F1080
G1 X93.67 F9000
G1 X89.41 Y55.4 E122.112 F1080
G1 X89.3 Y56.08 F9000
G1 X94.24 Y51.14 E122.461 F1080
G1 X94.8 Y51.14 F9000
G1 X89.2 Y56.75 E122.856 F1080
G1 X89.09 Y57.42 F9000
G1 X95.37 Y51.14 E123.299 F1080
G1 X95.94 F9000
G1 X88.98 Y58.09 E123.79 F1080
G1 X88.88 Y58.77 F9000
G1 X96.5 Y51.14 E124.328 F1080
G1 X97.07 F9000
G1 X88.77 Y59.44 E124.913 F1080
G1 X88.66 Y60.11 F9000
G1 X97.63 Y51.14 E125.546 F1080
G1 X98.2 Y51.14 F9000
G1 X88.56 Y60.79 E126.226 F1080
G1 X88.45 Y61.46 F9000
G1 X98.77 Y51.14 E126.954 F1080
G1 X99.33 F9000
G1 X88.34 Y62.13 E127.73 F1080
G1 X88.23 Y62.8 F9000
G1 X99.9 Y51.14 E128.553 F1080
G1 X100.46 F9000
G1 X88.13 Y63.48 E129.423 F1080
G1 X88.02 Y64.15 F9000
G1 X101.03 Y51.14 E130.341 F1080
G1 X101.59 F9000
G1 X87.91 Y64.82 E131.306 F1080
G1 X87.81 Y65.5 F9000
G1 X102.16 Y51.14 E132.319 F1080
G1 X102.73 F9000
G1 X87.7 Y66.17 E133.379 F1080
G1 X87.59 Y66.84 F9000
G1 X103.29 Y51.14 E134.487 F1080
G1 X103.86 Y51.14 F9000
G1 X87.48 Y67.51 E135.642 F1080
G1 X87.38 Y68.19 F9000
G1 X104.42 Y51.14 E136.845 F1080
G1 X104.99 F9000
G1 X87.27 Y68.86 E138.095 F1080
G1 X87.16 Y69.53 F9000
G1 X105.56 Y51.14 E139.393 F1080
G1 X106.12 F9000
G1 X96.09 Y61.17 E140.1 F1080
G1 X96.66 F9000
G1 X106.69 Y51.14 E140.808 F1080
G1 X107.25 Y51.14 F9000
G1 X97.22 Y61.17 E141.516 F1080
G1 X97.79 F9000
G1 X107.82 Y51.14 E142.224 F1080
G1 X108.39 F9000
G1 X98.35 Y61.17 E142.931 F1080
G1 X98.92 F9000
G1 X108.95 Y51.14 E143.639 F1080
G1 X109.52 F9000
G1 X99.49 Y61.17 E144.347 F1080
G1 X100.05 F9000
G1 X110.08 Y51.14 E145.055 F1080
G1 X110.65 Y51.14 F9000
G1 X100.62 Y61.17 E145.762 F1080
G1 X101.18 F9000
G1 X111.22 Y51.14 E146.47 F1080
G1 X111.78 F9000
G1 X101.75 Y61.17 E147.178 F1080
G1 X102.31 F9000
G1 X112.35 Y51.14 E147.886 F1080
G1 X112.91 F9000
G1 X102.88 Y61.17 E148.594 F1080
G1 X103.45 F9000
G1 X113.48 Y51.14 E149.302 F1080
G1 X114.05 F9000
G1 X104.01 Y61.17 E150.01 F1080
G1 X104.58 F9000
G1 X114.61 Y51.14 E150.718 F1080
G1 X115.18 F9000
G1 X105.14 Y61.17 E151.425 F1080
G1 X105.71 F9000
G1 X115.74 Y51.14 E152.133 F1080
G1 X116.31 Y51.13 F9000
G1 X106.27 Y61.17 E152.841 F1080
G1 X106.84 F9000
G1 X116.87 Y51.13 E153.549 F1080
G1 X117.44 F9000
G1 X107.41 Y61.17 E154.257 F1080
G1 X107.97 F9000
G1 X118.01 Y51.13 E154.965 F1080
G1 X118.57 F9000
G1 X108.54 Y61.17 E155.673 F1080
G1 X109.1 F9000
G1 X119.14 Y51.13 E156.381 F1080
G1 X119.7 F9000
G1 X109.67 Y61.17 E157.089 F1080
G1 X110.23 F9000
G1 X120.27 Y51.13 E157.798 F1080
G1 X120.84 F9000
G1 X110.8 Y61.17 E158.506 F1080
G1 X111.37 F9000
G1 X121.4 Y51.13 E159.214 F1080
G1 X121.97 F9000
G1 X111.93 Y61.17 E159.922 F1080
G1 X112.5 F9000
G1 X122.53 Y51.13 E160.63 F1080
G1 X123.1 Y51.13 F9000
G1 X113.06 Y61.17 E161.338 F1080
G1 X113.63 F9000
G1 X123.67 Y51.13 E162.046 F1080
G1 X124.23 F9000
G1 X114.19 Y61.17 E162.754 F1080
G1 X114.76 F9000
G1 X124.8 Y51.13 E163.463 F1080
G1 X125.36 F9000
G1 X115.32 Y61.17 E164.171 F1080
G1 X115.89 F9000
G1 X125.93 Y51.13 E164.879 F1080
G1 X126.5 F9000
G1 X116.46 Y61.17 E165.587 F1080
G1 X117.02 F9000
G1 X127.06 Y51.13 E166.296 F1080
G1 X127.63 F9000
G1 X117.59 Y61.17 E167.004 F1080
G1 X118.15 F9000
G1 X128.19 Y51.13 E167.712 F1080
G1 X128.76 F9000
G1 X118.72 Y61.17 E168.421 F1080
G1 X119.28 F9000
G1 X129.32 Y51.13 E169.129 F1080
G1 X129.89 F9000
G1 X119.85 Y61.17 E169.837 F1080
G1 X120.42 F9000
G1 X130.46 Y51.13 E170.546 F1080
G1 X131.02 F9000
G1 X120.98 Y61.17 E171.254 F1080
G1 X121.55 F9000
G1 X131.59 Y51.13 E171.962 F1080
G1 X132.15 F9000
G1 X122.11 Y61.17 E172.671 F1080
G1 X122.68 F9000
G1 X132.72 Y51.13 E173.379 F1080
G1 X133.29 F9000
G1 X123.24 Y61.17 E174.088 F1080
G1 X123.81 F9000
G1 X133.85 Y51.13 E174.796 F1080
G1 X134.42 F9000
G1 X124.38 Y61.17 E175.505 F1080
G1 X124.94 F9000
G1 X134.98 Y51.13 E176.213 F1080
G1 X135.55 Y51.13 F9000
G1 X125.51 Y61.17 E176.922 F1080
G1 X126.07 F9000
G1 X136.12 Y51.13 E177.63 F1080
G1 X136.68 F9000
G1 X126.64 Y61.17 E178.339 F1080
G1 X127.2 F9000
G1 X137.25 Y51.13 E179.047 F1080
G1 X137.81 F9000
G1 X127.77 Y61.17 E179.756 F1080
G1 X128.34 F9000
G1 X137.97 Y51.53 E180.436 F1080
G1 X138.05 Y52.02 F9000
G1 X128.9 Y61.17 E181.081 F1080
G1 X129.47 F9000
G1 X138.13 Y52.51 E181.692 F1080
G1 X138.21 Y52.99 F9000
G1 X130.03 Y61.17 E182.269 F1080
G1 X130.6 F9000
G1 X138.28 Y53.48 E182.811 F1080
G1 X138.36 Y53.97 F9000
G1 X131.16 Y61.17 E183.319 F1080
G1 X131.73 F9000
G1 X138.44 Y54.46 E183.793 F1080
G1 X138.52 Y54.95 F9000
G1 X132.03 Y61.44 E184.251 F1080
G1 X132.09 Y61.94 F9000
G1 X138.6 Y55.44 E184.709 F1080
G1 X138.67 Y55.92 F9000
G1 X132.16 Y62.44 E185.169 F1080
G1 X132.23 Y62.93 F9000
G1 X138.75 Y56.41 E185.629 F1080
G1 X138.83 Y56.9 F9000
G1 X132.29 Y63.43 E186.09 F1080
G1 X132.36 Y63.93 F9000
G1 X138.91 Y57.39 E186.552 F1080
G1 X138.98 Y57.88 F9000
G1 X132.43 Y64.43 E187.014 F1080
G1 X132.5 Y64.93 F9000
G1 X139.06 Y58.36 E187.477 F1080
G1 X139.14 Y58.85 F9000
G1 X132.56 Y65.43 E187.941 F1080
G1 X132.63 Y65.92 F9000
G1 X139.22 Y59.34 E188.406 F1080
G1 X139.29 Y59.83 F9000
G1 X132.7 Y66.42 E188.871 F1080
G1 X132.76 Y66.92 F9000
G1 X139.37 Y60.32 E189.337 F1080
G1 X139.45 Y60.8 F9000
G1 X132.83 Y67.42 E189.804 F1080
G1 X132.9 Y67.92 F9000
G1 X139.53 Y61.29 E190.272 F1080
G1 X139.6 Y61.78 F9000
G1 X132.97 Y68.42 E190.74 F1080
G1 X133.03 Y68.92 F9000
G1 X139.68 Y62.27 E191.209 F1080
G1 X139.76 Y62.76 F9000
G1 X133.1 Y69.42 E191.679 F1080
G1 X133.17 Y69.91 F9000
G1 X139.84 Y63.24 E192.15 F1080
G1 X139.92 Y63.73 F9000
G1 X133.23 Y70.41 E192.621 F1080
G1 X133.3 Y70.91 F9000
G1 X139.99 Y64.22 E193.093 F1080
G1 X140.07 Y64.71 F9000
G1 X133.37 Y71.41 E193.566 F1080
G1 X133.44 Y71.91 F9000
G1 X140.15 Y65.2 E194.04 F1080
G1 X140.23 Y65.68 F9000
G1 X133.5 Y72.41 E194.514 F1080
G1 X133.57 Y72.9 F9000
G1 X140.3 Y66.17 E194.989 F1080
G1 X140.38 Y66.66 F9000
G1 X133.64 Y73.4 E195.465 F1080
G1 X133.7 Y73.9 F9000
G1 X140.46 Y67.15 E195.941 F1080
G1 X140.54 Y67.64 F9000
G1 X133.77 Y74.4 E196.419 F1080
G1 X133.84 Y74.9 F9000
G1 X140.61 Y68.12 E196.896 F1080
G1 X140.69 Y68.61 F9000
G1 X133.91 Y75.4 E197.375 F1080
G1 X133.97 Y75.9 F9000
G1 X140.77 Y69.1 E197.855 F1080
G1 X140.85 Y69.59 F9000
G1 X134.04 Y76.4 E198.335 F1080
G1 X134.11 Y76.89 F9000
G1 X140.92 Y70.08 E198.816 F1080
G1 X141 Y70.56 F9000
G1 X134.17 Y77.39 E199.298 F1080
G1 X134.24 Y77.89 F9000
G1 X141.08 Y71.05 E199.78 F1080
G1 X141.16 Y71.54 F9000
G1 X134.31 Y78.39 E200.264 F1080
G1 X134.38 Y78.89 F9000
G1 X141.24 Y72.03 E200.747 F1080
G1 X141.31 Y72.52 F9000
G1 X134.44 Y79.39 E201.232 F1080
G1 X134.51 Y79.88 F9000
G1 X141.39 Y73 E201.718 F1080
G1 X141.47 Y73.49 F9000
G1 X134.58 Y80.38 E202.204 F1080
G1 X134.64 Y80.88 F9000
G1 X141.55 Y73.98 E202.691 F1080
G1 X141.62 Y74.47 F9000
G1 X134.71 Y81.38 E203.178 F1080
G1 X134.78 Y81.88 F9000
G1 X141.7 Y74.96 E203.667 F1080
G1 X141.78 Y75.44 F9000
G1 X134.85 Y82.38 E204.156 F1080
G1 X134.91 Y82.88 F9000
G1 X141.86 Y75.93 E204.646 F1080
G1 X141.93 Y76.42 F9000
G1 X134.98 Y83.37 E205.136 F1080
G1 X135.05 Y83.87 F9000
G1 X142.01 Y76.91 E205.628 F1080
G1 X142.09 Y77.4 F9000
G1 X135.11 Y84.37 E206.12 F1080
G1 X135.18 Y84.87 F9000
G1 X142.17 Y77.88 E206.613 F1080
G1 X142.24 Y78.37 F9000
G1 X135.25 Y85.37 E207.107 F1080
G1 X135.32 Y85.87 F9000
G1 X142.32 Y78.86 E207.601 F1080
G1 X142.4 Y79.35 F9000
G1 X135.38 Y86.37 E208.096 F1080
G1 X135.45 Y86.86 F9000
G1 X142.48 Y79.84 E208.592 F1080
G1 X142.56 Y80.32 F9000
G1 X135.52 Y87.36 E209.089 F1080
G1 X135.58 Y87.86 F9000
G1 X142.63 Y80.81 E209.586 F1080
G1 X142.71 Y81.3 F9000
G1 X135.65 Y88.36 E210.084 F1080
G1 X135.72 Y88.86 F9000
G1 X142.79 Y81.79 E210.583 F1080
G1 X142.87 Y82.28 F9000
G1 X135.79 Y89.36 E211.082 F1080
G1 X135.85 Y89.86 F9000
G1 X142.94 Y82.76 E211.583 F1080
G1 X143.02 Y83.25 F9000
G1 X135.92 Y90.35 E212.084 F1080
G1 X135.99 Y90.85 F9000
G1 X143.1 Y83.74 E212.585 F1080
G1 X143.18 Y84.23 F9000
G1 X136.05 Y91.35 E213.088 F1080
G1 X136.12 Y91.85 F9000
G1 X143.25 Y84.72 E213.591 F1080
G1 X143.33 Y85.2 F9000
G1 X136.19 Y92.35 E214.095 F1080
G1 X136.26 Y92.85 F9000
G1 X143.41 Y85.69 E214.6 F1080
G1 X143.49 Y86.18 F9000
G1 X136.32 Y93.35 E215.105 F1080
G1 X136.39 Y93.84 F9000
G1 X143.56 Y86.67 E215.612 F1080
G1 X143.64 Y87.16 F9000
G1 X136.46 Y94.34 E216.119 F1080
G1 X136.52 Y94.84 F9000
G1 X143.72 Y87.65 E216.626 F1080
G1 X143.8 Y88.13 F9000
G1 X136.59 Y95.34 E217.135 F1080
G1 X136.66 Y95.84 F9000
G1 X143.88 Y88.62 E217.644 F1080
G1 X143.95 Y89.11 F9000
G1 X136.73 Y96.34 E218.154 F1080
G1 X136.79 Y96.84 F9000
G1 X144.03 Y89.6 E218.665 F1080
G1 X144.11 Y90.09 F9000
G1 X136.86 Y97.33 E219.176 F1080
G1 X136.93 Y97.83 F9000
G1 X144.19 Y90.57 E219.688 F1080
G1 X144.26 Y91.06 F9000
G1 X136.99 Y98.33 E220.201 F1080
G1 X137.06 Y98.83 F9000
G1 X144.34 Y91.55 E220.715 F1080
G1 X144.42 Y92.04 F9000
G1 X137.13 Y99.33 E221.229 F1080
G1 X137.2 Y99.83 F9000
G1 X144.5 Y92.53 E221.744 F1080
G1 X144.57 Y93.01 F9000
G1 X137.26 Y100.33 E222.26 F1080
G1 X137.33 Y100.82 F9000
G1 X144.65 Y93.5 E222.777 F1080
G1 X144.73 Y93.99 F9000
G1 X137.4 Y101.32 E223.294 F1080
G1 X137.46 Y101.82 F9000
G1 X144.81 Y94.48 E223.812 F1080
G1 X144.88 Y94.97 F9000
G1 X137.53 Y102.32 E224.331 F1080
G1 X137.6 Y102.82 F9000
G1 X144.96 Y95.45 E224.851 F1080
G1 X145.04 Y95.94 F9000
G1 X137.67 Y103.32 E225.371 F1080
G1 X137.73 Y103.82 F9000
G1 X145.12 Y96.43 E225.892 F1080
G1 X145.2 Y96.92 F9000
G1 X137.8 Y104.31 E226.414 F1080
G1 X137.87 Y104.81 F9000
G1 X145.27 Y97.41 E226.937 F1080
G1 X145.35 Y97.89 F9000
G1 X137.93 Y105.31 E227.46 F1080
G1 X138 Y105.81 F9000
G1 X145.43 Y98.38 E227.984 F1080
G1 X145.51 Y98.87 F9000
G1 X138.07 Y106.31 E228.509 F1080
G1 X138.14 Y106.81 F9000
G1 X145.58 Y99.36 E229.034 F1080
G1 X145.66 Y99.85 F9000
G1 X138.2 Y107.3 E229.561 F1080
G1 X138.27 Y107.8 F9000
G1 X145.74 Y100.33 E230.088 F1080
G1 X145.82 Y100.82 F9000
G1 X138.34 Y108.3 E230.615 F1080
G1 X138.4 Y108.8 F9000
G1 X145.89 Y101.31 E231.144 F1080
G1 X145.97 Y101.8 F9000
G1 X138.47 Y109.3 E231.673 F1080
G1 X138.54 Y109.8 F9000
G1 X146.05 Y102.29 E232.203 F1080
G1 X146.13 Y102.77 F9000
G1 X138.6 Y110.3 E232.734 F1080
G1 X138.67 Y110.8 F9000
G1 X146.2 Y103.26 E233.265 F1080
G1 X146.28 Y103.75 F9000
G1 X138.74 Y111.29 E233.797 F1080
G1 X138.81 Y111.79 F9000
G1 X146.36 Y104.24 E234.33 F1080
G1 X146.44 Y104.73 F9000
G1 X138.87 Y112.29 E234.864 F1080
G1 X138.94 Y112.79 F9000
G1 X146.52 Y105.21 E235.399 F1080
G1 X146.59 Y105.7 F9000
G1 X139.01 Y113.29 E235.934 F1080
G1 X139.08 Y113.79 F9000
G1 X146.67 Y106.19 E236.47 F1080
G1 X146.75 Y106.68 F9000
G1 X139.14 Y114.28 E237.006 F1080
G1 X139.21 Y114.78 F9000
G1 X146.83 Y107.17 E237.544 F1080
G1 X146.9 Y107.65 F9000
G1 X139.28 Y115.28 E238.082 F1080
G1 X139.34 Y115.78 F9000
G1 X146.98 Y108.14 E238.621 F1080
G1 X147.06 Y108.63 F9000
G1 X139.41 Y116.28 E239.161 F1080
G1 X139.48 Y116.78 F9000
G1 X147.14 Y109.12 E239.701 F1080
G1 X147.21 Y109.61 F9000
G1 X139.54 Y117.28 E240.242 F1080
G1 X139.61 Y117.77 F9000
G1 X147.29 Y110.09 E240.784 F1080
G1 X147.37 Y110.58 F9000
G1 X139.68 Y118.27 E241.327 F1080
G1 X139.75 Y118.77 F9000
G1 X147.45 Y111.07 E241.87 F1080
G1 X147.53 Y111.56 F9000
G1 X139.81 Y119.27 E242.414 F1080
G1 X139.88 Y119.77 F9000
G1 X147.6 Y112.05 E242.959 F1080
G1 X147.68 Y112.53 F9000
G1 X139.95 Y120.27 E243.505 F1080
G1 X140.01 Y120.77 F9000
G1 X147.76 Y113.02 E244.051 F1080
G1 X147.84 Y113.51 F9000
G1 X140.08 Y121.26 E244.598 F1080
G1 X140.15 Y121.76 F9000
G1 X147.91 Y114 E245.146 F1080
G1 X147.99 Y114.49 F9000
G1 X140.22 Y122.26 E245.694 F1080
G1 X140.28 Y122.76 F9000
G1 X148.07 Y114.97 E246.244 F1080
G1 X148.15 Y115.46 F9000
G1 X140.35 Y123.26 E246.794 F1080
G1 X140.42 Y123.76 F9000
G1 X148.22 Y115.95 E247.345 F1080
G1 X148.3 Y116.44 F9000
G1 X140.49 Y124.26 E247.896 F1080
G1 X140.55 Y124.75 F9000
G1 X148.38 Y116.93 E248.448 F1080
G1 X148.46 Y117.42 F9000
G1 X140.62 Y125.25 E249.001 F1080
G1 X140.69 Y125.75 F9000
G1 X148.53 Y117.9 E249.555 F1080
G1 X148.61 Y118.39 F9000
G1 X140.75 Y126.25 E250.11 F1080
G1 X140.82 Y126.75 F9000
G1 X148.69 Y118.88 E250.665 F1080
G1 X148.77 Y119.37 F9000
G1 X140.89 Y127.25 E251.221 F1080
G1 X140.95 Y127.75 F9000
G1 X148.85 Y119.86 E251.778 F1080
G1 X148.92 Y120.34 F9000
G1 X141.02 Y128.24 E252.335 F1080
G1 X141.09 Y128.74 F9000
G1 X149 Y120.83 E252.893 F1080
G1 X149.08 Y121.32 F9000
G1 X141.16 Y129.24 E253.452 F1080
G1 X141.22 Y129.74 F9000
G1 X149.16 Y121.81 E254.012 F1080
G1 X149.23 Y122.3 F9000
G1 X141.29 Y130.24 E254.572 F1080
G1 X141.36 Y130.74 F9000
G1 X149.31 Y122.78 E255.133 F1080
G1 X149.39 Y123.27 F9000
G1 X141.42 Y131.24 E255.695 F1080
G1 X141.49 Y131.73 F9000
G1 X149.47 Y123.76 E256.258 F1080
G1 X149.54 Y124.25 F9000
G1 X141.56 Y132.23 E256.821 F1080
G1 X141.63 Y132.73 F9000
G1 X149.62 Y124.74 E257.385 F1080
G1 X149.7 Y125.22 F9000
G1 X141.69 Y133.23 E257.95 F1080
G1 X141.76 Y133.73 F9000
G1 X149.78 Y125.71 E258.516 F1080
G1 X149.86 Y126.2 F9000
G1 X141.83 Y134.23 E259.082 F1080
G1 X141.89 Y134.73 F9000
G1 X149.93 Y126.69 E259.65 F1080
G1 X150.01 Y127.18 F9000
G1 X141.96 Y135.22 E260.217 F1080
G1 X142.03 Y135.72 F9000
G1 X150.09 Y127.66 E260.786 F1080
G1 X150.17 Y128.15 F9000
G1 X142.1 Y136.22 E261.355 F1080
G1 X142.16 Y136.72 F9000
G1 X150.24 Y128.64 E261.926 F1080
G1 X150.32 Y129.13 F9000
G1 X142.23 Y137.22 E262.496 F1080
G1 X142.3 Y137.72 F9000
G1 X150.4 Y129.62 E263.068 F1080
G1 X150.48 Y130.1 F9000
G1 X142.36 Y138.22 E263.64 F1080
G1 X142.43 Y138.71 F9000
G1 X150.55 Y130.59 E264.213 F1080
G1 X150.63 Y131.08 F9000
G1 X142.5 Y139.21 E264.787 F1080
G1 X142.57 Y139.71 F9000
G1 X150.71 Y131.57 E265.362 F1080
G1 X150.79 Y132.06 F9000
G1 X142.63 Y140.21 E265.937 F1080
G1 X142.7 Y140.71 F9000
G1 X150.86 Y132.54 E266.513 F1080
G1 X150.94 Y133.03 F9000
G1 X142.77 Y141.21 E267.09 F1080
G1 X142.83 Y141.7 F9000
G1 X151.02 Y133.52 E267.667 F1080
G1 X151.1 Y134.01 F9000
G1 X142.9 Y142.2 E268.245 F1080
G1 X142.97 Y142.7 F9000
G1 X151.18 Y134.5 E268.824 F1080
G1 X151.25 Y134.98 F9000
G1 X143.04 Y143.2 E269.404 F1080
G1 X143.1 Y143.7 F9000
G1 X151.33 Y135.47 E269.985 F1080
G1 X151.41 Y135.96 F9000
G1 X143.17 Y144.2 E270.566 F1080
G1 X143.24 Y144.7 F9000
G1 X151.49 Y136.45 E271.148 F1080
G1 X151.56 Y136.94 F9000
G1 X143.3 Y145.2 E271.731 F1080
G1 X143.37 Y145.69 F9000
G1 X151.64 Y137.42 E272.314 F1080
G1 X151.72 Y137.91 F9000
G1 X143.44 Y146.19 E272.898 F1080
G1 X143.51 Y146.69 F9000
G1 X151.8 Y138.4 E273.483 F1080
G1 X151.87 Y138.89 F9000
G1 X143.57 Y147.19 E274.069 F1080
G1 X143.64 Y147.69 F9000
G1 X151.95 Y139.38 E274.655 F1080
G1 X152.03 Y139.86 F9000
G1 X143.71 Y148.19 E275.242 F1080
G1 X143.77 Y148.68 F9000
G1 X152.11 Y140.35 E275.83 F1080
G1 X152.18 Y140.84 F9000
G1 X143.84 Y149.18 E276.419 F1080
G1 X143.91 Y149.68 F9000
G1 X152.26 Y141.33 E277.008 F1080
G1 X152.34 Y141.82 F9000
G1 X143.98 Y150.18 E277.598 F1080
G1 X144.04 Y150.68 F9000
G1 X152.42 Y142.3 E278.189 F1080
G1 X152.5 Y142.79 F9000
G1 X144.11 Y151.18 E278.781 F1080
G1 X144.18 Y151.68 F9000
G1 X152.57 Y143.28 E279.373 F1080
G1 X152.65 Y143.77 F9000
G1 X144.24 Y152.18 E279.967 F1080
G1 X144.31 Y152.67 F9000
G1 X152.73 Y144.26 E280.56 F1080
G1 X152.81 Y144.74 F9000
G1 X144.38 Y153.17 E281.155 F1080
G1 X144.45 Y153.67 F9000
G1 X152.88 Y145.23 E281.75 F1080
G1 X152.96 Y145.72 F9000
G1 X144.51 Y154.17 E282.346 F1080
G1 X144.58 Y154.67 F9000
G1 X153.04 Y146.21 E282.943 F1080
G1 X153.12 Y146.7 F9000
G1 X144.65 Y155.17 E283.541 F1080
G1 X144.71 Y155.66 F9000
G1 X153.19 Y147.18 E284.139 F1080
G1 X153.27 Y147.67 F9000
G1 X144.78 Y156.16 E284.738 F1080
G1 X144.85 Y156.66 F9000
G1 X153.35 Y148.16 E285.338 F1080
G1 X153.43 Y148.65 F9000
G1 X144.92 Y157.16 E285.938 F1080
G1 X144.98 Y157.66 F9000
G1 X153.51 Y149.14 E286.54 F1080
G1 X153.58 Y149.63 F9000
G1 X145.05 Y158.16 E287.142 F1080
G1 X145.12 Y158.66 F9000
G1 X153.66 Y150.11 E287.744 F1080
G1 X153.74 Y150.6 F9000
G1 X145.18 Y159.16 E288.348 F1080
G1 X144.79 Y160.11 F9000
G1 X153.82 Y151.09 E288.985 F1080
G1 X153.89 Y151.58 F9000
G1 X144.41 Y161.06 E289.654 F1080
G1 X144.03 Y162.01 F9000
G1 X153.97 Y152.07 E290.356 F1080
G1 X154.05 Y152.55 F9000
G1 X143.64 Y162.96 E291.09 F1080
G1 X143.26 Y163.91 F9000
G1 X154.13 Y153.04 E291.856 F1080
G1 X154.2 Y153.53 F9000
G1 X142.88 Y164.86 E292.656 F1080
G1 X142.49 Y165.81 F9000
G1 X154.28 Y154.02 E293.487 F1080
G1 X154.36 Y154.5 F9000
G1 X142.11 Y166.75 E294.352 F1080
G1 X141.73 Y167.7 F9000
G1 X154.44 Y154.99 E295.248 F1080
G1 X154.51 Y155.48 F9000
G1 X141.34 Y168.65 E296.178 F1080
G1 X140.96 Y169.6 F9000
G1 X154.59 Y155.97 E297.14 F1080
G1 X154.67 Y156.46 F9000
G1 X140.57 Y170.55 E298.134 F1080
G1 X140.19 Y171.5 F9000
G1 X154.75 Y156.95 E299.161 F1080
G1 X154.82 Y157.43 F9000
G1 X139.81 Y172.45 E300.221 F1080
G1 X139.42 Y173.4 F9000
G1 X154.9 Y157.92 E301.313 F1080
G1 X154.98 Y158.41 F9000
G1 X139.04 Y174.35 E302.437 F1080
G1 X138.66 Y175.3 F9000
G1 X155.06 Y158.9 E303.595 F1080
G1 X155.14 Y159.39 F9000
G1 X138.27 Y176.25 E304.784 F1080
G1 X137.89 Y177.2 F9000
G1 X155.21 Y159.87 E306.006 F1080
G1 X155.29 Y160.36 F9000
G1 X137.51 Y178.15 E307.261 F1080
G1 X137.12 Y179.1 F9000
G1 X154.98 Y161.24 E308.521 F1080
G1 X154.6 Y162.19 F9000
G1 X136.74 Y180.04 E309.781 F1080
G1 X136.36 Y180.99 F9000
G1 X154.21 Y163.14 E311.041 F1080
G1 X153.83 Y164.08 F9000
G1 X135.97 Y181.94 E312.301 F1080
G1 X135.59 Y182.89 F9000
G1 X153.45 Y165.03 E313.561 F1080
G1 X153.06 Y165.98 F9000
G1 X135.21 Y183.84 E314.821 F1080
G1 X134.82 Y184.79 F9000
G1 X152.68 Y166.93 E316.081 F1080
G1 X152.3 Y167.88 F9000
G1 X134.44 Y185.74 E317.341 F1080
G1 X134.05 Y186.69 F9000
G1 X151.91 Y168.83 E318.601 F1080
G1 X151.53 Y169.78 F9000
G1 X133.67 Y187.64 E319.861 F1080
G1 X133.29 Y188.59 F9000
G1 X151.15 Y170.73 E321.121 F1080
G1 X150.76 Y171.68 F9000
G1 X132.9 Y189.54 E322.381 F1080
G1 X132.52 Y190.49 F9000
G1 X150.38 Y172.63 E323.641 F1080
G1 X150 Y173.58 F9000
G1 X132.14 Y191.44 E324.901 F1080
G1 X131.75 Y192.38 F9000
G1 X149.61 Y174.53 E326.161 F1080
G1 E323.161 F1800
G1 Z0.8
G1 X134.2 Y78.76 F9000
G1 X132.02 Y62.4
G1 X130.57 Y61.21
G1 X97.44
G1 X95.92 Y62.34
G1 X93.57 Y64.81
G1 X87.06 Y70.2
G1 Z0.3
G1 E326.161 F1800
G1 X96 Y61.27 E326.792 F1080
G1 X95.91 Y61.92 F9000
G1 X86.95 Y70.88 E327.424 F1080
G1 X86.84 Y71.55 F9000
G1 X95.82 Y62.57 E328.058 F1080
G1 X95.73 Y63.23 F9000
G1 X86.74 Y72.22 E328.692 F1080
G1 X86.63 Y72.89 F9000
G1 X95.64 Y63.88 E329.328 F1080
G1 X95.55 Y64.53 F9000
G1 X86.52 Y73.57 E329.966 F1080
G1 X86.41 Y74.24 F9000
G1 X95.47 Y65.19 E330.604 F1080
G1 X95.38 Y65.84 F9000
G1 X86.31 Y74.91 E331.244 F1080
G1 X86.2 Y75.59 F9000
G1 X95.29 Y66.49 E331.886 F1080
G1 X95.2 Y67.15 F9000
G1 X86.09 Y76.26 E332.529 F1080
G1 X85.99 Y76.93 F9000
G1 X95.12 Y67.8 E333.173 F1080
G1 X95.03 Y68.46 F9000
G1 X85.88 Y77.6 E333.818 F1080
G1 X85.77 Y78.28 F9000
G1 X94.94 Y69.11 E334.465 F1080
G1 X94.85 Y69.76 F9000
G1 X85.66 Y78.95 E335.113 F1080
G1 X85.56 Y79.62 F9000
G1 X94.76 Y70.42 E335.762 F1080
G1 X94.68 Y71.07 F9000
G1 X85.45 Y80.3 E336.413 F1080
G1 X85.34 Y80.97 F9000
G1 X94.59 Y71.72 E337.065 F1080
G1 X94.5 Y72.38 F9000
G1 X85.24 Y81.64 E337.719 F1080
G1 X85.13 Y82.31 F9000
G1 X94.41 Y73.03 E338.374 F1080
G1 X94.32 Y73.69 F9000
G1 X85.02 Y82.99 E339.03 F1080
G1 X84.92 Y83.66 F9000
G1 X94.23 Y74.34 E339.688 F1080
G1 X94.15 Y74.99 F9000
G1 X84.81 Y84.33 E340.347 F1080
G1 X84.7 Y85 F9000
G1 X94.06 Y75.65 E341.007 F1080
G1 X93.97 Y76.3 F9000
G1 X84.59 Y85.68 E341.668 F1080
G1 X84.49 Y86.35 F9000
G1 X93.88 Y76.95 E342.331 F1080
G1 X93.79 Y77.61 F9000
G1 X84.38 Y87.02 E342.995 F1080
G1 X84.27 Y87.7 F9000
G1 X93.71 Y78.26 E343.661 F1080
G1 X93.62 Y78.92 F9000
G1 X84.17 Y88.37 E344.328 F1080
G1 X84.06 Y89.04 F9000
G1 X93.53 Y79.57 E344.996 F1080
G1 X93.44 Y80.22 F9000
G1 X83.95 Y89.71 E345.666 F1080
G1 X83.84 Y90.39 F9000
G1 X93.36 Y80.88 E346.337 F1080
G1 X93.27 Y81.53 F9000
G1 X83.74 Y91.06 E347.009 F1080
G1 X83.63 Y91.73 F9000
G1 X93.18 Y82.18 E347.683 F1080
G1 X93.09 Y82.84 F9000
G1 X83.52 Y92.4 E348.358 F1080
G1 X83.42 Y93.08 F9000
G1 X93 Y83.49 E349.034 F1080
G1 X92.91 Y84.14 F9000
G1 X83.31 Y93.75 E349.712 F1080
G1 X83.2 Y94.42 F9000
G1 X92.83 Y84.8 E350.391 F1080
G1 X92.74 Y85.45 F9000
G1 X83.09 Y95.1 E351.071 F1080
G1 X82.99 Y95.77 F9000
G1 X92.65 Y86.11 E351.753 F1080
G1 X92.56 Y86.76 F9000
G1 X82.88 Y96.44 E352.436 F1080
G1 X82.77 Y97.11 F9000
G1 X92.47 Y87.41 E353.121 F1080
G1 X92.39 Y88.07 F9000
G1 X82.67 Y97.79 E353.806 F1080
G1 X82.56 Y98.46 F9000
G1 X92.3 Y88.72 E354.494 F1080
G1 X92.21 Y89.37 F9000
G1 X82.45 Y99.13 E355.182 F1080
G1 X82.35 Y99.8 F9000
G1 X92.12 Y90.03 E355.872 F1080
G1 X92.03 Y90.68 F9000
G1 X82.24 Y100.48 E356.563 F1080
G1 X82.13 Y101.15 F9000
G1 X91.95 Y91.34 E357.255 F1080
G1 X91.86 Y91.99 F9000
G1 X82.02 Y101.82 E357.949 F1080
G1 X81.92 Y102.5 F9000
G1 X91.77 Y92.64 E358.644 F1080
G1 X91.68 Y93.3 F9000
G1 X81.81 Y103.17 E359.341 F1080
G1 X81.7 Y103.84 F9000
G1 X91.59 Y93.95 E360.039 F1080
G1 X91.51 Y94.6 F9000
G1 X81.6 Y104.51 E360.738 F1080
G1 X81.49 Y105.19 F9000
G1 X91.42 Y95.26 E361.439 F1080
G1 X91.33 Y95.91 F9000
G1 X81.38 Y105.86 E362.141 F1080
G1 X81.27 Y106.53 F9000
G1 X91.24 Y96.57 E362.844 F1080
G1 X91.15 Y97.22 F9000
G1 X81.17 Y107.21 E363.548 F1080
G1 X81.06 Y107.88 F9000
G1 X91.07 Y97.87 E364.254 F1080
G1 X90.98 Y98.53 F9000
G1 X80.95 Y108.55 E364.962 F1080
G1 X80.85 Y109.22 F9000
G1 X90.89 Y99.18 E365.67 F1080
G1 X90.8 Y99.83 F9000
G1 X80.74 Y109.9 E366.38 F1080
G1 X80.63 Y110.57 F9000
G1 X90.71 Y100.49 E367.092 F1080
G1 X90.63 Y101.14 F9000
G1 X80.53 Y111.24 E367.804 F1080
G1 X80.42 Y111.91 F9000
G1 X90.54 Y101.8 E368.518 F1080
G1 X90.45 Y102.45 F9000
G1 X80.31 Y112.59 E369.233 F1080
G1 X80.2 Y113.26 F9000
G1 X90.36 Y103.1 E369.95 F1080
G1 X90.27 Y103.76 F9000
G1 X80.1 Y113.93 E370.668 F1080
G1 X79.99 Y114.61 F9000
G1 X90.19 Y104.41 E371.388 F1080
G1 X90.1 Y105.06 F9000
G1 X79.88 Y115.28 E372.108 F1080
G1 X79.78 Y115.95 F9000
G1 X90.01 Y105.72 E372.83 F1080
G1 X89.92 Y106.37 F9000
G1 X79.67 Y116.62 E373.554 F1080
G1 X79.56 Y117.3 F9000
G1 X89.83 Y107.02 E374.278 F1080
G1 X89.75 Y107.68 F9000
G1 X79.45 Y117.97 E375.005 F1080
G1 X79.35 Y118.64 F9000
G1 X89.66 Y108.33 E375.732 F1080
G1 X89.57 Y108.99 F9000
G1 X79.24 Y119.31 E376.461 F1080
G1 X79.13 Y119.99 F9000
G1 X89.48 Y109.64 E377.191 F1080
G1 X89.39 Y110.29 F9000
G1 X79.03 Y120.66 E377.922 F1080
G1 X78.92 Y121.33 F9000
G1 X89.31 Y110.95 E378.655 F1080
G1 X89.22 Y111.6 F9000
G1 X78.81 Y122.01 E379.389 F1080
G1 X78.71 Y122.68 F9000
G1 X89.13 Y112.25 E380.125 F1080
G1 X89.04 Y112.91 F9000
G1 X78.6 Y123.35 E380.862 F1080
G1 X78.49 Y124.02 F9000
G1 X88.95 Y113.56 E381.6 F1080
G1 X88.87 Y114.21 F9000
G1 X78.38 Y124.7 E382.339 F1080
G1 X78.28 Y125.37 F9000
G1 X88.78 Y114.87 E383.08 F1080
G1 X88.69 Y115.52 F9000
G1 X78.17 Y126.04 E383.823 F1080
G1 X78.06 Y126.71 F9000
G1 X88.6 Y116.18 E384.566 F1080
G1 X88.51 Y116.83 F9000
G1 X77.96 Y127.39 E385.311 F1080
G1 X77.85 Y128.06 F9000
G1 X88.43 Y117.48 E386.057 F1080
G1 X88.34 Y118.14 F9000
G1 X77.74 Y128.73 E386.805 F1080
G1 X77.64 Y129.41 F9000
G1 X88.25 Y118.79 E387.554 F1080
G1 X88.16 Y119.44 F9000
G1 X77.53 Y130.08 E388.304 F1080
G1 X77.42 Y130.75 F9000
G1 X88.07 Y120.1 E389.056 F1080
G1 X87.99 Y120.75 F9000
G1 X77.31 Y131.42 E389.809 F1080
G1 X77.21 Y132.1 F9000
G1 X87.9 Y121.41 E390.563 F1080
G1 X87.81 Y122.06 F9000
G1 X77.1 Y132.77 E391.319 F1080
G1 X76.99 Y133.44 F9000
G1 X87.72 Y122.71 E392.076 F1080
G1 X87.63 Y123.37 F9000
G1 X76.89 Y134.11 E392.834 F1080
G1 X76.78 Y134.79 F9000
G1 X87.55 Y124.02 E393.594 F1080
G1 X87.46 Y124.67 F9000
G1 X76.67 Y135.46 E394.355 F1080
G1 X76.56 Y136.13 F9000
G1 X87.37 Y125.33 E395.117 F1080
G1 X87.28 Y125.98 F9000
G1 X76.46 Y136.81 E395.881 F1080
G1 X76.35 Y137.48 F9000
G1 X87.19 Y126.64 E396.646 F1080
G1 X87.11 Y127.29 F9000
G1 X76.24 Y138.15 E397.412 F1080
G1 X76.14 Y138.82 F9000
G1 X87.02 Y127.94 E398.18 F1080
G1 X86.93 Y128.6 F9000
G1 X76.03 Y139.5 E398.949 F1080
G1 X75.92 Y140.17 F9000
G1 X86.84 Y129.25 E399.719 F1080
G1 X86.75 Y129.9 F9000
G1 X75.82 Y140.84 E400.491 F1080
G1 X75.71 Y141.52 F9000
G1 X86.67 Y130.56 E401.264 F1080
G1 X86.58 Y131.21 F9000
G1 X75.6 Y142.19 E402.039 F1080
G1 X75.49 Y142.86 F9000
G1 X86.49 Y131.86 E402.815 F1080
G1 X86.4 Y132.52 F9000
G1 X75.39 Y143.53 E403.592 F1080
G1 X75.28 Y144.21 F9000
G1 X86.31 Y133.17 E404.37 F1080
G1 X86.23 Y133.83 F9000
G1 X75.17 Y144.88 E405.15 F1080
G1 X75.07 Y145.55 F9000
G1 X86.14 Y134.48 E405.931 F1080
G1 X86.05 Y135.13 F9000
G1 X74.96 Y146.22 E406.714 F1080
G1 X74.85 Y146.9 F9000
G1 X85.96 Y135.79 E407.498 F1080
G1 X85.87 Y136.44 F9000
G1 X74.74 Y147.57 E408.283 F1080
G1 X74.64 Y148.24 F9000
G1 X85.79 Y137.09 E409.069 F1080
G1 X85.7 Y137.75 F9000
G1 X74.53 Y148.92 E409.857 F1080
G1 X74.42 Y149.59 F9000
G1 X85.61 Y138.4 E410.647 F1080
G1 X85.52 Y139.06 F9000
G1 X74.32 Y150.26 E411.437 F1080
G1 X74.21 Y150.93 F9000
G1 X85.43 Y139.71 E412.229 F1080
G1 X85.35 Y140.36 F9000
G1 X74.1 Y151.61 E413.022 F1080
G1 X74 Y152.28 F9000
G1 X85.26 Y141.02 E413.817 F1080
G1 X85.17 Y141.67 F9000
G1 X73.89 Y152.95 E414.613 F1080
G1 X73.78 Y153.62 F9000
G1 X85.08 Y142.32 E415.41 F1080
G1 X84.99 Y142.98 F9000
G1 X73.67 Y154.3 E416.209 F1080
G1 X73.57 Y154.97 F9000
G1 X84.91 Y143.63 E417.009 F1080
G1 X84.82 Y144.29 F9000
G1 X73.46 Y155.64 E417.81 F1080
G1 X73.35 Y156.32 F9000
G1 X84.73 Y144.94 E418.613 F1080
G1 X84.64 Y145.59 F9000
G1 X73.25 Y156.99 E419.417 F1080
G1 X73.14 Y157.66 F9000
G1 X84.55 Y146.25 E420.223 F1080
G1 X84.47 Y146.9 F9000
G1 X73.03 Y158.33 E421.029 F1080
G1 X72.92 Y159.01 F9000
G1 X84.38 Y147.55 E421.837 F1080
G1 X84.29 Y148.21 F9000
G1 X72.82 Y159.68 E422.647 F1080
G1 X72.71 Y160.35 F9000
G1 X84.2 Y148.86 E423.457 F1080
G1 X84.11 Y149.51 F9000
G1 X72.84 Y160.79 E424.253 F1080
G1 X73 Y161.19 F9000
G1 X84.03 Y150.17 E425.031 F1080
G1 X83.94 Y150.82 F9000
G1 X73.16 Y161.6 E425.791 F1080
G1 X73.33 Y162 F9000
G1 X83.85 Y151.48 E426.533 F1080
G1 X83.76 Y152.13 F9000
G1 X73.49 Y162.4 E427.258 F1080
G1 X73.65 Y162.8 F9000
G1 X83.67 Y152.78 E427.965 F1080
G1 X83.58 Y153.44 F9000
G1 X73.81 Y163.21 E428.655 F1080
G1 X73.98 Y163.61 F9000
G1 X83.5 Y154.09 E429.326 F1080
G1 X83.41 Y154.74 F9000
G1 X74.14 Y164.01 E429.98 F1080
G1 X74.3 Y164.42 F9000
G1 X83.32 Y155.4 E430.617 F1080
G1 X83.23 Y156.05 F9000
G1 X74.47 Y164.82 E431.235 F1080
G1 X74.63 Y165.22 F9000
G1 X83.15 Y156.71 E431.836 F1080
G1 X83.06 Y157.36 F9000
G1 X74.79 Y165.62 E432.419 F1080
G1 X74.95 Y166.03 F9000
G1 X82.97 Y158.01 E432.985 F1080
G1 X82.88 Y158.67 F9000
G1 X75.12 Y166.43 E433.533 F1080
G1 X75.28 Y166.83 F9000
G1 X82.86 Y159.25 E434.067 F1080
G1 X83.02 Y159.66 F9000
G1 X75.44 Y167.24 E434.602 F1080
G1 X75.61 Y167.64 F9000
G1 X83.18 Y160.06 E435.137 F1080
G1 X83.35 Y160.46 F9000
G1 X75.77 Y168.04 E435.672 F1080
G1 X75.93 Y168.45 F9000
G1 X83.51 Y160.87 E436.207 F1080
G1 X83.67 Y161.27 F9000
G1 X76.09 Y168.85 E436.742 F1080
G1 X76.26 Y169.25 F9000
G1 X83.84 Y161.67 E437.276 F1080
G1 X84 Y162.07 F9000
G1 X76.42 Y169.65 E437.811 F1080
G1 X76.58 Y170.06 F9000
G1 X84.16 Y162.48 E438.346 F1080
G1 X84.32 Y162.88 F9000
G1 X76.74 Y170.46 E438.881 F1080
G1 X76.91 Y170.86 F9000
G1 X84.49 Y163.28 E439.416 F1080
G1 X84.65 Y163.69 F9000
G1 X77.07 Y171.27 E439.951 F1080
G1 X77.23 Y171.67 F9000
G1 X84.81 Y164.09 E440.485 F1080
G1 X84.98 Y164.49 F9000
G1 X77.4 Y172.07 E441.02 F1080
G1 X77.56 Y172.47 F9000
G1 X85.14 Y164.89 E441.555 F1080
G1 X85.3 Y165.3 F9000
G1 X77.72 Y172.88 E442.09 F1080
G1 X77.88 Y173.28 F9000
G1 X85.46 Y165.7 E442.625 F1080
G1 X85.63 Y166.1 F9000
G1 X78.05 Y173.68 E443.16 F1080
G1 X78.21 Y174.09 F9000
G1 X85.79 Y166.51 E443.694 F1080
G1 X85.95 Y166.91 F9000
G1 X78.37 Y174.49 E444.229 F1080
G1 X78.53 Y174.89 F9000
G1 X86.11 Y167.31 E444.764 F1080
G1 X86.28 Y167.71 F9000
G1 X78.7 Y175.3 E445.299 F1080
G1 X78.86 Y175.7 F9000
G1 X86.44 Y168.12 E445.834 F1080
G1 X86.6 Y168.52 F9000
G1 X79.02 Y176.1 E446.369 F1080
G1 X79.19 Y176.5 F9000
G1 X86.77 Y168.92 E446.903 F1080
G1 X86.93 Y169.33 F9000
G1 X79.35 Y176.91 E447.438 F1080
G1 X79.51 Y177.31 F9000
G1 X87.09 Y169.73 E447.973 F1080
G1 X87.25 Y170.13 F9000
G1 X79.67 Y177.71 E448.508 F1080
G1 X79.84 Y178.12 F9000
G1 X87.42 Y170.54 E449.043 F1080
G1 X87.58 Y170.94 F9000
G1 X80 Y178.52 E449.578 F1080
G1 X80.16 Y178.92 F9000
G1 X87.74 Y171.34 E450.112 F1080
G1 X87.91 Y171.74 F9000
G1 X80.33 Y179.32 E450.647 F1080
G1 X80.49 Y179.73 F9000
G1 X88.07 Y172.15 E451.182 F1080
G1 X88.23 Y172.55 F9000
G1 X80.65 Y180.13 E451.717 F1080
G1 X80.81 Y180.53 F9000
G1 X88.39 Y172.95 E452.252 F1080
G1 X88.56 Y173.36 F9000
G1 X80.98 Y180.94 E452.787 F1080
G1 X81.14 Y181.34 F9000
G1 X88.72 Y173.76 E453.321 F1080
G1 X88.88 Y174.16 F9000
G1 X81.3 Y181.74 E453.856 F1080
G1 X81.47 Y182.14 F9000
G1 X89.05 Y174.56 E454.391 F1080
G1 X89.21 Y174.97 F9000
G1 X81.63 Y182.55 E454.926 F1080
G1 X81.79 Y182.95 F9000
G1 X89.37 Y175.37 E455.461 F1080
G1 X89.53 Y175.77 F9000
G1 X81.95 Y183.35 E455.996 F1080
G1 X82.12 Y183.76 F9000
G1 X89.7 Y176.18 E456.53 F1080
G1 X89.86 Y176.58 F9000
G1 X82.28 Y184.16 E457.065 F1080
G1 X82.44 Y184.56 F9000
G1 X90.02 Y176.98 E457.6 F1080
G1 X90.19 Y177.38 F9000
G1 X82.6 Y184.96 E458.135 F1080
G1 X82.77 Y185.37 F9000
G1 X90.35 Y177.79 E458.67 F1080
G1 X90.51 Y178.19 F9000
G1 X82.93 Y185.77 E459.205 F1080
G1 X83.09 Y186.17 F9000
G1 X90.67 Y178.59 E459.74 F1080
G1 X90.84 Y179 F9000
G1 X83.26 Y186.58 E460.274 F1080
G1 X83.42 Y186.98 F9000
G1 X91 Y179.4 E460.809 F1080
G1 X91.16 Y179.8 F9000
G1 X83.58 Y187.38 E461.344 F1080
G1 X83.74 Y187.78 F9000
G1 X91.32 Y180.2 E461.879 F1080
G1 X91.49 Y180.61 F9000
G1 X83.91 Y188.19 E462.414 F1080
G1 X84.07 Y188.59 F9000
G1 X91.65 Y181.01 E462.949 F1080
G1 X91.81 Y181.41 F9000
G1 X84.23 Y188.99 E463.483 F1080
G1 X84.4 Y189.4 F9000
G1 X91.98 Y181.82 E464.018 F1080
G1 X92.14 Y182.22 F9000
G1 X84.56 Y189.8 E464.553 F1080
G1 X84.72 Y190.2 F9000
G1 X92.3 Y182.62 E465.088 F1080
G1 X92.46 Y183.02 F9000
G1 X84.88 Y190.61 E465.623 F1080
G1 X85.05 Y191.01 F9000
G1 X92.63 Y183.43 E466.158 F1080
G1 X92.79 Y183.83 F9000
G1 X85.21 Y191.41 E466.693 F1080
G1 X85.37 Y191.81 F9000
G1 X92.95 Y184.23 E467.228 F1080
G1 X93.12 Y184.64 F9000
G1 X85.53 Y192.22 E467.762 F1080
G1 X85.7 Y192.62 F9000
G1 X93.28 Y185.04 E468.297 F1080
G1 X93.44 Y185.44 F9000
G1 X85.86 Y193.02 E468.832 F1080
G1 X86.02 Y193.43 F9000
G1 X93.6 Y185.84 E469.367 F1080
G1 X93.77 Y186.25 F9000
G1 X86.19 Y193.83 E469.902 F1080
G1 X86.35 Y194.23 F9000
G1 X93.93 Y186.65 E470.437 F1080
G1 X94.09 Y187.05 F9000
G1 X86.51 Y194.63 E470.972 F1080
G1 X86.67 Y195.04 F9000
G1 X94.26 Y187.46 E471.507 F1080
G1 X94.42 Y187.86 F9000
G1 X86.84 Y195.44 E472.041 F1080
G1 X87 Y195.84 F9000
G1 X94.58 Y188.26 E472.576 F1080
G1 X94.74 Y188.67 F9000
G1 X87.16 Y196.25 E473.111 F1080
G1 X87.32 Y196.65 F9000
G1 X94.91 Y189.07 E473.646 F1080
G1 X95.07 Y189.47 F9000
G1 X87.49 Y197.05 E474.181 F1080
G1 X87.65 Y197.45 F9000
G1 X95.23 Y189.87 E474.716 F1080
G1 X95.39 Y190.28 F9000
G1 X87.81 Y197.86 E475.251 F1080
G1 X87.98 Y198.26 F9000
G1 X95.56 Y190.68 E475.786 F1080
G1 X95.72 Y191.08 F9000
G1 X88.14 Y198.66 E476.321 F1080
G1 X88.3 Y199.07 F9000
G1 X95.88 Y191.49 E476.855 F1080
G1 X96.05 Y191.89 F9000
G1 X88.46 Y199.47 E477.39 F1080
G1 X88.63 Y199.87 F9000
G1 X96.21 Y192.29 E477.925 F1080
G1 X96.37 Y192.69 F9000
G1 X88.79 Y200.28 E478.46 F1080
G1 X88.95 Y200.68 F9000
G1 X96.63 Y193 E479.002 F1080
G1 X97.2 F9000
G1 X89.12 Y201.08 E479.572 F1080
G1 X89.28 Y201.48 F9000
G1 X97.76 Y193 E480.17 F1080
G1 X98.33 F9000
G1 X89.44 Y201.89 E480.797 F1080
G1 X89.6 Y202.29 F9000
G1 X98.89 Y193 E481.453 F1080
G1 X99.46 F9000
G1 X89.77 Y202.69 E482.136 F1080
G1 X90.15 Y202.87 F9000
G1 X100.02 Y193 E482.833 F1080
G1 X100.59 F9000
G1 X90.72 Y202.87 E483.529 F1080
G1 X91.29 F9000
G1 X101.16 Y193 E484.225 F1080
G1 X101.72 F9000
G1 X91.85 Y202.87 E484.922 F1080
G1 X92.42 F9000
G1 X102.29 Y193 E485.618 F1080
G1 X102.85 F9000
G1 X92.98 Y202.87 E486.315 F1080
G1 X93.55 F9000
G1 X103.42 Y193 E487.011 F1080
G1 X103.98 F9000
G1 X94.11 Y202.87 E487.707 F1080
G1 X94.68 F9000
G1 X104.55 Y193 E488.404 F1080
G1 X105.11 F9000
G1 X95.25 Y202.87 E489.1 F1080
G1 X95.81 F9000
G1 X105.68 Y193 E489.796 F1080
G1 X106.25 F9000
G1 X96.38 Y202.87 E490.493 F1080
G1 X96.94 F9000
G1 X106.81 Y193 E491.189 F1080
G1 X107.38 F9000
G1 X97.51 Y202.87 E491.886 F1080
G1 X98.07 F9000
G1 X107.94 Y193 E492.582 F1080
G1 X108.51 F9000
G1 X98.64 Y202.87 E493.278 F1080
G1 X99.2 F9000
G1 X109.07 Y193 E493.975 F1080
G1 X109.64 F9000
G1 X99.77 Y202.87 E494.671 F1080
G1 X100.34 F9000
G1 X110.21 Y193 E495.367 F1080
G1 X110.77 F9000
G1 X100.9 Y202.87 E496.064 F1080
G1 X101.47 F9000
G1 X111.34 Y193 E496.76 F1080
G1 X111.9 F9000
G1 X102.03 Y202.87 E497.457 F1080
G1 X102.6 F9000
G1 X112.47 Y193 E498.153 F1080
G1 X113.03 F9000
G1 X103.16 Y202.87 E498.849 F1080
G1 X103.73 F9000
G1 X113.6 Y193 E499.546 F1080
G1 X114.17 F9000
G1 X104.3 Y202.87 E500.242 F1080
G1 X104.86 F9000
G1 X114.73 Y193 E500.938 F1080
G1 X115.3 F9000
G1 X105.43 Y202.87 E501.635 F1080
G1 X105.99 F9000
G1 X115.86 Y193 E502.331 F1080
G1 X116.43 F9000
G1 X106.56 Y202.87 E503.028 F1080
G1 X107.12 F9000
G1 X116.99 Y193 E503.724 F1080
G1 X117.56 F9000
G1 X107.69 Y202.87 E504.42 F1080
G1 X108.26 F9000
G1 X118.13 Y193 E505.117 F1080
G1 X118.69 F9000
G1 X108.82 Y202.87 E505.813 F1080
G1 X109.39 F9000
G1 X119.26 Y193 E506.509 F1080
G1 X119.82 F9000
G1 X109.95 Y202.87 E507.206 F1080
G1 X110.52 F9000
G1 X120.39 Y193 E507.902 F1080
G1 X120.95 F9000
G1 X111.08 Y202.87 E508.599 F1080
G1 X111.65 F9000
G1 X121.52 Y193 E509.295 F1080
G1 X122.09 F9000
G1 X112.22 Y202.87 E509.991 F1080
G1 X112.78 F9000
G1 X122.65 Y193 E510.688 F1080
G1 X123.22 F9000
G1 X113.35 Y202.87 E511.384 F1080
G1 X113.91 F9000
G1 X123.78 Y193 E512.08 F1080
G1 X124.35 F9000
G1 X114.48 Y202.87 E512.777 F1080
G1 X115.04 F9000
G1 X124.91 Y193 E513.473 F1080
G1 X125.48 F9000
G1 X115.61 Y202.87 E514.17 F1080
G1 X116.17 F9000
G1 X126.05 Y193 E514.866 F1080
G1 X126.61 F9000
G1 X116.74 Y202.87 E515.562 F1080
G1 X117.31 F9000
G1 X127.18 Y193 E516.259 F1080
G1 X127.74 F9000
G1 X117.87 Y202.87 E516.955 F1080
G1 X118.44 F9000
G1 X128.31 Y193 E517.652 F1080
G1 X128.87 F9000
G1 X119 Y202.87 E518.348 F1080
G1 X119.57 F9000
G1 X129.44 Y193 E519.044 F1080
G1 X130.01 F9000
G1 X120.13 Y202.87 E519.741 F1080
G1 X120.7 F9000
G1 X130.57 Y193 E520.437 F1080
G1 X131.14 F9000
G1 X121.27 Y202.87 E521.134 F1080
G1 X121.83 F9000
G1 X149.23 Y175.47 E523.067 F1080
G1 X148.85 Y176.42 F9000
G1 X122.4 Y202.87 E524.933 F1080
G1 X122.96 F9000
G1 X148.46 Y177.37 E526.732 F1080
G1 X148.08 Y178.32 F9000
G1 X123.53 Y202.87 E528.464 F1080
G1 X124.09 F9000
G1 X147.7 Y179.27 E530.129 F1080
G1 X147.31 Y180.22 F9000
G1 X124.66 Y202.87 E531.727 F1080
G1 X125.23 F9000
G1 X146.93 Y181.17 E533.259 F1080
G1 X146.55 Y182.12 F9000
G1 X125.79 Y202.87 E534.723 F1080
G1 X126.36 F9000
G1 X146.16 Y183.07 E536.12 F1080
G1 X145.78 Y184.02 F9000
G1 X126.92 Y202.87 E537.45 F1080
G1 X127.49 F9000
G1 X145.39 Y184.97 E538.714 F1080
G1 X145.01 Y185.92 F9000
G1 X128.05 Y202.87 E539.91 F1080
G1 X128.62 F9000
G1 X144.63 Y186.86 E541.04 F1080
G1 X144.24 Y187.81 F9000
G1 X129.19 Y202.87 E542.102 F1080
G1 X129.75 F9000
G1 X143.86 Y188.76 E543.097 F1080
G1 X143.48 Y189.71 F9000
G1 X130.32 Y202.87 E544.026 F1080
G1 X130.88 F9000
G1 X143.09 Y190.66 E544.888 F1080
G1 X142.71 Y191.61 F9000
G1 X131.45 Y202.87 E545.682 F1080
G1 X132.01 F9000
G1 X142.33 Y192.56 E546.41 F1080
G1 X141.94 Y193.51 F9000
G1 X132.58 Y202.87 E547.07 F1080
G1 X133.15 F9000
G1 X141.56 Y194.46 E547.664 F1080
G1 X141.18 Y195.41 F9000
G1 X133.71 Y202.87 E548.191 F1080
G1 X134.28 F9000
G1 X140.79 Y196.36 E548.65 F1080
G1 X140.41 Y197.3 F9000
G1 X134.84 Y202.87 E549.043 F1080
G1 X135.41 F9000
G1 X140.03 Y198.25 E549.369 F1080
G1 X139.64 Y199.2 F9000
G1 X135.97 Y202.87 E549.628 F1080
G1 X136.54 F9000
G1 X139.26 Y200.15 E549.82 F1080
G1 X138.88 Y201.1 F9000
G1 X137.11 Y202.87 E549.945 F1080
G1 X137.67 F9000
G1 X138.49 Y202.05 E550.002 F1080
G1 E547.002 F1800
G1 Z0.8
G1 X130.87 Y192.06 F9000
G1 X130.54 Y191.57
G1 X130.09 Y190.97
G1 X129.55 Y190.11
G1 X129.42 Y189.91
; TYPE:WALL-OUTER
G1 Z0.3
G1 E550.002 F1800
G1 X98.58 E551.541 F1080
G1 X85.99 Y158.75 E553.218
G1 X98.72 Y64.27 E557.974
G1 X129.28 E559.499
G1 X142.01 Y158.75 E564.255
G1 X129.43 Y189.88 E565.93
G1 X129.42 Y189.91
G1 X126.42
G1 X129.15 Y189.51 F9000
; TYPE:WALL-INNER
G1 X98.85 E567.442 F1080
G1 X86.4 Y158.7 E569.1
G1 X99.07 Y64.67 E573.834
G1 X128.93 E575.323
G1 X141.6 Y158.7 E580.057
G1 X129.16 Y189.48 E581.713
G1 X129.15 Y189.51
G1 X128.74 Y189.17 F9000
; TYPE:BOTTOM-FILL
G1 X129.04 Y188.88 E581.734 F1080
G1 X128.18 Y189.17 F9000
G1 X129.42 Y187.93 E581.822 F1080
G1 X129.81 Y186.98 F9000
G1 X127.61 Y189.17 E581.976 F1080
G1 X127.05 F9000
G1 X130.19 Y186.03 E582.198 F1080
G1 X130.57 Y185.08 F9000
G1 X126.48 Y189.17 E582.487 F1080
G1 X125.92 F9000
G1 X130.96 Y184.13 E582.842 F1080
G1 X131.34 Y183.18 F9000
G1 X125.35 Y189.17 E583.265 F1080
G1 X124.78 F9000
G1 X131.72 Y182.23 E583.755 F1080
G1 X132.11 Y181.28 F9000
G1 X124.22 Y189.17 E584.311 F1080
G1 X123.65 F9000
G1 X132.49 Y180.33 E584.935 F1080
G1 X132.87 Y179.39 F9000
G1 X123.09 Y189.17 E585.625 F1080
G1 X122.52 F9000
G1 X133.26 Y178.44 E586.383 F1080
G1 X133.64 Y177.49 F9000
G1 X121.96 Y189.17 E587.207 F1080
G1 X121.39 F9000
G1 X134.02 Y176.54 E588.099 F1080
G1 X134.41 Y175.59 F9000
G1 X120.82 Y189.17 E589.057 F1080
G1 X120.26 F9000
G1 X134.79 Y174.64 E590.082 F1080
G1 X135.17 Y173.69 F9000
G1 X119.69 Y189.17 E591.175 F1080
G1 X119.13 F9000
G1 X135.56 Y172.74 E592.334 F1080
G1 X135.94 Y171.79 F9000
G1 X118.56 Y189.17 E593.56 F1080
G1 X118 F9000
G1 X136.33 Y170.84 E594.854 F1080
G1 X136.71 Y169.89 F9000
G1 X117.43 Y189.17 E596.214 F1080
G1 X116.86 F9000
G1 X137.09 Y168.94 E597.641 F1080
G1 X137.48 Y167.99 F9000
G1 X116.3 Y189.17 E599.135 F1080
G1 X115.73 F9000
G1 X137.86 Y167.04 E600.696 F1080
G1 X138.24 Y166.1 F9000
G1 X115.17 Y189.17 E602.325 F1080
G1 X114.6 F9000
G1 X138.63 Y165.15 E604.02 F1080
G1 X139.01 Y164.2 F9000
G1 X114.04 Y189.17 E605.782 F1080
G1 X113.47 Y189.17 F9000
G1 X139.39 Y163.25 E607.611 F1080
G1 X139.78 Y162.3 F9000
G1 X112.91 Y189.17 E609.507 F1080
G1 X112.34 F9000
G1 X140.16 Y161.35 E611.47 F1080
G1 X140.54 Y160.4 F9000
G1 X111.77 Y189.17 E613.5 F1080
G1 X111.21 F9000
G1 X140.93 Y159.45 E615.596 F1080
G1 X141.24 Y158.57 F9000
G1 X110.64 Y189.17 E617.755 F1080
G1 X110.08 F9000
G1 X141.17 Y158.08 E619.949 F1080
G1 X141.11 Y157.58 F9000
G1 X109.51 Y189.17 E622.178 F1080
G1 X108.95 F9000
G1 X141.04 Y157.08 E624.443 F1080
G1 X140.97 Y156.58 F9000
G1 X108.38 Y189.17 E626.742 F1080
G1 X107.81 F9000
G1 X140.9 Y156.08 E629.077 F1080
G1 X140.84 Y155.58 F9000
G1 X107.25 Y189.17 E631.446 F1080
G1 X106.68 F9000
G1 X140.77 Y155.08 E633.851 F1080
G1 X140.7 Y154.59 F9000
G1 X106.12 Y189.17 E636.292 F1080
G1 X105.55 F9000
G1 X140.64 Y154.09 E638.767 F1080
G1 X140.57 Y153.59 F9000
G1 X104.99 Y189.17 E641.278 F1080
G1 X104.42 F9000
G1 X140.5 Y153.09 E643.823 F1080
G1 X140.43 Y152.59 F9000
G1 X103.85 Y189.17 E646.404 F1080
G1 X103.29 F9000
G1 X140.37 Y152.09 E649.02 F1080
G1 X140.3 Y151.59 F9000
G1 X102.72 Y189.17 E651.671 F1080
G1 X102.16 F9000
G1 X140.23 Y151.1 E654.358 F1080
G1 X140.16 Y150.6 F9000
G1 X101.59 Y189.17 E657.079 F1080
G1 X101.03 F9000
G1 X140.1 Y150.1 E659.836 F1080
G1 X140.03 Y149.6 F9000
G1 X100.46 Y189.17 E662.628 F1080
G1 X99.89 F9000
G1 X139.96 Y149.1 E665.455 F1080
G1 X139.9 Y148.6 F9000
G1 X99.33 Y189.17 E668.317 F1080
G1 X98.99 Y188.95 F9000
G1 X139.83 Y148.1 E671.199 F1080
G1 X139.76 Y147.61 F9000
G1 X98.83 Y188.54 E674.087 F1080
G1 X98.66 Y188.14 F9000
G1 X139.69 Y147.11 E676.982 F1080
G1 X139.63 Y146.61 F9000
G1 X98.5 Y187.74 E679.884 F1080
G1 X98.34 Y187.33 F9000
G1 X139.56 Y146.11 E682.792 F1080
G1 X139.49 Y145.61 F9000
G1 X98.17 Y186.93 E685.707 F1080
G1 X98.01 Y186.53 F9000
G1 X139.43 Y145.11 E688.629 F1080
G1 X139.36 Y144.62 F9000
G1 X97.85 Y186.12 E691.558 F1080
G1 X97.69 Y185.72 F9000
G1 X139.29 Y144.12 E694.494 F1080
G1 X139.22 Y143.62 F9000
G1 X97.52 Y185.32 E697.436 F1080
G1 X97.36 Y184.92 F9000
G1 X139.16 Y143.12 E700.385 F1080
G1 X139.09 Y142.62 F9000
G1 X97.2 Y184.51 E703.341 F1080
G1 X97.03 Y184.11 F9000
G1 X139.02 Y142.12 E706.303 F1080
G1 X138.96 Y141.62 F9000
G1 X96.87 Y183.71 E709.272 F1080
G1 X96.71 Y183.3 F9000
G1 X138.89 Y141.13 E712.248 F1080
G1 X138.82 Y140.63 F9000
G1 X96.55 Y182.9 E715.231 F1080
G1 X96.38 Y182.5 F9000
G1 X138.75 Y140.13 E718.22 F1080
G1 X138.69 Y139.63 F9000
G1 X96.22 Y182.1 E721.216 F1080
G1 X96.06 Y181.69 F9000
G1 X138.62 Y139.13 E724.219 F1080
G1 X138.55 Y138.63 F9000
G1 X95.9 Y181.29 E727.229 F1080
G1 X95.73 Y180.89 F9000
G1 X138.49 Y138.13 E730.246 F1080
G1 X138.42 Y137.64 F9000
G1 X95.57 Y180.48 E733.269 F1080
G1 X95.41 Y180.08 F9000
G1 X138.35 Y137.14 E736.299 F1080
G1 X138.28 Y136.64 F9000
G1 X95.24 Y179.68 E739.335 F1080
G1 X95.08 Y179.28 F9000
G1 X138.22 Y136.14 E742.379 F1080
G1 X138.15 Y135.64 F9000
G1 X94.92 Y178.87 E745.429 F1080
G1 X94.76 Y178.47 F9000
G1 X138.08 Y135.14 E748.486 F1080
G1 X138.02 Y134.64 F9000
G1 X94.59 Y178.07 E751.55 F1080
G1 X94.43 Y177.66 F9000
G1 X137.95 Y134.15 E754.62 F1080
G1 X137.88 Y133.65 F9000
G1 X94.27 Y177.26 E757.697 F1080
G1 X94.1 Y176.86 F9000
G1 X137.81 Y133.15 E760.781 F1080
G1 X137.75 Y132.65 F9000
G1 X93.94 Y176.46 E763.872 F1080
G1 X93.78 Y176.05 F9000
G1 X137.68 Y132.15 E766.97 F1080
G1 X137.61 Y131.65 F9000
G1 X93.62 Y175.65 E770.074 F1080
G1 X93.45 Y175.25 F9000
G1 X137.55 Y131.15 E773.185 F1080
G1 X137.48 Y130.66 F9000
G1 X93.29 Y174.84 E776.302 F1080
G1 X93.13 Y174.44 F9000
G1 X137.41 Y130.16 E779.427 F1080
G1 X137.34 Y129.66 F9000
G1 X92.97 Y174.04 E782.558 F1080
G1 X92.8 Y173.64 F9000
G1 X137.28 Y129.16 E785.696 F1080
G1 X137.21 Y128.66 F9000
G1 X92.64 Y173.23 E788.84 F1080
G1 X92.48 Y172.83 F9000
G1 X137.14 Y128.16 E791.992 F1080
G1 X137.08 Y127.67 F9000
G1 X92.31 Y172.43 E795.15 F1080
G1 X92.15 Y172.02 F9000
G1 X137.01 Y127.17 E798.315 F1080
G1 X136.94 Y126.67 F9000
G1 X91.99 Y171.62 E801.487 F1080
G1 X91.83 Y171.22 F9000
G1 X136.87 Y126.17 E804.665 F1080
G1 X136.81 Y125.67 F9000
G1 X91.66 Y170.82 E807.85 F1080
G1 X91.5 Y170.41 F9000
G1 X136.74 Y125.17 E811.042 F1080
G1 X136.67 Y124.67 F9000
G1 X91.34 Y170.01 E814.241 F1080
G1 X91.18 Y169.61 F9000
G1 X136.61 Y124.18 E817.446 F1080
G1 X136.54 Y123.68 F9000
G1 X91.01 Y169.2 E820.658 F1080
G1 X90.85 Y168.8 F9000
G1 X136.47 Y123.18 E823.877 F1080
G1 X136.4 Y122.68 F9000
G1 X90.69 Y168.4 E827.102 F1080
G1 X90.52 Y167.99 F9000
G1 X136.34 Y122.18 E830.335 F1080
G1 X136.27 Y121.68 F9000
G1 X90.36 Y167.59 E833.574 F1080
G1 X90.2 Y167.19 F9000
G1 X136.2 Y121.18 E836.82 F1080
G1 X136.14 Y120.69 F9000
G1 X90.04 Y166.79 E840.072 F1080
G1 X89.87 Y166.38 F9000
G1 X136.07 Y120.19 E843.332 F1080
G1 X136 Y119.69 F9000
G1 X89.71 Y165.98 E846.598 F1080
G1 X89.55 Y165.58 F9000
G1 X135.93 Y119.19 E849.871 F1080
G1 X135.87 Y118.69 F9000
G1 X89.38 Y165.17 E853.15 F1080
G1 X89.22 Y164.77 F9000
G1 X135.8 Y118.19 E856.437 F1080
G1 X135.73 Y117.7 F9000
G1 X89.06 Y164.37 E859.73 F1080
G1 X88.9 Y163.97 F9000
G1 X135.66 Y117.2 E863.029 F1080
G1 X135.6 Y116.7 F9000
G1 X88.73 Y163.56 E866.336 F1080
G1 X88.57 Y163.16 F9000
G1 X135.53 Y116.2 E869.649 F1080
G1 X135.46 Y115.7 F9000
G1 X88.41 Y162.76 E872.969 F1080
G1 X88.24 Y162.35 F9000
G1 X135.4 Y115.2 E876.296 F1080
G1 X135.33 Y114.7 F9000
G1 X88.08 Y161.95 E879.63 F1080
G1 X87.92 Y161.55 F9000
G1 X135.26 Y114.21 E882.97 F1080
G1 X135.19 Y113.71 F9000
G1 X87.76 Y161.15 E886.317 F1080
G1 X87.59 Y160.74 F9000
G1 X135.13 Y113.21 E889.671 F1080
G1 X135.06 Y112.71 F9000
G1 X87.43 Y160.34 E893.031 F1080
G1 X87.27 Y159.94 F9000
G1 X134.99 Y112.21 E896.399 F1080
G1 X134.93 Y111.71 F9000
G1 X87.1 Y159.53 E899.773 F1080
G1 X86.94 Y159.13 F9000
G1 X134.86 Y111.21 E903.153 F1080
G1 X134.79 Y110.72 F9000
G1 X86.78 Y158.73 E906.541 F1080
G1 X86.82 Y158.12 F9000
G1 X134.72 Y110.22 E909.921 F1080
G1 X134.66 Y109.72 F9000
G1 X86.91 Y157.47 E913.29 F1080
G1 X87 Y156.81 F9000
G1 X134.59 Y109.22 E916.647 F1080
G1 X134.52 Y108.72 F9000
G1 X87.09 Y156.16 E919.994 F1080
G1 X87.17 Y155.51 F9000
G1 X134.46 Y108.22 E923.33 F1080
G1 X134.39 Y107.72 F9000
G1 X87.26 Y154.85 E926.655 F1080
G1 X87.35 Y154.2 F9000
G1 X134.32 Y107.23 E929.97 F1080
G1 X134.25 Y106.73 F9000
G1 X87.44 Y153.54 E933.273 F1080
G1 X87.53 Y152.89 F9000
G1 X134.19 Y106.23 E936.565 F1080
G1 X134.12 Y105.73 F9000
G1 X87.61 Y152.24 E939.846 F1080
G1 X87.7 Y151.58 F9000
G1 X134.05 Y105.23 E943.117 F1080
G1 X133.99 Y104.73 F9000
G1 X87.79 Y150.93 E946.376 F1080
G1 X87.88 Y150.28 F9000
G1 X133.92 Y104.23 E949.624 F1080
G1 X133.85 Y103.74 F9000
G1 X87.97 Y149.62 E952.862 F1080
G1 X88.05 Y148.97 F9000
G1 X133.78 Y103.24 E956.088 F1080
G1 X133.72 Y102.74 F9000
G1 X88.14 Y148.31 E959.304 F1080
G1 X88.23 Y147.66 F9000
G1 X133.65 Y102.24 E962.509 F1080
G1 X133.58 Y101.74 F9000
G1 X88.32 Y147.01 E965.702 F1080
G1 X88.41 Y146.35 F9000
G1 X133.52 Y101.24 E968.885 F1080
G1 X133.45 Y100.75 F9000
G1 X88.49 Y145.7 E972.057 F1080
G1 X88.58 Y145.05 F9000
G1 X133.38 Y100.25 E975.218 F1080
G1 X133.31 Y99.75 F9000
G1 X88.67 Y144.39 E978.367 F1080
G1 X88.76 Y143.74 F9000
G1 X133.25 Y99.25 E981.506 F1080
G1 X133.18 Y98.75 F9000
G1 X88.85 Y143.08 E984.634 F1080
G1 X88.93 Y142.43 F9000
G1 X133.11 Y98.25 E987.751 F1080
G1 X133.05 Y97.75 F9000
G1 X89.02 Y141.78 E990.857 F1080
G1 X89.11 Y141.12 F9000
G1 X132.98 Y97.26 E993.953 F1080
G1 X132.91 Y96.76 F9000
G1 X89.2 Y140.47 E997.037 F1080
G1 X89.29 Y139.82 F9000
G1 X132.84 Y96.26 E1000.11 F1080
G1 X132.78 Y95.76 F9000
G1 X89.37 Y139.16 E1003.172 F1080
G1 X89.46 Y138.51 F9000
G1 X132.71 Y95.26 E1006.223 F1080
G1 X132.64 Y94.76 F9000
G1 X89.55 Y137.85 E1009.264 F1080
G1 X89.64 Y137.2 F9000
G1 X132.58 Y94.26 E1012.293 F1080
G1 X132.51 Y93.77 F9000
G1 X89.73 Y136.55 E1015.312 F1080
G1 X89.82 Y135.89 F9000
G1 X132.44 Y93.27 E1018.319 F1080
G1 X132.37 Y92.77 F9000
G1 X89.9 Y135.24 E1021.316 F1080
G1 X89.99 Y134.59 F9000
G1 X132.31 Y92.27 E1024.301 F1080
G1 X132.24 Y91.77 F9000
G1 X90.08 Y133.93 E1027.276 F1080
G1 X90.17 Y133.28 F9000
G1 X132.17 Y91.27 E1030.239 F1080
G1 X132.11 Y90.77 F9000
G1 X90.26 Y132.62 E1033.192 F1080
G1 X90.34 Y131.97 F9000
G1 X132.04 Y90.28 E1036.134 F1080
G1 X131.97 Y89.78 F9000
G1 X90.43 Y131.32 E1039.065 F1080
G1 X90.52 Y130.66 F9000
G1 X131.9 Y89.28 E1041.985 F1080
G1 X131.84 Y88.78 F9000
G1 X90.61 Y130.01 E1044.894 F1080
G1 X90.7 Y129.36 F9000
G1 X131.77 Y88.28 E1047.792 F1080
G1 X131.7 Y87.78 F9000
G1 X90.78 Y128.7 E1050.679 F1080
G1 X90.87 Y128.05 F9000
G1 X131.63 Y87.29 E1053.554 F1080
G1 X131.57 Y86.79 F9000
G1 X90.96 Y127.39 E1056.42 F1080
G1 X91.05 Y126.74 F9000
G1 X131.5 Y86.29 E1059.274 F1080
G1 X131.43 Y85.79 F9000
G1 X91.14 Y126.09 E1062.117 F1080
G1 X91.22 Y125.43 F9000
G1 X131.37 Y85.29 E1064.949 F1080
G1 X131.3 Y84.79 F9000
G1 X91.31 Y124.78 E1067.77 F1080
G1 X91.4 Y124.13 F9000
G1 X131.23 Y84.29 E1070.581 F1080
G1 X131.16 Y83.8 F9000
G1 X91.49 Y123.47 E1073.38 F1080
G1 X91.58 Y122.82 F9000
G1 X131.1 Y83.3 E1076.168 F1080
G1 X131.03 Y82.8 F9000
G1 X91.67 Y122.16 E1078.946 F1080
G1 X91.75 Y121.51 F9000
G1 X130.96 Y82.3 E1081.712 F1080
G1 X130.9 Y81.8 F9000
G1 X91.84 Y120.86 E1084.468 F1080
G1 X91.93 Y120.2 F9000
G1 X130.83 Y81.3 E1087.213 F1080
G1 X130.76 Y80.8 F9000
G1 X92.02 Y119.55 E1089.946 F1080
G1 X92.1 Y118.9 F9000
G1 X130.69 Y80.31 E1092.669 F1080
G1 X130.63 Y79.81 F9000
G1 X92.19 Y118.24 E1095.381 F1080
G1 X92.28 Y117.59 F9000
G1 X130.56 Y79.31 E1098.081 F1080
G1 X130.49 Y78.81 F9000
G1 X92.37 Y116.93 E1100.771 F1080
G1 X92.46 Y116.28 F9000
G1 X130.43 Y78.31 E1103.45 F1080
G1 X130.36 Y77.81 F9000
G1 X92.55 Y115.63 E1106.118 F1080
G1 X92.63 Y114.97 F9000
G1 X130.29 Y77.32 E1108.775 F1080
G1 X130.22 Y76.82 F9000
G1 X92.72 Y114.32 E1111.421 F1080
G1 X92.81 Y113.67 F9000
G1 X130.16 Y76.32 E1114.056 F1080
G1 X130.09 Y75.82 F9000
G1 X92.9 Y113.01 E1116.68 F1080
G1 X92.99 Y112.36 F9000
G1 X130.02 Y75.32 E1119.293 F1080
G1 X129.96 Y74.82 F9000
G1 X93.07 Y111.7 E1121.896 F1080
G1 X93.16 Y111.05 F9000
G1 X129.89 Y74.32 E1124.487 F1080
G1 X129.82 Y73.82 F9000
G1 X93.25 Y110.4 E1127.067 F1080
G1 X93.34 Y109.74 F9000
G1 X129.75 Y73.33 E1129.637 F1080
G1 X129.69 Y72.83 F9000
G1 X93.43 Y109.09 E1132.195 F1080
G1 X93.51 Y108.44 F9000
G1 X129.62 Y72.33 E1134.742 F1080
G1 X129.55 Y71.83 F9000
G1 X93.6 Y107.78 E1137.279 F1080
G1 X93.69 Y107.13 F9000
G1 X129.49 Y71.33 E1139.805 F1080
G1 X129.42 Y70.83 F9000
G1 X93.78 Y106.47 E1142.319 F1080
G1 X93.87 Y105.82 F9000
G1 X129.35 Y70.34 E1144.823 F1080
G1 X129.28 Y69.84 F9000
G1 X93.95 Y105.17 E1147.316 F1080
G1 X94.04 Y104.51 F9000
G1 X129.22 Y69.34 E1149.797 F1080
G1 X129.15 Y68.84 F9000
G1 X94.13 Y103.86 E1152.268 F1080
G1 X94.22 Y103.21 F9000
G1 X129.08 Y68.34 E1154.728 F1080
G1 X129.02 Y67.84 F9000
G1 X94.31 Y102.55 E1157.177 F1080
G1 X94.4 Y101.9 F9000
G1 X128.95 Y67.34 E1159.615 F1080
G1 X128.88 Y66.85 F9000
G1 X94.48 Y101.24 E1162.042 F1080
G1 X94.57 Y100.59 F9000
G1 X128.81 Y66.35 E1164.458 F1080
G1 X128.75 Y65.85 F9000
G1 X94.66 Y99.94 E1166.863 F1080
G1 X94.75 Y99.28 F9000
G1 X128.68 Y65.35 E1169.257 F1080
G1 X128.46 Y65.01 F9000
G1 X94.84 Y98.63 E1171.63 F1080
G1 X94.92 Y97.98 F9000
G1 X127.89 Y65.01 E1173.956 F1080
G1 X127.33 F9000
G1 X95.01 Y97.32 E1176.236 F1080
G1 X95.1 Y96.67 F9000
G1 X126.76 Y65.01 E1178.47 F1080
G1 X126.2 F9000
G1 X95.19 Y96.01 E1180.658 F1080
G1 X95.28 Y95.36 F9000
G1 X125.63 Y65.01 E1182.799 F1080
G1 X125.07 F9000
G1 X95.36 Y94.71 E1184.895 F1080
G1 X95.45 Y94.05 F9000
G1 X124.5 Y65.01 E1186.944 F1080
G1 X123.93 F9000
G1 X95.54 Y93.4 E1188.948 F1080
G1 X95.63 Y92.75 F9000
G1 X123.37 Y65.01 E1190.905 F1080
G1 X122.8 F9000
G1 X95.72 Y92.09 E1192.816 F1080
G1 X95.8 Y91.44 F9000
G1 X122.24 Y65.01 E1194.681 F1080
G1 X121.67 F9000
G1 X95.89 Y90.78 E1196.5 F1080
G1 X95.98 Y90.13 F9000
G1 X121.11 Y65.01 E1198.273 F1080
G1 X120.54 F9000
G1 X96.07 Y89.48 E1199.999 F1080
G1 X96.16 Y88.82 F9000
G1 X119.97 Y65.01 E1201.68 F1080
G1 X119.41 F9000
G1 X96.24 Y88.17 E1203.314 F1080
G1 X96.33 Y87.52 F9000
G1 X118.84 Y65.01 E1204.902 F1080
G1 X118.28 F9000
G1 X96.42 Y86.86 E1206.444 F1080
G1 X96.51 Y86.21 F9000
G1 X117.71 Y65.01 E1207.94 F1080
G1 X117.15 F9000
G1 X96.6 Y85.55 E1209.39 F1080
G1 X96.68 Y84.9 F9000
G1 X116.58 Y65.01 E1210.794 F1080
G1 X116.01 F9000
G1 X96.77 Y84.25 E1212.151 F1080
G1 X96.86 Y83.59 F9000
G1 X115.45 Y65.01 E1213.463 F1080
G1 X114.88 F9000
G1 X96.95 Y82.94 E1214.728 F1080
G1 X97.04 Y82.29 F9000
G1 X114.32 Y65.01 E1215.947 F1080
G1 X113.75 F9000
G1 X97.12 Y81.63 E1217.121 F1080
G1 X97.21 Y80.98 F9000
G1 X113.19 Y65.01 E1218.247 F1080
G1 X112.62 F9000
G1 X97.3 Y80.32 E1219.328 F1080
G1 X97.39 Y79.67 F9000
G1 X112.05 Y65.01 E1220.363 F1080
G1 X111.49 F9000
G1 X97.48 Y79.02 E1221.351 F1080
G1 X97.57 Y78.36 F9000
G1 X110.92 Y65.01 E1222.294 F1080
G1 X110.36 F9000
G1 X97.65 Y77.71 E1223.19 F1080
G1 X97.74 Y77.06 F9000
G1 X109.79 Y65.01 E1224.04 F1080
G1 X109.23 F9000
G1 X97.83 Y76.4 E1224.845 F1080
G1 X97.92 Y75.75 F9000
G1 X108.66 Y65.01 E1225.602 F1080
G1 X108.09 F9000
G1 X98.01 Y75.09 E1226.314 F1080
G1 X98.09 Y74.44 F9000
G1 X107.53 Y65.01 E1226.98 F1080
G1 X106.96 F9000
G1 X98.18 Y73.79 E1227.6 F1080
G1 X98.27 Y73.13 F9000
G1 X106.4 Y65.01 E1228.173 F1080
G1 X105.83 F9000
G1 X98.36 Y72.48 E1228.7 F1080
G1 X98.45 Y71.83 F9000
G1 X105.27 Y65.01 E1229.182 F1080
G1 X104.7 F9000
G1 X98.53 Y71.17 E1229.617 F1080
G1 X98.62 Y70.52 F9000
G1 X104.13 Y65.01 E1230.006 F1080
G1 X103.57 F9000
G1 X98.71 Y69.86 E1230.348 F1080
G1 X98.8 Y69.21 F9000
G1 X103 Y65.01 E1230.645 F1080
G1 X102.44 F9000
G1 X98.89 Y68.56 E1230.896 F1080
G1 X98.97 Y67.9 F9000
G1 X101.87 Y65.01 E1231.1 F1080
G1 X101.31 F9000
G1 X99.06 Y67.25 E1231.258 F1080
G1 X99.15 Y66.6 F9000
G1 X100.74 Y65.01 E1231.371 F1080
G1 X100.18 F9000
G1 X99.24 Y65.94 E1231.437 F1080
G1 X99.33 Y65.29 F9000
G1 X99.61 Y65.01 E1231.457 F1080
; Layer Change GCode
; LAYER:1
; LAYER_HEIGHT:0.3
; TYPE:FILL
G1 X98.79 Y64.35 Z0.6 F9000
; TYPE:WALL-INNER
G1 X103.14 E1231.673 F3600
G1 X107.48 E1231.89
G1 X111.83 E1232.107
G1 X116.17 E1232.324
G1 X120.52 E1232.54
G1 X124.86 E1232.757
G1 X129.21 E1232.974
G1 X129.84 Y69.07 E1233.211
G1 X130.48 Y73.79 E1233.449
G1 X131.11 Y78.51 E1233.687
G1 X131.75 Y83.23 E1233.924
G1 X132.38 Y87.95 E1234.162
G1 X133.02 Y92.67 E1234.399
G1 X133.65 Y97.39 E1234.637
G1 X134.29 Y102.11 E1234.874
G1 X134.92 Y106.83 E1235.112
G1 X135.56 Y111.55 E1235.35
G1 X136.19 Y116.26 E1235.587
G1 X136.83 Y120.98 E1235.825
G1 X137.47 Y125.7 E1236.062
G1 X138.1 Y130.42 E1236.3
G1 X138.74 Y135.14 E1236.537
G1 X139.37 Y139.86 E1236.775
G1 X140.01 Y144.58 E1237.013
G1 X140.64 Y149.3 E1237.25
G1 X141.28 Y154.02 E1237.488
G1 X141.91 Y158.74 E1237.725
G1 X140.12 Y163.18 E1237.964
G1 X138.33 Y167.62 E1238.203
G1 X136.53 Y172.06 E1238.442
G1 X134.74 Y176.5 E1238.681
G1 X132.95 Y180.94 E1238.92
G1 X131.15 Y185.38 E1239.159
G1 X129.36 Y189.82 E1239.398
G1 X124.97 E1239.617
G1 X120.58 E1239.836
G1 X116.19 E1240.054
G1 X111.81 E1240.273
G1 X107.42 E1240.492
G1 X103.03 E1240.711
G1 X98.64 E1240.93
G1 X96.85 Y185.38 E1241.169
G1 X95.05 Y180.94 E1241.408
G1 X93.26 Y176.5 E1241.647
G1 X91.47 Y172.06 E1241.886
G1 X89.67 Y167.62 E1242.125
G1 X87.88 Y163.18 E1242.364
G1 X86.09 Y158.74 E1242.603
G1 X86.72 Y154.02 E1242.84
G1 X87.36 Y149.3 E1243.078
G1 X87.99 Y144.59 E1243.315
G1 X88.63 Y139.87 E1243.553
G1 X89.26 Y135.15 E1243.79
G1 X89.9 Y130.43 E1244.028
G1 X90.53 Y125.72 E1244.265
G1 X91.17 Y121 E1244.502
G1 X91.8 Y116.28 E1244.74
G1 X92.44 Y111.57 E1244.977
G1 X93.07 Y106.85 E1245.215
G1 X93.71 Y102.13 E1245.452
G1 X94.34 Y97.41 E1245.69
G1 X94.98 Y92.7 E1245.927
G1 X95.61 Y87.98 E1246.165
G1 X96.25 Y83.26 E1246.402
G1 X96.88 Y78.54 E1246.64
G1 X97.52 Y73.83 E1246.877
G1 X98.15 Y69.11 E1247.115
G1 X98.79 Y64.39 E1247.352
G1 X98.79 Y64.35
G1 X98.44 Y63.95 F9000
; TYPE:WALL-OUTER
G1 X102.89 E1247.574 F3000
G1 X107.33 E1247.796
G1 X111.78 E1248.017
G1 X116.22 E1248.239
G1 X120.67 E1248.461
G1 X125.11 E1248.683
G1 X129.56 E1248.904
G1 X130.19 Y68.69 E1249.143
G1 X130.83 Y73.44 E1249.382
G1 X131.47 Y78.18 E1249.62
G1 X132.11 Y82.92 E1249.859
G1 X132.75 Y87.66 E1250.098
G1 X133.39 Y92.4 E1250.337
G1 X134.02 Y97.15 E1250.575
G1 X134.66 Y101.89 E1250.814
G1 X135.3 Y106.63 E1251.053
G1 X135.94 Y111.37 E1251.291
G1 X136.58 Y116.11 E1251.53
G1 X137.22 Y120.85 E1251.769
G1 X137.85 Y125.6 E1252.008
G1 X138.49 Y130.34 E1252.246
G1 X139.13 Y135.08 E1252.485
G1 X139.77 Y139.82 E1252.724
G1 X140.41 Y144.56 E1252.962
G1 X141.05 Y149.31 E1253.201
G1 X141.69 Y154.05 E1253.44
G1 X142.32 Y158.79 E1253.678
G1 X140.51 Y163.28 E1253.92
G1 X138.7 Y167.77 E1254.162
G1 X136.88 Y172.26 E1254.403
G1 X135.07 Y176.75 E1254.645
G1 X133.26 Y181.24 E1254.887
G1 X131.44 Y185.73 E1255.128
G1 X129.63 Y190.22 E1255.37
G1 X125.16 E1255.592
G1 X120.7 E1255.815
G1 X116.23 E1256.038
G1 X111.77 E1256.261
G1 X107.3 E1256.484
G1 X102.84 E1256.706
G1 X98.37 E1256.929
G1 X96.56 Y185.73 E1257.171
G1 X94.74 Y181.24 E1257.412
G1 X92.93 Y176.75 E1257.654
G1 X91.12 Y172.26 E1257.896
G1 X89.3 Y167.77 E1258.137
G1 X87.49 Y163.28 E1258.379
G1 X85.68 Y158.79 E1258.62
G1 X86.31 Y154.05 E1258.859
G1 X86.95 Y149.31 E1259.098
G1 X87.59 Y144.57 E1259.336
G1 X88.23 Y139.83 E1259.575
G1 X88.87 Y135.09 E1259.813
G1 X89.5 Y130.35 E1260.052
G1 X90.14 Y125.61 E1260.291
G1 X90.78 Y120.87 E1260.529
G1 X91.42 Y116.13 E1260.768
G1 X92.06 Y111.39 E1261.006
G1 X92.69 Y106.65 E1261.245
G1 X93.33 Y101.91 E1261.484
G1 X93.97 Y97.17 E1261.722
G1 X94.61 Y92.43 E1261.961
G1 X95.25 Y87.69 E1262.2
G1 X95.89 Y82.95 E1262.438
G1 X96.52 Y78.21 E1262.677
G1 X97.16 Y73.47 E1262.915
G1 X97.8 Y68.73 E1263.154
G1 X98.44 Y63.99 E1263.393
G1 X98.44 Y63.95
G1 X101.44
G1 X98.79 Y64.35 F9000
G1 E1260.393 F1800
G1 Z1.1
G1 X108.73 Y64.47 F9000
G1 X118.67 Y64.58
G1 X128.61 Y64.69
; TYPE:FILL
G1 Z0.6
G1 E1263.393 F1800
G1 X128.95 Y65.03 E1263.416 F3600
G1 X129.04 Y65.68 F9000
G1 X128.05 Y64.69 E1263.486 F3600
G1 X127.48 F9000
G1 X129.13 Y66.34 E1263.603 F3600
G1 X129.22 Y66.99 F9000
G1 X126.92 Y64.69 E1263.765 F3600
G1 X126.35 F9000
G1 X129.3 Y67.64 E1263.973 F3600
G1 X129.39 Y68.3 F9000
G1 X125.79 Y64.69 E1264.228 F3600
G1 X125.22 F9000
G1 X127.35 Y66.82 E1264.378 F3600
G1 X129.48 Y68.95 E1264.528
G1 X129.57 Y69.61 F9000
G1 X127.11 Y67.15 E1264.702 F3600
G1 X124.65 Y64.69 E1264.875
G1 X124.09 Y64.69 F9000
G1 X126.87 Y67.48 E1265.071 F3600
G1 X129.66 Y70.26 E1265.268
G1 X129.74 Y70.91 F9000
G1 X126.63 Y67.8 E1265.487 F3600
G1 X123.52 Y64.69 E1265.707
G1 X122.96 Y64.69 F9000
G1 X126.39 Y68.13 E1265.949 F3600
G1 X129.83 Y71.57 E1266.192
G1 X129.92 Y72.22 F9000
G1 X127.41 Y69.71 E1266.369 F3600
G1 X124.9 Y67.2 E1266.546
G1 X122.39 Y64.69 E1266.723
G1 X121.83 Y64.69 F9000
G1 X124.55 Y67.42 E1266.916 F3600
G1 X127.28 Y70.15 E1267.108
G1 X130.01 Y72.87 E1267.3
G1 X130.1 Y73.53 F9000
G1 X127.15 Y70.58 E1267.508 F3600
G1 X124.21 Y67.64 E1267.716
G1 X121.26 Y64.69 E1267.924
G1 X120.69 Y64.69 F9000
G1 X123.86 Y67.85 E1268.147 F3600
G1 X127.02 Y71.02 E1268.37
G1 X130.18 Y74.18 E1268.594
G1 X130.27 Y74.84 F9000
G1 X126.89 Y71.45 E1268.832 F3600
G1 X123.51 Y68.07 E1269.071
G1 X120.13 Y64.69 E1269.309
G1 X119.56 Y64.69 F9000
G1 X122.26 Y67.39 E1269.5 F3600
G1 X124.96 Y70.09 E1269.69
G1 X127.66 Y72.79 E1269.881
G1 X130.36 Y75.49 E1270.071
G1 X130.45 Y76.14 F9000
G1 X127.59 Y73.28 E1270.273 F3600
G1 X124.72 Y70.42 E1270.475
G1 X121.86 Y67.55 E1270.677
G1 X119 Y64.69 E1270.879
G1 X118.43 Y64.69 F9000
G1 X121.46 Y67.72 E1271.093 F3600
G1 X124.48 Y70.74 E1271.306
G1 X127.51 Y73.77 E1271.52
G1 X130.54 Y76.8 E1271.733
G1 X130.63 Y77.45 F9000
G1 X127.44 Y74.26 E1271.958 F3600
G1 X124.25 Y71.07 E1272.183
G1 X121.06 Y67.88 E1272.408
G1 X117.87 Y64.69 E1272.633
G1 X117.3 Y64.69 F9000
G1 X120.65 Y68.04 E1272.87 F3600
G1 X124.01 Y71.4 E1273.107
G1 X127.36 Y74.75 E1273.343
G1 X130.71 Y78.1 E1273.58
G1 X130.8 Y78.76 F9000
G1 X127.28 Y75.24 E1273.828 F3600
G1 X123.77 Y71.72 E1274.076
G1 X120.25 Y68.21 E1274.324
G1 X116.73 Y64.69 E1274.572
G1 X116.17 Y64.69 F9000
G1 X119.11 Y67.64 E1274.78 F3600
G1 X122.06 Y70.58 E1274.988
G1 X125 Y73.52 E1275.195
G1 X127.95 Y76.47 E1275.403
G1 X130.89 Y79.41 E1275.611
G1 X130.98 Y80.07 F9000
G1 X127.9 Y76.99 E1275.828 F3600
G1 X124.83 Y73.92 E1276.045
G1 X121.75 Y70.84 E1276.262
G1 X118.68 Y67.77 E1276.479
G1 X115.6 Y64.69 E1276.695
G1 X115.04 Y64.69 F9000
G1 X118.24 Y67.9 E1276.922 F3600
G1 X121.45 Y71.1 E1277.148
G1 X124.65 Y74.31 E1277.374
G1 X127.86 Y77.51 E1277.6
G1 X131.07 Y80.72 E1277.826
G1 X131.15 Y81.37 F9000
G1 X127.82 Y78.04 E1278.062 F3600
G1 X124.48 Y74.7 E1278.297
G1 X121.14 Y71.36 E1278.533
G1 X117.81 Y68.03 E1278.768
G1 X114.47 Y64.69 E1279.003
G1 X113.91 Y64.69 F9000
G1 X117.37 Y68.16 E1279.248 F3600
G1 X120.84 Y71.63 E1279.493
G1 X124.31 Y75.09 E1279.737
G1 X127.77 Y78.56 E1279.982
G1 X131.24 Y82.03 E1280.226
G1 X131.33 Y82.68 F9000
G1 X128.33 Y79.68 E1280.438 F3600
G1 X125.33 Y76.68 E1280.649
G1 X122.34 Y73.69 E1280.861
G1 X119.34 Y70.69 E1281.072
G1 X116.34 Y67.69 E1281.284
G1 X113.34 Y64.69 E1281.495
G1 X112.78 Y64.69 F9000
G1 X115.88 Y67.8 E1281.715 F3600
G1 X118.99 Y70.91 E1281.934
G1 X122.1 Y74.01 E1282.153
G1 X125.2 Y77.12 E1282.372
G1 X128.31 Y80.23 E1282.592
G1 X131.42 Y83.33 E1282.811
G1 X131.51 Y83.99 F9000
G1 X128.29 Y80.77 E1283.038 F3600
G1 X125.07 Y77.56 E1283.265
G1 X121.86 Y74.34 E1283.491
G1 X118.64 Y71.12 E1283.718
G1 X115.43 Y67.91 E1283.945
G1 X112.21 Y64.69 E1284.172
G1 X111.64 Y64.69 F9000
G1 X114.97 Y68.02 E1284.407 F3600
G1 X118.29 Y71.34 E1284.641
G1 X121.62 Y74.67 E1284.876
G1 X124.94 Y77.99 E1285.11
G1 X128.27 Y81.32 E1285.345
G1 X131.59 Y84.64 E1285.58
G1 X131.68 Y85.3 F9000
G1 X128.25 Y81.86 E1285.822 F3600
G1 X124.81 Y78.43 E1286.064
G1 X121.38 Y74.99 E1286.306
G1 X117.95 Y71.56 E1286.549
G1 X114.51 Y68.13 E1286.791
G1 X111.08 Y64.69 E1287.033
G1 X110.51 Y64.69 F9000
G1 X113.55 Y67.73 E1287.248 F3600
G1 X116.59 Y70.77 E1287.462
G1 X119.62 Y73.8 E1287.676
G1 X122.66 Y76.84 E1287.89
G1 X125.7 Y79.87 E1288.105
G1 X128.73 Y82.91 E1288.319
G1 X131.77 Y85.95 E1288.533
G1 X131.86 Y86.6 F9000
G1 X128.73 Y83.47 E1288.754 F3600
G1 X125.6 Y80.34 E1288.975
G1 X122.47 Y77.21 E1289.196
G1 X119.34 Y74.08 E1289.416
G1 X116.21 Y70.95 E1289.637
G1 X113.08 Y67.82 E1289.858
G1 X109.95 Y64.69 E1290.079
G1 X109.38 Y64.69 F9000
G1 X112.6 Y67.92 E1290.306 F3600
G1 X115.83 Y71.14 E1290.534
G1 X119.05 Y74.36 E1290.761
G1 X122.27 Y77.59 E1290.989
G1 X125.5 Y80.81 E1291.216
G1 X128.72 Y84.03 E1291.443
G1 X131.95 Y87.26 E1291.671
G1 X132.03 Y87.91 F9000
G1 X128.72 Y84.59 E1291.905 F3600
G1 X125.4 Y81.28 E1292.139
G1 X122.08 Y77.96 E1292.373
G1 X118.77 Y74.64 E1292.607
G1 X115.45 Y71.33 E1292.841
G1 X112.13 Y68.01 E1293.075
G1 X108.82 Y64.69 E1293.309
G1 X108.25 Y64.69 F9000
G1 X111.66 Y68.1 E1293.55 F3600
G1 X115.07 Y71.51 E1293.79
G1 X118.48 Y74.92 E1294.031
G1 X121.89 Y78.33 E1294.271
G1 X125.3 Y81.74 E1294.512
G1 X128.71 Y85.15 E1294.753
G1 X132.12 Y88.56 E1294.993
G1 X132.21 Y89.22 F9000
G1 X128.71 Y85.71 E1295.24 F3600
G1 X125.2 Y82.21 E1295.488
G1 X121.7 Y78.71 E1295.735
G1 X118.19 Y75.2 E1295.982
G1 X114.69 Y71.7 E1296.229
G1 X111.19 Y68.2 E1296.476
G1 X107.68 Y64.69 E1296.724
G1 X107.12 Y64.69 F9000
G1 X110.27 Y67.84 E1296.946 F3600
G1 X113.41 Y70.99 E1297.168
G1 X116.56 Y74.13 E1297.39
G1 X119.71 Y77.28 E1297.612
G1 X122.85 Y80.43 E1297.834
G1 X126 Y83.58 E1298.056
G1 X129.15 Y86.72 E1298.278
G1 X132.3 Y89.87 E1298.5
G1 X132.39 Y90.52 F9000
G1 X129.16 Y87.3 E1298.728 F3600
G1 X125.93 Y84.07 E1298.956
G1 X122.7 Y80.84 E1299.184
G1 X119.47 Y77.61 E1299.411
G1 X116.24 Y74.38 E1299.639
G1 X113.01 Y71.15 E1299.867
G1 X109.78 Y67.92 E1300.095
G1 X106.55 Y64.69 E1300.323
G1 X105.99 Y64.69 F9000
G1 X109.3 Y68 E1300.556 F3600
G1 X112.61 Y71.31 E1300.79
G1 X115.92 Y74.62 E1301.024
G1 X119.23 Y77.94 E1301.257
G1 X122.54 Y81.25 E1301.491
G1 X125.85 Y84.56 E1301.724
G1 X129.16 Y87.87 E1301.958
G1 X132.47 Y91.18 E1302.191
G1 X132.56 Y91.83 F9000
G1 X129.17 Y88.44 E1302.431 F3600
G1 X125.78 Y85.05 E1302.67
G1 X122.38 Y81.65 E1302.91
G1 X118.99 Y78.26 E1303.149
G1 X115.6 Y74.87 E1303.388
G1 X112.21 Y71.48 E1303.628
G1 X108.81 Y68.08 E1303.867
G1 X105.42 Y64.69 E1304.106
G1 X104.86 Y64.69 F9000
G1 X108.33 Y68.17 E1304.351 F3600
G1 X111.8 Y71.64 E1304.597
G1 X115.28 Y75.11 E1304.842
G1 X118.75 Y78.59 E1305.087
G1 X122.23 Y82.06 E1305.332
G1 X125.7 Y85.54 E1305.577
G1 X129.17 Y89.01 E1305.822
G1 X132.65 Y92.49 E1306.067
G1 X132.74 Y93.14 F9000
G1 X129.58 Y89.98 E1306.29 F3600
G1 X126.42 Y86.82 E1306.513
G1 X123.25 Y83.66 E1306.736
G1 X120.09 Y80.5 E1306.959
G1 X116.93 Y77.34 E1307.182
G1 X113.77 Y74.17 E1307.405
G1 X110.61 Y71.01 E1307.628
G1 X107.45 Y67.85 E1307.851
G1 X104.29 Y64.69 E1308.074
G1 X103.72 Y64.69 F9000
G1 X106.96 Y67.93 E1308.303 F3600
G1 X110.19 Y71.16 E1308.531
G1 X113.42 Y74.39 E1308.759
G1 X116.66 Y77.63 E1308.987
G1 X119.89 Y80.86 E1309.215
G1 X123.12 Y84.09 E1309.443
G1 X126.36 Y87.33 E1309.671
G1 X129.59 Y90.56 E1309.899
G1 X132.83 Y93.79 E1310.128
G1 X132.91 Y94.45 F9000
G1 X129.61 Y91.14 E1310.361 F3600
G1 X126.3 Y87.83 E1310.594
G1 X123 Y84.53 E1310.827
G1 X119.69 Y81.22 E1311.061
G1 X116.38 Y77.92 E1311.294
G1 X113.08 Y74.61 E1311.527
G1 X109.77 Y71.3 E1311.76
G1 X106.47 Y68 E1311.994
G1 X103.16 Y64.69 E1312.227
G1 X102.59 Y64.69 F9000
G1 X105.97 Y68.07 E1312.465 F3600
G1 X109.35 Y71.45 E1312.704
G1 X112.73 Y74.83 E1312.942
G1 X116.11 Y78.21 E1313.18
G1 X119.49 Y81.59 E1313.419
G1 X122.87 Y84.96 E1313.657
G1 X126.24 Y88.34 E1313.896
G1 X129.62 Y91.72 E1314.134
G1 X133 Y95.1 E1314.372
G1 X133.09 Y95.75 F9000
G1 X129.64 Y92.3 E1314.616 F3600
G1 X126.19 Y88.85 E1314.859
G1 X122.74 Y85.4 E1315.103
G1 X119.28 Y81.95 E1315.346
G1 X115.83 Y78.5 E1315.59
G1 X112.38 Y75.05 E1315.833
G1 X108.93 Y71.59 E1316.077
G1 X105.48 Y68.14 E1316.32
G1 X102.03 Y64.69 E1316.564
G1 X101.46 Y64.69 F9000
G1 X104.99 Y68.22 E1316.813 F3600
G1 X108.51 Y71.74 E1317.061
G1 X112.03 Y75.26 E1317.31
G1 X115.56 Y78.79 E1317.558
G1 X119.08 Y82.31 E1317.807
G1 X122.61 Y85.84 E1318.056
G1 X126.13 Y89.36 E1318.304
G1 X129.65 Y92.88 E1318.553
G1 X133.18 Y96.41 E1318.802
G1 X133.27 Y97.06 F9000
G1 X130.03 Y93.82 E1319.03 F3600
G1 X126.79 Y90.59 E1319.258
G1 X123.55 Y87.35 E1319.487
G1 X120.32 Y84.11 E1319.715
G1 X117.08 Y80.88 E1319.944
G1 X113.84 Y77.64 E1320.172
G1 X110.61 Y74.4 E1320.4
G1 X107.37 Y71.17 E1320.629
G1 X104.13 Y67.93 E1320.857
G1 X100.9 Y64.69 E1321.085
G1 X100.33 Y64.69 F9000
G1 X103.63 Y67.99 E1321.318 F3600
G1 X106.93 Y71.3 E1321.551
G1 X110.24 Y74.6 E1321.784
G1 X113.54 Y77.9 E1322.017
G1 X116.84 Y81.2 E1322.25
G1 X120.14 Y84.51 E1322.483
G1 X123.45 Y87.81 E1322.716
G1 X126.75 Y91.11 E1322.949
G1 X130.05 Y94.41 E1323.182
G1 X133.35 Y97.72 E1323.415
G1 X133.44 Y98.37 F9000
G1 X130.07 Y95 E1323.653 F3600
G1 X126.71 Y91.63 E1323.891
G1 X123.34 Y88.27 E1324.128
G1 X119.97 Y84.9 E1324.366
G1 X116.6 Y81.53 E1324.603
G1 X113.23 Y78.16 E1324.841
G1 X109.87 Y74.8 E1325.079
G1 X106.5 Y71.43 E1325.316
G1 X103.13 Y68.06 E1325.554
G1 X99.76 Y64.69 E1325.792
G1 X99.2 Y64.69 F9000
G1 X102.63 Y68.13 E1326.034 F3600
G1 X106.07 Y71.56 E1326.276
G1 X109.5 Y74.99 E1326.518
G1 X112.93 Y78.42 E1326.76
G1 X116.36 Y81.86 E1327.003
G1 X119.8 Y85.29 E1327.245
G1 X123.23 Y88.72 E1327.487
G1 X126.66 Y92.16 E1327.729
G1 X130.1 Y95.59 E1327.972
G1 X133.53 Y99.02 E1328.214
G1 X133.62 Y99.68 F9000
G1 X130.16 Y96.22 E1328.458 F3600
G1 X126.7 Y92.76 E1328.702
G1 X123.24 Y89.3 E1328.946
G1 X119.78 Y85.84 E1329.19
G1 X116.33 Y82.39 E1329.434
G1 X112.87 Y78.93 E1329.678
G1 X109.41 Y75.47 E1329.922
G1 X105.95 Y72.01 E1330.166
G1 X102.49 Y68.55 E1330.41
G1 X99.03 Y65.09 E1330.654
G1 X98.97 Y65.59 F9000
G1 X102.44 Y69.07 E1330.899 F3600
G1 X105.92 Y72.54 E1331.144
G1 X109.39 Y76.01 E1331.389
G1 X112.86 Y79.49 E1331.634
G1 X116.34 Y82.96 E1331.879
G1 X119.81 Y86.44 E1332.124
G1 X123.28 Y89.91 E1332.369
G1 X126.76 Y93.38 E1332.614
G1 X130.23 Y96.86 E1332.86
G1 X133.71 Y100.33 E1333.105
G1 X133.79 Y100.98 F9000
G1 X130.3 Y97.49 E1333.351 F3600
G1 X126.81 Y94.01 E1333.597
G1 X123.33 Y90.52 E1333.843
G1 X119.84 Y87.03 E1334.089
G1 X116.35 Y83.54 E1334.336
G1 X112.86 Y80.05 E1334.582
G1 X109.37 Y76.56 E1334.828
G1 X105.88 Y73.07 E1335.074
G1 X102.39 Y69.58 E1335.32
G1 X98.9 Y66.09 E1335.566
G1 X98.84 Y66.59 F9000
G1 X102.34 Y70.1 E1335.814 F3600
G1 X105.84 Y73.6 E1336.061
G1 X109.35 Y77.11 E1336.308
G1 X112.85 Y80.61 E1336.556
G1 X116.36 Y84.11 E1336.803
G1 X119.86 Y87.62 E1337.05
G1 X123.37 Y91.12 E1337.297
G1 X126.87 Y94.63 E1337.545
G1 X130.38 Y98.13 E1337.792
G1 X133.88 Y101.64 E1338.039
G1 X133.97 Y102.29 F9000
G1 X130.45 Y98.77 E1338.288 F3600
G1 X126.93 Y95.25 E1338.536
G1 X123.41 Y91.73 E1338.784
G1 X119.89 Y88.21 E1339.033
G1 X116.37 Y84.69 E1339.281
G1 X112.85 Y81.17 E1339.529
G1 X109.33 Y77.65 E1339.778
G1 X105.81 Y74.13 E1340.026
G1 X102.29 Y70.61 E1340.275
G1 X98.77 Y67.09 E1340.523
G1 X98.7 Y67.59 F9000
G1 X101.91 Y70.8 E1340.75 F3600
G1 X105.13 Y74.02 E1340.976
G1 X108.34 Y77.23 E1341.203
G1 X111.56 Y80.45 E1341.43
G1 X114.77 Y83.66 E1341.657
G1 X117.99 Y86.87 E1341.884
G1 X121.2 Y90.09 E1342.11
G1 X124.41 Y93.3 E1342.337
G1 X127.63 Y96.52 E1342.564
G1 X130.84 Y99.73 E1342.791
G1 X134.06 Y102.95 E1343.018
G1 X134.15 Y103.6 F9000
G1 X130.92 Y100.37 E1343.245 F3600
G1 X127.69 Y97.14 E1343.473
G1 X124.46 Y93.91 E1343.701
G1 X121.23 Y90.68 E1343.929
G1 X118 Y87.46 E1344.156
G1 X114.77 Y84.23 E1344.384
G1 X111.55 Y81 E1344.612
G1 X108.32 Y77.77 E1344.84
G1 X105.09 Y74.54 E1345.068
G1 X101.86 Y71.31 E1345.295
G1 X98.63 Y68.09 E1345.523
G1 X98.57 Y68.59 F9000
G1 X101.81 Y71.83 E1345.752 F3600
G1 X105.05 Y75.07 E1345.981
G1 X108.29 Y78.31 E1346.209
G1 X111.54 Y81.55 E1346.438
G1 X114.78 Y84.8 E1346.667
G1 X118.02 Y88.04 E1346.896
G1 X121.26 Y91.28 E1347.125
G1 X124.51 Y94.52 E1347.353
G1 X127.75 Y97.77 E1347.582
G1 X130.99 Y101.01 E1347.811
G1 X134.23 Y104.25 E1348.04
G1 X134.32 Y104.91 F9000
G1 X131.07 Y101.65 E1348.269 F3600
G1 X127.81 Y98.39 E1348.499
G1 X124.55 Y95.14 E1348.729
G1 X121.3 Y91.88 E1348.959
G1 X118.04 Y88.62 E1349.189
G1 X114.78 Y85.37 E1349.418
G1 X111.53 Y82.11 E1349.648
G1 X108.27 Y78.85 E1349.878
G1 X105.01 Y75.6 E1350.108
G1 X101.76 Y72.34 E1350.337
G1 X98.5 Y69.08 E1350.567
G1 X98.43 Y69.58 F9000
G1 X101.7 Y72.85 E1350.798 F3600
G1 X104.97 Y76.12 E1351.029
G1 X108.24 Y79.39 E1351.259
G1 X111.51 Y82.66 E1351.49
G1 X114.79 Y85.94 E1351.721
G1 X118.06 Y89.21 E1351.952
G1 X121.33 Y92.48 E1352.183
G1 X124.6 Y95.75 E1352.413
G1 X127.87 Y99.02 E1352.644
G1 X131.14 Y102.29 E1352.875
G1 X134.41 Y105.56 E1353.106
G1 X134.5 Y106.21 F9000
G1 X131.21 Y102.93 E1353.337 F3600
G1 X127.93 Y99.64 E1353.569
G1 X124.64 Y96.36 E1353.801
G1 X121.36 Y93.07 E1354.033
G1 X118.07 Y89.79 E1354.264
G1 X114.79 Y86.5 E1354.496
G1 X111.5 Y83.22 E1354.728
G1 X108.22 Y79.93 E1354.96
G1 X104.93 Y76.65 E1355.191
G1 X101.65 Y73.36 E1355.423
G1 X98.36 Y70.08 E1355.655
G1 X98.3 Y70.58 F9000
G1 X101.6 Y73.88 E1355.888 F3600
G1 X104.9 Y77.18 E1356.121
G1 X108.19 Y80.48 E1356.353
G1 X111.49 Y83.77 E1356.586
G1 X114.79 Y87.07 E1356.819
G1 X118.09 Y90.37 E1357.052
G1 X121.39 Y93.67 E1357.284
G1 X124.69 Y96.97 E1357.517
G1 X127.99 Y100.27 E1357.75
G1 X131.29 Y103.57 E1357.983
G1 X134.59 Y106.87 E1358.215
G1 X134.67 Y107.52 F9000
G1 X131.36 Y104.21 E1358.449 F3600
G1 X128.05 Y100.89 E1358.683
G1 X124.73 Y97.58 E1358.917
G1 X121.42 Y94.27 E1359.15
G1 X118.11 Y90.96 E1359.384
G1 X114.8 Y87.64 E1359.618
G1 X111.48 Y84.33 E1359.852
G1 X108.17 Y81.02 E1360.085
G1 X104.86 Y77.7 E1360.319
G1 X101.54 Y74.39 E1360.553
G1 X98.23 Y71.08 E1360.787
G1 X98.16 Y71.58 F9000
G1 X101.49 Y74.9 E1361.021 F3600
G1 X104.82 Y78.23 E1361.256
G1 X108.14 Y81.56 E1361.491
G1 X111.47 Y84.88 E1361.726
G1 X114.8 Y88.21 E1361.96
G1 X118.13 Y91.54 E1362.195
G1 X121.45 Y94.87 E1362.43
G1 X124.78 Y98.19 E1362.665
G1 X128.11 Y101.52 E1362.899
G1 X131.43 Y104.85 E1363.134
G1 X134.76 Y108.18 E1363.369
G1 X134.85 Y108.83 F9000
G1 X131.51 Y105.49 E1363.605 F3600
G1 X128.17 Y102.15 E1363.84
G1 X124.83 Y98.8 E1364.076
G1 X121.48 Y95.46 E1364.312
G1 X118.14 Y92.12 E1364.548
G1 X114.8 Y88.78 E1364.783
G1 X111.46 Y85.44 E1365.019
G1 X108.12 Y82.1 E1365.255
G1 X104.78 Y78.76 E1365.491
G1 X101.44 Y75.42 E1365.726
G1 X98.1 Y72.07 E1365.962
G1 X98.03 Y72.57 F9000
G1 X101.38 Y75.93 E1366.199 F3600
G1 X104.74 Y79.28 E1366.436
G1 X108.1 Y82.64 E1366.672
G1 X111.45 Y85.99 E1366.909
G1 X114.81 Y89.35 E1367.146
G1 X118.16 Y92.71 E1367.383
G1 X121.52 Y96.06 E1367.619
G1 X124.87 Y99.42 E1367.856
G1 X128.23 Y102.77 E1368.093
G1 X131.58 Y106.13 E1368.33
G1 X134.94 Y109.48 E1368.566
G1 X135.03 Y110.14 F9000
G1 X131.66 Y106.77 E1368.804 F3600
G1 X128.29 Y103.4 E1369.042
G1 X124.92 Y100.03 E1369.279
G1 X121.55 Y96.66 E1369.517
G1 X118.18 Y93.29 E1369.755
G1 X114.81 Y89.92 E1369.993
G1 X111.44 Y86.55 E1370.23
G1 X108.07 Y83.18 E1370.468
G1 X104.7 Y79.81 E1370.706
G1 X101.33 Y76.44 E1370.944
G1 X97.96 Y73.07 E1371.181
G1 X97.89 Y73.57 F9000
G1 X101.28 Y76.95 E1371.42 F3600
G1 X104.66 Y80.34 E1371.659
G1 X108.04 Y83.72 E1371.898
G1 X111.43 Y87.1 E1372.136
G1 X114.81 Y90.49 E1372.375
G1 X118.2 Y93.87 E1372.614
G1 X121.58 Y97.26 E1372.853
G1 X124.96 Y100.64 E1373.091
G1 X128.35 Y104.02 E1373.33
G1 X131.73 Y107.41 E1373.569
G1 X135.11 Y110.79 E1373.807
G1 X135.2 Y111.44 F9000
G1 X131.8 Y108.05 E1374.047 F3600
G1 X128.41 Y104.65 E1374.287
G1 X125.01 Y101.25 E1374.527
G1 X121.61 Y97.85 E1374.766
G1 X118.21 Y94.45 E1375.006
G1 X114.82 Y91.06 E1375.246
G1 X111.42 Y87.66 E1375.486
G1 X108.02 Y84.26 E1375.725
G1 X104.62 Y80.86 E1375.965
G1 X101.23 Y77.47 E1376.205
G1 X97.83 Y74.07 E1376.444
G1 X97.76 Y74.57 F9000
G1 X101.17 Y77.98 E1376.685 F3600
G1 X104.58 Y81.39 E1376.926
G1 X108 Y84.8 E1377.167
G1 X111.41 Y88.21 E1377.407
G1 X114.82 Y91.63 E1377.648
G1 X118.23 Y95.04 E1377.889
G1 X121.64 Y98.45 E1378.129
G1 X125.05 Y101.86 E1378.37
G1 X128.47 Y105.27 E1378.611
G1 X131.88 Y108.69 E1378.852
G1 X135.29 Y112.1 E1379.092
G1 X135.38 Y112.75 F9000
G1 X131.95 Y109.33 E1379.334 F3600
G1 X128.53 Y105.9 E1379.576
G1 X125.1 Y102.47 E1379.817
G1 X121.67 Y99.05 E1380.059
G1 X118.25 Y95.62 E1380.301
G1 X114.82 Y92.2 E1380.543
G1 X111.4 Y88.77 E1380.784
G1 X107.97 Y85.34 E1381.026
G1 X104.54 Y81.92 E1381.268
G1 X101.12 Y78.49 E1381.509
G1 X97.69 Y75.07 E1381.751
G1 X97.63 Y75.56 F9000
G1 X101.07 Y79 E1381.994 F3600
G1 X104.51 Y82.44 E1382.237
G1 X107.95 Y85.88 E1382.479
G1 X111.39 Y89.32 E1382.722
G1 X114.83 Y92.76 E1382.965
G1 X118.27 Y96.2 E1383.207
G1 X121.71 Y99.64 E1383.45
G1 X125.15 Y103.08 E1383.693
G1 X128.59 Y106.52 E1383.936
G1 X132.03 Y109.96 E1384.178
G1 X135.47 Y113.41 E1384.421
G1 X135.55 Y114.06 F9000
G1 X132.1 Y110.6 E1384.665 F3600
G1 X128.65 Y107.15 E1384.908
G1 X125.19 Y103.7 E1385.152
G1 X121.74 Y100.24 E1385.396
G1 X118.28 Y96.79 E1385.64
G1 X114.83 Y93.33 E1385.883
G1 X111.38 Y89.88 E1386.127
G1 X107.92 Y86.43 E1386.371
G1 X104.47 Y82.97 E1386.614
G1 X101.01 Y79.52 E1386.858
G1 X97.56 Y76.06 E1387.102
G1 X97.49 Y76.56 F9000
G1 X100.96 Y80.03 E1387.347 F3600
G1 X104.43 Y83.5 E1387.591
G1 X107.9 Y86.97 E1387.836
G1 X111.36 Y90.43 E1388.081
G1 X114.83 Y93.9 E1388.325
G1 X118.3 Y97.37 E1388.57
G1 X121.77 Y100.84 E1388.815
G1 X125.24 Y104.31 E1389.059
G1 X128.71 Y107.77 E1389.304
G1 X132.17 Y111.24 E1389.549
G1 X135.64 Y114.71 E1389.794
G1 X135.73 Y115.37 F9000
G1 X132.25 Y111.88 E1390.039 F3600
G1 X128.77 Y108.4 E1390.285
G1 X125.28 Y104.92 E1390.531
G1 X121.8 Y101.44 E1390.776
G1 X118.32 Y97.95 E1391.022
G1 X114.84 Y94.47 E1391.268
G1 X111.35 Y90.99 E1391.513
G1 X107.87 Y87.51 E1391.759
G1 X104.39 Y84.02 E1392.005
G1 X100.91 Y80.54 E1392.25
G1 X97.43 Y77.06 E1392.496
G1 X97.36 Y77.56 F9000
G1 X100.85 Y81.06 E1392.743 F3600
G1 X104.35 Y84.55 E1392.99
G1 X107.85 Y88.05 E1393.236
G1 X111.34 Y91.54 E1393.483
G1 X114.84 Y95.04 E1393.73
G1 X118.34 Y98.54 E1393.976
G1 X121.83 Y102.03 E1394.223
G1 X125.33 Y105.53 E1394.47
G1 X128.83 Y109.03 E1394.716
G1 X132.32 Y112.52 E1394.963
G1 X135.82 Y116.02 E1395.21
G1 X135.91 Y116.67 F9000
G1 X132.4 Y113.16 E1395.457 F3600
G1 X128.88 Y109.65 E1395.705
G1 X125.37 Y106.14 E1395.953
G1 X121.86 Y102.63 E1396.2
G1 X118.35 Y99.12 E1396.448
G1 X114.84 Y95.61 E1396.696
G1 X111.33 Y92.1 E1396.944
G1 X107.82 Y88.59 E1397.191
G1 X104.31 Y85.08 E1397.439
G1 X100.8 Y81.57 E1397.687
G1 X97.29 Y78.06 E1397.934
G1 X97.22 Y78.56 F9000
G1 X100.75 Y82.08 E1398.183 F3600
G1 X104.27 Y85.61 E1398.432
G1 X107.8 Y89.13 E1398.68
G1 X111.32 Y92.65 E1398.929
G1 X114.85 Y96.18 E1399.178
G1 X118.37 Y99.7 E1399.426
G1 X121.9 Y103.23 E1399.675
G1 X125.42 Y106.75 E1399.924
G1 X128.94 Y110.28 E1400.172
G1 X132.47 Y113.8 E1400.421
G1 X135.99 Y117.33 E1400.67
G1 X136.08 Y117.98 F9000
G1 X132.84 Y114.74 E1400.899 F3600
G1 X129.59 Y111.49 E1401.128
G1 X126.35 Y108.25 E1401.356
G1 X123.11 Y105 E1401.585
G1 X119.86 Y101.76 E1401.814
G1 X116.62 Y98.52 E1402.043
G1 X113.38 Y95.27 E1402.272
G1 X110.13 Y92.03 E1402.501
G1 X106.89 Y88.79 E1402.73
G1 X103.64 Y85.54 E1402.958
G1 X100.4 Y82.3 E1403.187
G1 X97.16 Y79.05 E1403.416
G1 X97.09 Y79.55 F9000
G1 X100.35 Y82.81 E1403.646 F3600
G1 X103.6 Y86.07 E1403.876
G1 X106.86 Y89.32 E1404.106
G1 X110.12 Y92.58 E1404.335
G1 X113.37 Y95.84 E1404.565
G1 X116.63 Y99.09 E1404.795
G1 X119.89 Y102.35 E1405.025
G1 X123.14 Y105.61 E1405.254
G1 X126.4 Y108.86 E1405.484
G1 X129.66 Y112.12 E1405.714
G1 X132.91 Y115.38 E1405.944
G1 X136.17 Y118.63 E1406.174
G1 X136.26 Y119.29 F9000
G1 X132.99 Y116.02 E1406.404 F3600
G1 X129.72 Y112.75 E1406.635
G1 X126.45 Y109.48 E1406.866
G1 X123.18 Y106.21 E1407.096
G1 X119.91 Y102.94 E1407.327
G1 X116.64 Y99.67 E1407.558
G1 X113.37 Y96.4 E1407.788
G1 X110.1 Y93.13 E1408.019
G1 X106.83 Y89.86 E1408.25
G1 X103.56 Y86.59 E1408.481
G1 X100.29 Y83.32 E1408.711
G1 X97.02 Y80.05 E1408.942
G1 X96.95 Y80.55 F9000
G1 X100.24 Y83.83 E1409.174 F3600
G1 X103.52 Y87.12 E1409.405
G1 X106.8 Y90.4 E1409.637
G1 X110.08 Y93.68 E1409.868
G1 X113.37 Y96.96 E1410.1
G1 X116.65 Y100.25 E1410.332
G1 X119.93 Y103.53 E1410.563
G1 X123.22 Y106.81 E1410.795
G1 X126.5 Y110.09 E1411.026
G1 X129.78 Y113.38 E1411.258
G1 X133.06 Y116.66 E1411.49
G1 X136.35 Y119.94 E1411.721
G1 X136.43 Y120.6 F9000
G1 X133.14 Y117.3 E1411.954 F3600
G1 X129.84 Y114 E1412.186
G1 X126.55 Y110.71 E1412.419
G1 X123.25 Y107.41 E1412.651
G1 X119.96 Y104.12 E1412.884
G1 X116.66 Y100.82 E1413.116
G1 X113.37 Y97.53 E1413.349
G1 X110.07 Y94.23 E1413.581
G1 X106.77 Y90.94 E1413.814
G1 X103.48 Y87.64 E1414.046
G1 X100.18 Y84.34 E1414.279
G1 X96.89 Y81.05 E1414.511
G1 X96.82 Y81.55 F9000
G1 X100.13 Y84.86 E1414.745 F3600
G1 X103.44 Y88.16 E1414.978
G1 X106.75 Y91.47 E1415.212
G1 X110.05 Y94.78 E1415.445
G1 X113.36 Y98.09 E1415.679
G1 X116.67 Y101.4 E1415.912
G1 X119.98 Y104.71 E1416.145
G1 X123.29 Y108.02 E1416.379
G1 X126.6 Y111.32 E1416.612
G1 X129.91 Y114.63 E1416.846
G1 X133.21 Y117.94 E1417.079
G1 X136.52 Y121.25 E1417.313
G1 X136.61 Y121.9 F9000
G1 X133.29 Y118.58 E1417.547 F3600
G1 X129.97 Y115.26 E1417.781
G1 X126.65 Y111.94 E1418.016
G1 X123.32 Y108.62 E1418.25
G1 X120 Y105.3 E1418.484
G1 X116.68 Y101.97 E1418.719
G1 X113.36 Y98.65 E1418.953
G1 X110.04 Y95.33 E1419.187
G1 X106.72 Y92.01 E1419.422
G1 X103.4 Y88.69 E1419.656
G1 X100.08 Y85.37 E1419.89
G1 X96.75 Y82.05 E1420.125
G1 X96.69 Y82.54 F9000
G1 X100.02 Y85.88 E1420.36 F3600
G1 X103.35 Y89.21 E1420.595
G1 X106.69 Y92.55 E1420.83
G1 X110.02 Y95.88 E1421.066
G1 X113.36 Y99.22 E1421.301
G1 X116.69 Y102.55 E1421.536
G1 X120.03 Y105.88 E1421.771
G1 X123.36 Y109.22 E1422.007
G1 X126.7 Y112.55 E1422.242
G1 X130.03 Y115.89 E1422.477
G1 X133.36 Y119.22 E1422.712
G1 X136.7 Y122.56 E1422.948
G1 X136.79 Y123.21 F9000
G1 X133.44 Y119.86 E1423.184 F3600
G1 X130.09 Y116.52 E1423.42
G1 X126.74 Y113.17 E1423.656
G1 X123.4 Y109.82 E1423.892
G1 X120.05 Y106.47 E1424.129
G1 X116.7 Y103.13 E1424.365
G1 X113.36 Y99.78 E1424.601
G1 X110.01 Y96.43 E1424.837
G1 X106.66 Y93.08 E1425.073
G1 X103.31 Y89.74 E1425.309
G1 X99.97 Y86.39 E1425.546
G1 X96.62 Y83.04 E1425.782
G1 X96.55 Y83.54 F9000
G1 X99.91 Y86.9 E1426.019 F3600
G1 X103.27 Y90.26 E1426.256
G1 X106.63 Y93.62 E1426.493
G1 X109.99 Y96.98 E1426.73
G1 X113.35 Y100.34 E1426.967
G1 X116.71 Y103.7 E1427.204
G1 X120.07 Y107.06 E1427.441
G1 X123.43 Y110.42 E1427.678
G1 X126.79 Y113.78 E1427.915
G1 X130.15 Y117.14 E1428.152
G1 X133.51 Y120.5 E1428.39
G1 X136.87 Y123.86 E1428.627
G1 X136.96 Y124.52 F9000
G1 X133.59 Y121.14 E1428.865 F3600
G1 X130.22 Y117.77 E1429.103
G1 X126.84 Y114.4 E1429.341
G1 X123.47 Y111.02 E1429.579
G1 X120.1 Y107.65 E1429.817
G1 X116.72 Y104.28 E1430.055
G1 X113.35 Y100.91 E1430.293
G1 X109.98 Y97.53 E1430.531
G1 X106.6 Y94.16 E1430.769
G1 X103.23 Y90.79 E1431.007
G1 X99.86 Y87.41 E1431.245
G1 X96.49 Y84.04 E1431.483
G1 X96.42 Y84.54 F9000
G1 X99.8 Y87.92 E1431.721 F3600
G1 X103.19 Y91.31 E1431.96
G1 X106.58 Y94.7 E1432.199
G1 X109.96 Y98.08 E1432.438
G1 X113.35 Y101.47 E1432.677
G1 X116.73 Y104.85 E1432.916
G1 X120.12 Y108.24 E1433.155
G1 X123.51 Y111.63 E1433.394
G1 X126.89 Y115.01 E1433.633
G1 X130.28 Y118.4 E1433.872
G1 X133.66 Y121.78 E1434.11
G1 X137.05 Y125.17 E1434.349
G1 X137.14 Y125.83 F9000
G1 X133.74 Y122.43 E1434.589 F3600
G1 X130.34 Y119.03 E1434.829
G1 X126.94 Y115.63 E1435.069
G1 X123.54 Y112.23 E1435.309
G1 X120.14 Y108.83 E1435.548
G1 X116.75 Y105.43 E1435.788
G1 X113.35 Y102.03 E1436.028
G1 X109.95 Y98.63 E1436.268
G1 X106.55 Y95.23 E1436.508
G1 X103.15 Y91.84 E1436.748
G1 X99.75 Y88.44 E1436.987
G1 X96.35 Y85.04 E1437.227
G1 X96.28 Y85.54 F9000
G1 X99.69 Y88.95 E1437.468 F3600
G1 X103.11 Y92.36 E1437.709
G1 X106.52 Y95.77 E1437.949
G1 X109.93 Y99.18 E1438.19
G1 X113.34 Y102.59 E1438.431
G1 X116.75 Y106.01 E1438.672
G1 X120.17 Y109.42 E1438.912
G1 X123.58 Y112.83 E1439.153
G1 X126.99 Y116.24 E1439.394
G1 X130.4 Y119.65 E1439.634
G1 X133.81 Y123.07 E1439.875
G1 X137.23 Y126.48 E1440.116
G1 X137.32 Y127.13 F9000
G1 X133.89 Y123.71 E1440.358 F3600
G1 X130.47 Y120.28 E1440.599
G1 X127.04 Y116.86 E1440.841
G1 X123.62 Y113.43 E1441.083
G1 X120.19 Y110.01 E1441.324
G1 X116.77 Y106.58 E1441.566
G1 X113.34 Y103.16 E1441.807
G1 X109.92 Y99.73 E1442.049
G1 X106.49 Y96.31 E1442.291
G1 X103.07 Y92.88 E1442.532
G1 X99.64 Y89.46 E1442.774
G1 X96.22 Y86.03 E1443.016
G1 X96.15 Y86.53 F9000
G1 X99.59 Y89.97 E1443.258 F3600
G1 X103.02 Y93.41 E1443.501
G1 X106.46 Y96.85 E1443.743
G1 X109.9 Y100.28 E1443.986
G1 X113.34 Y103.72 E1444.228
G1 X116.78 Y107.16 E1444.471
G1 X120.21 Y110.6 E1444.714
G1 X123.65 Y114.03 E1444.956
G1 X127.09 Y117.47 E1445.199
G1 X130.53 Y120.91 E1445.441
G1 X133.96 Y124.35 E1445.684
G1 X137.4 Y127.79 E1445.926
G1 X137.49 Y128.44 F9000
G1 X134.04 Y124.99 E1446.17 F3600
G1 X130.59 Y121.54 E1446.413
G1 X127.14 Y118.09 E1446.657
G1 X123.69 Y114.64 E1446.9
G1 X120.24 Y111.19 E1447.144
G1 X116.79 Y107.74 E1447.387
G1 X113.34 Y104.28 E1447.631
G1 X109.89 Y100.83 E1447.874
G1 X106.43 Y97.38 E1448.118
G1 X102.98 Y93.93 E1448.361
G1 X99.53 Y90.48 E1448.604
G1 X96.08 Y87.03 E1448.848
G1 X96.02 Y87.53 F9000
G1 X99.48 Y90.99 E1449.092 F3600
G1 X102.94 Y94.46 E1449.337
G1 X106.41 Y97.92 E1449.581
G1 X109.87 Y101.38 E1449.825
G1 X113.33 Y104.85 E1450.07
G1 X116.8 Y108.31 E1450.314
G1 X120.26 Y111.77 E1450.559
G1 X123.72 Y115.24 E1450.803
G1 X127.19 Y118.7 E1451.047
G1 X130.65 Y122.17 E1451.292
G1 X134.11 Y125.63 E1451.536
G1 X137.58 Y129.09 E1451.78
G1 X137.67 Y129.75 F9000
G1 X134.19 Y126.27 E1452.026 F3600
G1 X130.71 Y122.79 E1452.271
G1 X127.24 Y119.32 E1452.516
G1 X123.76 Y115.84 E1452.762
G1 X120.28 Y112.36 E1453.007
G1 X116.81 Y108.89 E1453.252
G1 X113.33 Y105.41 E1453.498
G1 X109.85 Y101.93 E1453.743
G1 X106.38 Y98.46 E1453.988
G1 X102.9 Y94.98 E1454.233
G1 X99.42 Y91.5 E1454.479
G1 X95.95 Y88.03 E1454.724
G1 X95.88 Y88.53 F9000
G1 X99.37 Y92.02 E1454.97 F3600
G1 X102.86 Y95.51 E1455.216
G1 X106.35 Y99 E1455.463
G1 X109.84 Y102.49 E1455.709
G1 X113.33 Y105.97 E1455.955
G1 X116.82 Y109.46 E1456.201
G1 X120.31 Y112.95 E1456.447
G1 X123.8 Y116.44 E1456.694
G1 X127.29 Y119.93 E1456.94
G1 X130.78 Y123.42 E1457.186
G1 X134.27 Y126.91 E1457.432
G1 X137.76 Y130.4 E1457.678
G1 X137.84 Y131.06 F9000
G1 X134.34 Y127.55 E1457.926 F3600
G1 X130.84 Y124.05 E1458.173
G1 X127.34 Y120.55 E1458.42
G1 X123.83 Y117.05 E1458.667
G1 X120.33 Y113.54 E1458.914
G1 X116.83 Y110.04 E1459.161
G1 X113.33 Y106.54 E1459.408
G1 X109.82 Y103.04 E1459.655
G1 X106.32 Y99.53 E1459.902
G1 X102.82 Y96.03 E1460.15
G1 X99.32 Y92.53 E1460.397
G1 X95.81 Y89.03 E1460.644
G1 X95.75 Y89.52 F9000
G1 X99.26 Y93.04 E1460.892 F3600
G1 X102.78 Y96.55 E1461.14
G1 X106.29 Y100.07 E1461.388
G1 X109.81 Y103.59 E1461.636
G1 X113.32 Y107.1 E1461.884
G1 X116.84 Y110.62 E1462.132
G1 X120.35 Y114.13 E1462.38
G1 X123.87 Y117.65 E1462.628
G1 X127.39 Y121.16 E1462.876
G1 X130.9 Y124.68 E1463.124
G1 X134.42 Y128.19 E1463.372
G1 X137.93 Y131.71 E1463.62
G1 X138.02 Y132.36 F9000
G1 X134.49 Y128.83 E1463.869 F3600
G1 X130.96 Y125.31 E1464.118
G1 X127.43 Y121.78 E1464.367
G1 X123.91 Y118.25 E1464.616
G1 X120.38 Y114.72 E1464.865
G1 X116.85 Y111.19 E1465.114
G1 X113.32 Y107.66 E1465.363
G1 X109.79 Y104.14 E1465.612
G1 X106.26 Y100.61 E1465.861
G1 X102.74 Y97.08 E1466.109
G1 X99.21 Y93.55 E1466.358
G1 X95.68 Y90.02 E1466.607
G1 X95.61 Y90.52 F9000
G1 X98.88 Y93.79 E1466.838 F3600
G1 X102.15 Y97.06 E1467.069
G1 X105.42 Y100.33 E1467.299
G1 X108.69 Y103.6 E1467.53
G1 X111.96 Y106.86 E1467.761
G1 X115.23 Y110.13 E1467.991
G1 X118.49 Y113.4 E1468.222
G1 X121.76 Y116.67 E1468.452
G1 X125.03 Y119.94 E1468.683
G1 X128.3 Y123.21 E1468.914
G1 X131.57 Y126.48 E1469.144
G1 X134.84 Y129.75 E1469.375
G1 X138.11 Y133.02 E1469.606
G1 X138.2 Y133.67 F9000
G1 X134.91 Y130.39 E1469.837 F3600
G1 X131.63 Y127.11 E1470.069
G1 X128.35 Y123.83 E1470.3
G1 X125.07 Y120.55 E1470.531
G1 X121.79 Y117.27 E1470.763
G1 X118.51 Y113.99 E1470.994
G1 X115.23 Y110.7 E1471.226
G1 X111.95 Y107.42 E1471.457
G1 X108.67 Y104.14 E1471.689
G1 X105.39 Y100.86 E1471.92
G1 X102.11 Y97.58 E1472.152
G1 X98.83 Y94.3 E1472.383
G1 X95.55 Y91.02 E1472.615
G1 X95.48 Y91.52 F9000
G1 X98.77 Y94.81 E1472.847 F3600
G1 X102.06 Y98.1 E1473.079
G1 X105.36 Y101.4 E1473.312
G1 X108.65 Y104.69 E1473.544
G1 X111.94 Y107.98 E1473.776
G1 X115.23 Y111.27 E1474.009
G1 X118.53 Y114.57 E1474.241
G1 X121.82 Y117.86 E1474.473
G1 X125.11 Y121.15 E1474.706
G1 X128.4 Y124.44 E1474.938
G1 X131.7 Y127.74 E1475.17
G1 X134.99 Y131.03 E1475.403
G1 X138.28 Y134.32 E1475.635
G1 X138.37 Y134.98 F9000
G1 X135.07 Y131.67 E1475.868 F3600
G1 X131.76 Y128.37 E1476.101
G1 X128.46 Y125.06 E1476.334
G1 X125.15 Y121.76 E1476.568
G1 X121.85 Y118.45 E1476.801
G1 X118.54 Y115.15 E1477.034
G1 X115.24 Y111.84 E1477.267
G1 X111.93 Y108.54 E1477.5
G1 X108.63 Y105.24 E1477.733
G1 X105.32 Y101.93 E1477.966
G1 X102.02 Y98.63 E1478.2
G1 X98.72 Y95.32 E1478.433
G1 X95.41 Y92.02 E1478.666
G1 X95.34 Y92.52 F9000
G1 X98.66 Y95.83 E1478.9 F3600
G1 X101.98 Y99.15 E1479.134
G1 X105.29 Y102.46 E1479.368
G1 X108.61 Y105.78 E1479.602
G1 X111.93 Y109.1 E1479.836
G1 X115.24 Y112.41 E1480.07
G1 X118.56 Y115.73 E1480.304
G1 X121.88 Y119.05 E1480.538
G1 X125.19 Y122.36 E1480.772
G1 X128.51 Y125.68 E1481.006
G1 X131.83 Y129 E1481.24
G1 X135.14 Y132.31 E1481.474
G1 X138.46 Y135.63 E1481.708
G1 X138.55 Y136.28 F9000
G1 X135.22 Y132.96 E1481.943 F3600
G1 X131.89 Y129.63 E1482.178
G1 X128.56 Y126.3 E1482.412
G1 X125.23 Y122.97 E1482.647
G1 X121.9 Y119.64 E1482.882
G1 X118.58 Y116.31 E1483.117
G1 X115.25 Y112.98 E1483.352
G1 X111.92 Y109.66 E1483.587
G1 X108.59 Y106.33 E1483.822
G1 X105.26 Y103 E1484.056
G1 X101.93 Y99.67 E1484.291
G1 X98.6 Y96.34 E1484.526
G1 X95.28 Y93.01 E1484.761
G1 X95.21 Y93.51 F9000
G1 X98.55 Y96.85 E1484.997 F3600
G1 X101.89 Y100.19 E1485.232
G1 X105.23 Y103.53 E1485.468
G1 X108.57 Y106.87 E1485.704
G1 X111.91 Y110.21 E1485.939
G1 X115.25 Y113.55 E1486.175
G1 X118.59 Y116.9 E1486.411
G1 X121.93 Y120.24 E1486.646
G1 X125.27 Y123.58 E1486.882
G1 X128.61 Y126.92 E1487.118
G1 X131.95 Y130.26 E1487.353
G1 X135.29 Y133.6 E1487.589
G1 X138.64 Y136.94 E1487.825
G1 X138.72 Y137.59 F9000
G1 X135.37 Y134.24 E1488.061 F3600
G1 X132.02 Y130.89 E1488.298
G1 X128.67 Y127.53 E1488.534
G1 X125.31 Y124.18 E1488.771
G1 X121.96 Y120.83 E1489.007
G1 X118.61 Y117.48 E1489.244
G1 X115.26 Y114.13 E1489.481
G1 X111.9 Y110.77 E1489.717
G1 X108.55 Y107.42 E1489.954
G1 X105.2 Y104.07 E1490.19
G1 X101.85 Y100.72 E1490.427
G1 X98.49 Y97.36 E1490.663
G1 X95.14 Y94.01 E1490.9
G1 X95.08 Y94.51 F9000
G1 X98.44 Y97.87 E1491.137 F3600
G1 X101.8 Y101.24 E1491.374
G1 X105.17 Y104.6 E1491.612
G1 X108.53 Y107.97 E1491.849
G1 X111.9 Y111.33 E1492.087
G1 X115.26 Y114.69 E1492.324
G1 X118.63 Y118.06 E1492.561
G1 X121.99 Y121.42 E1492.799
G1 X125.35 Y124.79 E1493.036
G1 X128.72 Y128.15 E1493.273
G1 X132.08 Y131.52 E1493.511
G1 X135.45 Y134.88 E1493.748
G1 X138.81 Y138.25 E1493.986
G1 X138.9 Y138.9 F9000
G1 X135.52 Y135.52 E1494.224 F3600
G1 X132.15 Y132.15 E1494.462
G1 X128.77 Y128.77 E1494.7
G1 X125.39 Y125.39 E1494.938
G1 X122.02 Y122.02 E1495.177
G1 X118.64 Y118.64 E1495.415
G1 X115.27 Y115.27 E1495.653
G1 X111.89 Y111.89 E1495.891
G1 X108.51 Y108.51 E1496.129
G1 X105.14 Y105.14 E1496.368
G1 X101.76 Y101.76 E1496.606
G1 X98.38 Y98.38 E1496.844
G1 X95.01 Y95.01 E1497.082
G1 X94.94 Y95.51 F9000
G1 X98.33 Y98.89 E1497.321 F3600
G1 X101.72 Y102.28 E1497.56
G1 X105.11 Y105.67 E1497.799
G1 X108.49 Y109.06 E1498.038
G1 X111.88 Y112.45 E1498.278
G1 X115.27 Y115.84 E1498.517
G1 X118.66 Y119.22 E1498.756
G1 X122.05 Y122.61 E1498.995
G1 X125.43 Y126 E1499.234
G1 X128.82 Y129.39 E1499.473
G1 X132.21 Y132.78 E1499.712
G1 X135.6 Y136.16 E1499.951
G1 X138.99 Y139.55 E1500.19
G1 X139.08 Y140.21 F9000
G1 X135.67 Y136.81 E1500.43 F3600
G1 X132.27 Y133.41 E1500.67
G1 X128.87 Y130.01 E1500.91
G1 X125.47 Y126.61 E1501.15
G1 X122.07 Y123.21 E1501.389
G1 X118.67 Y119.81 E1501.629
G1 X115.27 Y116.41 E1501.869
G1 X111.87 Y113.01 E1502.109
G1 X108.47 Y109.61 E1502.349
G1 X105.07 Y106.21 E1502.589
G1 X101.67 Y102.81 E1502.829
G1 X98.27 Y99.41 E1503.069
G1 X94.87 Y96.01 E1503.309
G1 X94.81 Y96.5 F9000
G1 X98.22 Y99.92 E1503.549 F3600
G1 X101.63 Y103.33 E1503.79
G1 X105.04 Y106.74 E1504.031
G1 X108.46 Y110.15 E1504.272
G1 X111.87 Y113.56 E1504.512
G1 X115.28 Y116.98 E1504.753
G1 X118.69 Y120.39 E1504.994
G1 X122.1 Y123.8 E1505.234
G1 X125.52 Y127.21 E1505.475
G1 X128.93 Y130.62 E1505.716
G1 X132.34 Y134.04 E1505.957
G1 X135.75 Y137.45 E1506.197
G1 X139.16 Y140.86 E1506.438
G1 X139.25 Y141.51 F9000
G1 X135.83 Y138.09 E1506.68 F3600
G1 X132.4 Y134.67 E1506.921
G1 X128.98 Y131.24 E1507.163
G1 X125.56 Y127.82 E1507.404
G1 X122.13 Y124.39 E1507.646
G1 X118.71 Y120.97 E1507.888
G1 X115.28 Y117.55 E1508.129
G1 X111.86 Y114.12 E1508.371
G1 X108.44 Y110.7 E1508.612
G1 X105.01 Y107.27 E1508.854
G1 X101.59 Y103.85 E1509.095
G1 X98.16 Y100.43 E1509.337
G1 X94.74 Y97 E1509.579
G1 X94.67 Y97.5 F9000
G1 X98.11 Y100.94 E1509.821 F3600
G1 X101.54 Y104.37 E1510.063
G1 X104.98 Y107.81 E1510.306
G1 X108.42 Y111.24 E1510.548
G1 X111.85 Y114.68 E1510.791
G1 X115.29 Y118.12 E1511.033
G1 X118.72 Y121.55 E1511.276
G1 X122.16 Y124.99 E1511.518
G1 X125.6 Y128.42 E1511.76
G1 X129.03 Y131.86 E1512.003
G1 X132.47 Y135.3 E1512.245
G1 X135.9 Y138.73 E1512.488
G1 X139.34 Y142.17 E1512.73
G1 X139.43 Y142.82 F9000
G1 X135.98 Y139.37 E1512.973 F3600
G1 X132.53 Y135.93 E1513.217
G1 X129.08 Y132.48 E1513.46
G1 X125.64 Y129.03 E1513.703
G1 X122.19 Y125.58 E1513.946
G1 X118.74 Y122.13 E1514.19
G1 X115.29 Y118.69 E1514.433
G1 X111.84 Y115.24 E1514.676
G1 X108.4 Y111.79 E1514.919
G1 X104.95 Y108.34 E1515.163
G1 X101.5 Y104.9 E1515.406
G1 X98.05 Y101.45 E1515.649
G1 X94.61 Y98 E1515.892
G1 X94.54 Y98.5 F9000
G1 X98 Y101.96 E1516.137 F3600
G1 X101.46 Y105.42 E1516.381
G1 X104.92 Y108.88 E1516.625
G1 X108.38 Y112.34 E1516.869
G1 X111.84 Y115.8 E1517.113
G1 X115.3 Y119.26 E1517.357
G1 X118.76 Y122.72 E1517.601
G1 X122.22 Y126.18 E1517.845
G1 X125.68 Y129.64 E1518.089
G1 X129.14 Y133.1 E1518.334
G1 X132.6 Y136.56 E1518.578
G1 X136.06 Y140.02 E1518.822
G1 X139.52 Y143.48 E1519.066
G1 X139.6 Y144.13 F9000
G1 X136.13 Y140.66 E1519.311 F3600
G1 X132.66 Y137.18 E1519.556
G1 X129.19 Y133.71 E1519.801
G1 X125.72 Y130.24 E1520.046
G1 X122.24 Y126.77 E1520.291
G1 X118.77 Y123.3 E1520.535
G1 X115.3 Y119.83 E1520.78
G1 X111.83 Y116.36 E1521.025
G1 X108.36 Y112.88 E1521.27
G1 X104.89 Y109.41 E1521.515
G1 X101.41 Y105.94 E1521.76
G1 X97.94 Y102.47 E1522.005
G1 X94.47 Y99 E1522.25
G1 X94.4 Y99.5 F9000
G1 X97.89 Y102.98 E1522.496 F3600
G1 X101.37 Y106.46 E1522.742
G1 X104.85 Y109.95 E1522.987
G1 X108.34 Y113.43 E1523.233
G1 X111.82 Y116.91 E1523.479
G1 X115.31 Y120.4 E1523.725
G1 X118.79 Y123.88 E1523.971
G1 X122.27 Y127.36 E1524.216
G1 X125.76 Y130.85 E1524.462
G1 X129.24 Y134.33 E1524.708
G1 X132.72 Y137.81 E1524.954
G1 X136.21 Y141.3 E1525.2
G1 X139.69 Y144.78 E1525.445
G1 X139.78 Y145.44 F9000
G1 X136.28 Y141.94 E1525.692 F3600
G1 X132.79 Y138.44 E1525.939
G1 X129.29 Y134.95 E1526.185
G1 X125.8 Y131.45 E1526.432
G1 X122.3 Y127.96 E1526.678
G1 X118.81 Y124.46 E1526.925
G1 X115.31 Y120.97 E1527.172
G1 X111.81 Y117.47 E1527.418
G1 X108.32 Y113.98 E1527.665
G1 X104.82 Y110.48 E1527.912
G1 X101.33 Y106.99 E1528.158
G1 X97.83 Y103.49 E1528.405
G1 X94.34 Y99.99 E1528.652
G1 X94.27 Y100.49 F9000
G1 X97.78 Y104 E1528.899 F3600
G1 X101.28 Y107.51 E1529.146
G1 X104.79 Y111.01 E1529.394
G1 X108.3 Y114.52 E1529.641
G1 X111.81 Y118.03 E1529.889
G1 X115.31 Y121.54 E1530.136
G1 X118.82 Y125.04 E1530.384
G1 X122.33 Y128.55 E1530.631
G1 X125.84 Y132.06 E1530.879
G1 X129.34 Y135.57 E1531.126
G1 X132.85 Y139.07 E1531.374
G1 X136.36 Y142.58 E1531.621
G1 X139.87 Y146.09 E1531.869
G1 X139.96 Y146.74 F9000
G1 X136.44 Y143.22 E1532.117 F3600
G1 X132.92 Y139.7 E1532.365
G1 X129.4 Y136.18 E1532.614
G1 X125.88 Y132.67 E1532.862
G1 X122.36 Y129.15 E1533.11
G1 X118.84 Y125.63 E1533.359
G1 X115.32 Y122.11 E1533.607
G1 X111.8 Y118.59 E1533.855
G1 X108.28 Y115.07 E1534.103
G1 X104.76 Y111.55 E1534.352
G1 X101.24 Y108.03 E1534.6
G1 X97.72 Y104.51 E1534.848
G1 X94.2 Y100.99 E1535.097
G1 X94.14 Y101.49 F9000
G1 X97.67 Y105.02 E1535.346 F3600
G1 X101.2 Y108.55 E1535.595
G1 X104.73 Y112.08 E1535.844
G1 X108.26 Y115.61 E1536.093
G1 X111.79 Y119.15 E1536.343
G1 X115.32 Y122.68 E1536.592
G1 X118.85 Y126.21 E1536.841
G1 X122.39 Y129.74 E1537.09
G1 X125.92 Y133.27 E1537.339
G1 X129.45 Y136.8 E1537.588
G1 X132.98 Y140.33 E1537.837
G1 X136.51 Y143.87 E1538.087
G1 X140.04 Y147.4 E1538.336
G1 X140.13 Y148.05 F9000
G1 X136.84 Y144.76 E1538.568 F3600
G1 X133.55 Y141.47 E1538.8
G1 X130.26 Y138.18 E1539.032
G1 X126.97 Y134.89 E1539.264
G1 X123.68 Y131.6 E1539.497
G1 X120.39 Y128.31 E1539.729
G1 X117.1 Y125.02 E1539.961
G1 X113.81 Y121.73 E1540.193
G1 X110.52 Y118.44 E1540.425
G1 X107.23 Y115.15 E1540.657
G1 X103.94 Y111.86 E1540.889
G1 X100.65 Y108.57 E1541.122
G1 X97.36 Y105.28 E1541.354
G1 X94.07 Y101.99 E1541.586
G1 X94 Y102.49 F9000
G1 X97.3 Y105.79 E1541.819 F3600
G1 X100.6 Y109.09 E1542.052
G1 X103.9 Y112.39 E1542.285
G1 X107.21 Y115.69 E1542.517
G1 X110.51 Y118.99 E1542.75
G1 X113.81 Y122.29 E1542.983
G1 X117.11 Y125.6 E1543.216
G1 X120.41 Y128.9 E1543.449
G1 X123.71 Y132.2 E1543.682
G1 X127.01 Y135.5 E1543.915
G1 X130.32 Y138.8 E1544.148
G1 X133.62 Y142.1 E1544.381
G1 X136.92 Y145.4 E1544.614
G1 X140.22 Y148.71 E1544.847
G1 X140.31 Y149.36 F9000
G1 X136.99 Y146.05 E1545.08 F3600
G1 X133.68 Y142.73 E1545.314
G1 X130.37 Y139.42 E1545.548
G1 X127.06 Y136.11 E1545.782
G1 X123.75 Y132.8 E1546.015
G1 X120.43 Y129.48 E1546.249
G1 X117.12 Y126.17 E1546.483
G1 X113.81 Y122.86 E1546.716
G1 X110.5 Y119.55 E1546.95
G1 X107.18 Y116.23 E1547.184
G1 X103.87 Y112.92 E1547.418
G1 X100.56 Y109.61 E1547.651
G1 X97.25 Y106.3 E1547.885
G1 X93.93 Y102.99 E1548.119
G1 X93.87 Y103.48 F9000
G1 X97.19 Y106.81 E1548.353 F3600
G1 X100.51 Y110.13 E1548.588
G1 X103.84 Y113.45 E1548.822
G1 X107.16 Y116.78 E1549.057
G1 X110.48 Y120.1 E1549.291
G1 X113.81 Y123.42 E1549.526
G1 X117.13 Y126.75 E1549.76
G1 X120.46 Y130.07 E1549.995
G1 X123.78 Y133.39 E1550.229
G1 X127.1 Y136.72 E1550.464
G1 X130.43 Y140.04 E1550.698
G1 X133.75 Y143.37 E1550.932
G1 X137.07 Y146.69 E1551.167
G1 X140.4 Y150.01 E1551.401
G1 X140.48 Y150.67 F9000
G1 X137.15 Y147.33 E1551.637 F3600
G1 X133.81 Y144 E1551.872
G1 X130.48 Y140.66 E1552.107
G1 X127.15 Y137.33 E1552.343
G1 X123.81 Y133.99 E1552.578
G1 X120.48 Y130.66 E1552.813
G1 X117.14 Y127.32 E1553.048
G1 X113.81 Y123.99 E1553.284
G1 X110.47 Y120.65 E1553.519
G1 X107.14 Y117.32 E1553.754
G1 X103.8 Y113.99 E1553.989
G1 X100.47 Y110.65 E1554.225
G1 X97.13 Y107.32 E1554.46
G1 X93.8 Y103.98 E1554.695
G1 X93.73 Y104.48 F9000
G1 X97.08 Y107.83 E1554.931 F3600
G1 X100.42 Y111.17 E1555.167
G1 X103.77 Y114.52 E1555.403
G1 X107.12 Y117.86 E1555.639
G1 X110.46 Y121.21 E1555.875
G1 X113.81 Y124.55 E1556.112
G1 X117.15 Y127.9 E1556.348
G1 X120.5 Y131.25 E1556.584
G1 X123.84 Y134.59 E1556.82
G1 X127.19 Y137.94 E1557.056
G1 X130.54 Y141.28 E1557.292
G1 X133.88 Y144.63 E1557.528
G1 X137.23 Y147.97 E1557.764
G1 X140.57 Y151.32 E1558
G1 X140.66 Y151.97 F9000
G1 X137.3 Y148.62 E1558.237 F3600
G1 X133.95 Y145.26 E1558.474
G1 X130.59 Y141.9 E1558.71
G1 X127.23 Y138.55 E1558.947
G1 X123.88 Y135.19 E1559.184
G1 X120.52 Y131.83 E1559.421
G1 X117.16 Y128.48 E1559.658
G1 X113.81 Y125.12 E1559.895
G1 X110.45 Y121.76 E1560.131
G1 X107.09 Y118.41 E1560.368
G1 X103.74 Y115.05 E1560.605
G1 X100.38 Y111.69 E1560.842
G1 X97.02 Y108.34 E1561.079
G1 X93.67 Y104.98 E1561.316
G1 X93.6 Y105.48 F9000
G1 X96.97 Y108.85 E1561.553 F3600
G1 X100.33 Y112.21 E1561.791
G1 X103.7 Y115.58 E1562.028
G1 X107.07 Y118.95 E1562.266
G1 X110.44 Y122.32 E1562.504
G1 X113.81 Y125.68 E1562.741
G1 X117.17 Y129.05 E1562.979
G1 X120.54 Y132.42 E1563.217
G1 X123.91 Y135.79 E1563.454
G1 X127.28 Y139.16 E1563.692
G1 X130.64 Y142.52 E1563.929
G1 X134.01 Y145.89 E1564.167
G1 X137.38 Y149.26 E1564.405
G1 X140.75 Y152.63 E1564.642
G1 X140.84 Y153.28 F9000
G1 X137.46 Y149.9 E1564.881 F3600
G1 X134.08 Y146.52 E1565.119
G1 X130.7 Y143.14 E1565.357
G1 X127.32 Y139.76 E1565.596
G1 X123.94 Y136.39 E1565.834
G1 X120.56 Y133.01 E1566.073
G1 X117.18 Y129.63 E1566.311
G1 X113.8 Y126.25 E1566.549
G1 X110.43 Y122.87 E1566.788
G1 X107.05 Y119.49 E1567.026
G1 X103.67 Y116.11 E1567.265
G1 X100.29 Y112.73 E1567.503
G1 X96.91 Y109.35 E1567.741
G1 X93.53 Y105.98 E1567.98
G1 X93.46 Y106.48 F9000
G1 X96.85 Y109.87 E1568.219 F3600
G1 X100.24 Y113.26 E1568.458
G1 X103.63 Y116.65 E1568.697
G1 X107.02 Y120.04 E1568.937
G1 X110.41 Y123.43 E1569.176
G1 X113.8 Y126.82 E1569.415
G1 X117.19 Y130.21 E1569.654
G1 X120.58 Y133.6 E1569.893
G1 X123.97 Y136.99 E1570.132
G1 X127.36 Y140.38 E1570.372
G1 X130.75 Y143.77 E1570.611
G1 X134.14 Y147.16 E1570.85
G1 X137.53 Y150.55 E1571.089
G1 X140.92 Y153.94 E1571.328
G1 X141.01 Y154.59 F9000
G1 X137.61 Y151.19 E1571.568 F3600
G1 X134.21 Y147.79 E1571.808
G1 X130.81 Y144.38 E1572.048
G1 X127.41 Y140.98 E1572.288
G1 X124.01 Y137.58 E1572.528
G1 X120.61 Y134.18 E1572.768
G1 X117.2 Y130.78 E1573.008
G1 X113.8 Y127.38 E1573.248
G1 X110.4 Y123.98 E1573.488
G1 X107 Y120.58 E1573.728
G1 X103.6 Y117.18 E1573.968
G1 X100.2 Y113.78 E1574.208
G1 X96.8 Y110.37 E1574.448
G1 X93.4 Y106.97 E1574.688
G1 X93.33 Y107.47 F9000
G1 X96.74 Y110.88 E1574.929 F3600
G1 X100.15 Y114.3 E1575.169
G1 X103.57 Y117.71 E1575.41
G1 X106.98 Y121.12 E1575.651
G1 X110.39 Y124.53 E1575.892
G1 X113.8 Y127.94 E1576.132
G1 X117.22 Y131.36 E1576.373
G1 X120.63 Y134.77 E1576.614
G1 X124.04 Y138.18 E1576.855
G1 X127.45 Y141.59 E1577.095
G1 X130.86 Y145.01 E1577.336
G1 X134.28 Y148.42 E1577.577
G1 X137.69 Y151.83 E1577.817
G1 X141.1 Y155.24 E1578.058
G1 X141.19 Y155.9 F9000
G1 X137.76 Y152.47 E1578.3 F3600
G1 X134.34 Y149.05 E1578.541
G1 X130.92 Y145.63 E1578.783
G1 X127.5 Y142.2 E1579.024
G1 X124.07 Y138.78 E1579.266
G1 X120.65 Y135.36 E1579.507
G1 X117.23 Y131.93 E1579.749
