; Generated with MatterSlice 2.22.04
; filamentDiameter = 1.75
; extrusionWidth = 1
; firstLayerExtrusionWidth = 0.5
; layerThickness = 0.3
; firstLayerThickness = 0.5
; automatic settings before start_gcode
G21 ; set units to millimeters
M107 ; fan off
M140 S50 ; start heating the bed
M104 T0 S210 ; start heating T0
M190 S50 ; wait for bed temperature to be reached
T0 ; set the active extruder to 0
; settings from start_gcode
G28 X0 Y0 Z0 ; home all axes
G1 Z5 F5000
M109 S210 ; set the extruder temp and wait
G28 X0 Y0 Z0 ; Home Z again in case there was filament on nozzle
G29 ; probe the bed
; automatic settings after start_gcode
T0 ; set the active extruder to 0
G90 ; use absolute coordinates
G92 E0 ; reset the expected extruder position
M82 ; use absolute distance for extrusion
; Layer count: 84
; Layer Change GCode
; LAYER:0
; LAYER_HEIGHT:0.5
; TYPE:FILL
M400
M107
G1 X50.88 Y57.31 Z1 F9000
G1 X110.85 Y57.96
G1 X115.35 Y58.18
; TYPE:SKIRT
G1 Z0.5
G1 F1800
G1 X116.7 Y58.23 E0.14 F1080
G1 X118.05 Y58.3 E0.28
G1 X119.39 Y58.41 E0.421
G1 X120.73 Y58.55 E0.561
G1 X122.08 Y58.72 E0.701
G1 X123.41 Y58.92 E0.842
G1 X124.74 Y59.14 E0.982
G1 X126.07 Y59.41 E1.123
G1 X127.38 Y59.69 E1.263
G1 X128.7 Y60.01 E1.403
G1 X130 Y60.36 E1.544
G1 X131.3 Y60.74 E1.684
G1 X132.58 Y61.15 E1.824
G1 X133.86 Y61.59 E1.964
G1 X135.13 Y62.06 E2.105
G1 X136.39 Y62.55 E2.246
G1 X137.63 Y63.08 E2.386
G1 X138.86 Y63.63 E2.526
G1 X140.08 Y64.21 E2.666
G1 X141.28 Y64.81 E2.806
G1 X142.48 Y65.45 E2.947
G1 X143.66 Y66.11 E3.087
G1 X144.82 Y66.8 E3.228
G1 X145.97 Y67.52 E3.368
G1 X147.09 Y68.26 E3.508
G1 X148.2 Y69.02 E3.648
G1 X149.3 Y69.81 E3.789
G1 X150.37 Y70.63 E3.929
G1 X151.43 Y71.46 E4.069
G1 X152.47 Y72.33 E4.21
G1 X153.49 Y73.22 E4.35
G1 X154.48 Y74.13 E4.491
G1 X155.46 Y75.06 E4.631
G1 X156.41 Y76.02 E4.771
G1 X157.35 Y76.99 E4.912
G1 X158.26 Y77.99 E5.052
G1 X159.14 Y79 E5.192
G1 X160.01 Y80.05 E5.333
G1 X160.85 Y81.1 E5.473
G1 X161.66 Y82.18 E5.613
G1 X162.46 Y83.27 E5.754
G1 X163.22 Y84.38 E5.894
G1 X163.96 Y85.51 E6.034
G1 X164.68 Y86.66 E6.175
G1 X165.36 Y87.82 E6.315
G1 X166.03 Y89 E6.455
G1 X166.66 Y90.19 E6.596
G1 X167.27 Y91.39 E6.736
G1 X167.85 Y92.61 E6.876
G1 X168.4 Y93.84 E7.016
G1 X168.92 Y95.09 E7.157
G1 X169.42 Y96.34 E7.297
G1 X169.89 Y97.61 E7.438
G1 X170.32 Y98.89 E7.578
G1 X170.73 Y100.18 E7.718
G1 X171.11 Y101.47 E7.859
G1 X171.46 Y102.78 E7.999
G1 X171.78 Y104.09 E8.14
G1 X172.07 Y105.41 E8.28
G1 X172.33 Y106.73 E8.42
G1 X172.56 Y108.06 E8.56
G1 X172.76 Y109.4 E8.701
G1 X172.93 Y110.74 E8.841
G1 X173.07 Y112.08 E8.982
G1 X173.17 Y113.43 E9.122
G1 X173.25 Y114.77 E9.262
G1 X173.3 Y116.12 E9.402
G1 X173.31 Y117.44 E9.539
G1 X173.3 Y127.86 E10.622
G1 X173.12 Y129.12 E10.755
G1 X172.7 Y130.44 E10.898
G1 X172.08 Y131.78 E11.052
G1 X171.03 Y133.21 E11.236
G1 X169.96 Y134.2 E11.388
G1 X77.4 Y198.62 E23.109
G1 X75.63 Y199.23 E23.303
G1 X74.43 Y199.38 E23.43
G1 X58.53 Y199.39 E25.082
G1 X57.22 Y199.26 E25.218
G1 X55.45 Y198.66 E25.413
G1 X53.73 Y197.54 E25.626
G1 X52.34 Y195.92 E25.848
G1 X51.49 Y194.16 E26.051
G1 X51.14 Y192.4 E26.238
G1 Y116.25 E34.152
G1 X58.59 Y96.33 E36.363
G1 X59.08 Y95.09 E36.502
G1 X59.6 Y93.84 E36.642
G1 X60.15 Y92.61 E36.782
G1 X60.73 Y91.39 E36.923
G1 X61.34 Y90.19 E37.063
G1 X61.97 Y89 E37.203
G1 X62.64 Y87.82 E37.344
G1 X63.32 Y86.66 E37.484
G1 X64.04 Y85.51 E37.625
G1 X64.78 Y84.38 E37.765
G1 X65.54 Y83.27 E37.905
G1 X66.34 Y82.18 E38.045
G1 X67.15 Y81.1 E38.186
G1 X67.99 Y80.05 E38.326
G1 X68.86 Y79 E38.467
G1 X69.74 Y77.99 E38.607
G1 X70.65 Y76.99 E38.747
G1 X71.59 Y76.02 E38.887
G1 X72.54 Y75.06 E39.028
G1 X73.52 Y74.13 E39.168
G1 X74.51 Y73.22 E39.308
G1 X75.53 Y72.33 E39.448
G1 X76.57 Y71.46 E39.589
G1 X77.63 Y70.63 E39.729
G1 X78.7 Y69.81 E39.869
G1 X79.8 Y69.02 E40.01
G1 X80.91 Y68.26 E40.15
G1 X82.03 Y67.52 E40.29
G1 X83.18 Y66.8 E40.431
G1 X84.34 Y66.11 E40.571
G1 X85.52 Y65.45 E40.712
G1 X86.72 Y64.81 E40.852
G1 X87.92 Y64.21 E40.992
G1 X89.14 Y63.63 E41.133
G1 X90.37 Y63.08 E41.273
G1 X91.61 Y62.55 E41.413
G1 X92.87 Y62.06 E41.554
G1 X94.14 Y61.59 E41.694
G1 X95.42 Y61.15 E41.835
G1 X96.7 Y60.74 E41.975
G1 X98 Y60.36 E42.115
G1 X99.3 Y60.01 E42.255
G1 X100.62 Y59.69 E42.396
G1 X101.93 Y59.41 E42.536
G1 X103.26 Y59.14 E42.676
G1 X104.59 Y58.92 E42.817
G1 X105.92 Y58.72 E42.957
G1 X107.27 Y58.55 E43.098
G1 X108.61 Y58.41 E43.238
G1 X109.95 Y58.3 E43.378
G1 X111.3 Y58.23 E43.518
G1 X112.65 Y58.18 E43.659
G1 X114 Y58.16 E43.799
G1 X115.35 Y58.18 E43.94
G1 X115.34 Y58.68 F9000
G1 X116.68 Y58.73 E44.079 F1080
G1 X118.01 Y58.8 E44.218
G1 X119.35 Y58.91 E44.357
G1 X120.68 Y59.04 E44.496
G1 X122.01 Y59.21 E44.635
G1 X123.33 Y59.41 E44.774
G1 X124.65 Y59.64 E44.914
G1 X125.97 Y59.89 E45.053
G1 X127.27 Y60.18 E45.191
G1 X128.57 Y60.5 E45.331
G1 X129.87 Y60.85 E45.47
G1 X131.15 Y61.22 E45.609
G1 X132.43 Y61.63 E45.748
G1 X133.69 Y62.06 E45.887
G1 X134.95 Y62.52 E46.027
G1 X136.2 Y63.01 E46.166
G1 X137.43 Y63.53 E46.305
G1 X138.65 Y64.08 E46.444
G1 X139.86 Y64.66 E46.583
G1 X141.05 Y65.26 E46.722
G1 X142.24 Y65.89 E46.862
G1 X143.41 Y66.54 E47.001
G1 X144.56 Y67.23 E47.14
G1 X145.7 Y67.94 E47.279
G1 X146.81 Y68.67 E47.418
G1 X147.91 Y69.43 E47.557
G1 X149 Y70.21 E47.697
G1 X150.07 Y71.02 E47.836
G1 X151.11 Y71.85 E47.974
G1 X152.15 Y72.71 E48.114
G1 X153.15 Y73.59 E48.253
G1 X154.14 Y74.49 E48.392
G1 X155.11 Y75.42 E48.532
G1 X156.06 Y76.36 E48.67
G1 X156.98 Y77.33 E48.81
G1 X157.88 Y78.32 E48.949
G1 X158.76 Y79.33 E49.088
G1 X159.62 Y80.36 E49.228
G1 X160.45 Y81.41 E49.366
G1 X161.26 Y82.47 E49.505
G1 X162.05 Y83.56 E49.645
G1 X162.8 Y84.66 E49.784
G1 X163.54 Y85.78 E49.923
G1 X164.25 Y86.92 E50.062
G1 X164.93 Y88.07 E50.201
G1 X165.59 Y89.24 E50.34
G1 X166.22 Y90.42 E50.48
G1 X166.82 Y91.61 E50.619
G1 X167.39 Y92.82 E50.758
G1 X167.94 Y94.04 E50.897
G1 X168.46 Y95.28 E51.036
G1 X168.95 Y96.52 E51.175
G1 X169.42 Y97.78 E51.315
G1 X169.85 Y99.05 E51.454
G1 X170.25 Y100.32 E51.593
G1 X170.63 Y101.61 E51.732
G1 X170.98 Y102.9 E51.871
G1 X171.29 Y104.2 E52.011
G1 X171.58 Y105.51 E52.149
G1 X171.84 Y106.82 E52.288
G1 X172.07 Y108.14 E52.428
G1 X172.26 Y109.47 E52.567
G1 X172.43 Y110.8 E52.706
G1 X172.57 Y112.13 E52.845
G1 X172.67 Y113.46 E52.984
G1 X172.75 Y114.8 E53.123
G1 X172.8 Y116.13 E53.262
G1 X172.81 Y117.44 E53.398
G1 X172.8 Y127.82 E54.477
G1 X172.63 Y129.01 E54.602
G1 X172.24 Y130.26 E54.738
G1 X171.65 Y131.53 E54.883
G1 X170.66 Y132.87 E55.057
G1 X169.64 Y133.81 E55.201
G1 X77.17 Y198.17 E66.911
G1 X75.52 Y198.74 E67.092
G1 X74.39 Y198.88 E67.21
G1 X58.55 Y198.89 E68.857
G1 X57.33 Y198.77 E68.984
G1 X55.67 Y198.2 E69.166
G1 X54.07 Y197.16 E69.366
G1 X52.76 Y195.64 E69.573
G1 X51.97 Y194 E69.763
G1 X51.64 Y192.35 E69.938
G1 Y116.35 E77.838
G1 X59.05 Y96.51 E80.039
G1 X59.54 Y95.28 E80.177
G1 X60.06 Y94.04 E80.316
G1 X60.61 Y92.82 E80.455
G1 X61.18 Y91.61 E80.594
G1 X61.78 Y90.42 E80.733
G1 X62.41 Y89.24 E80.872
G1 X63.07 Y88.07 E81.011
G1 X63.75 Y86.92 E81.151
G1 X64.46 Y85.78 E81.29
G1 X65.2 Y84.66 E81.429
G1 X65.95 Y83.56 E81.568
G1 X66.74 Y82.47 E81.707
G1 X67.55 Y81.41 E81.846
G1 X68.38 Y80.36 E81.985
G1 X69.24 Y79.33 E82.125
G1 X70.12 Y78.32 E82.264
G1 X71.02 Y77.33 E82.403
G1 X71.94 Y76.36 E82.542
G1 X72.89 Y75.42 E82.681
G1 X73.86 Y74.49 E82.82
G1 X74.85 Y73.59 E82.959
G1 X75.85 Y72.71 E83.098
G1 X76.89 Y71.85 E83.238
G1 X77.93 Y71.02 E83.377
G1 X79 Y70.21 E83.516
G1 X80.09 Y69.43 E83.656
G1 X81.19 Y68.67 E83.794
G1 X82.3 Y67.94 E83.933
G1 X83.44 Y67.23 E84.073
G1 X84.59 Y66.54 E84.212
G1 X85.76 Y65.89 E84.351
G1 X86.95 Y65.26 E84.49
G1 X88.14 Y64.66 E84.629
G1 X89.35 Y64.08 E84.768
G1 X90.57 Y63.53 E84.907
G1 X91.8 Y63.01 E85.047
G1 X93.05 Y62.52 E85.186
G1 X94.31 Y62.06 E85.325
G1 X95.57 Y61.63 E85.464
G1 X96.85 Y61.22 E85.603
G1 X98.13 Y60.85 E85.743
G1 X99.43 Y60.5 E85.882
G1 X100.73 Y60.18 E86.021
G1 X102.03 Y59.89 E86.16
G1 X103.35 Y59.64 E86.299
G1 X104.67 Y59.41 E86.438
G1 X105.99 Y59.21 E86.578
G1 X107.32 Y59.04 E86.717
G1 X108.65 Y58.91 E86.856
G1 X109.99 Y58.8 E86.995
G1 X111.32 Y58.73 E87.134
G1 X112.66 Y58.68 E87.273
G1 X114 Y58.66 E87.412
G1 X115.34 Y58.68 E87.552
G1 E84.552 F1800
G1 Z1
G1 X115.2 Y66.05 F9000
G1 X112.71 Y66.63
G1 X96.39 Y77.48
G1 X90.24 Y80.74
G1 X81.99 Y87.65
G1 X75.28 Y96.71
G1 X71.43 Y107.26
G1 X70.03 Y116.89
G1 X71.06 Y117.73
; TYPE:WALL-OUTER
G1 Z0.5
G1 E87.552 F1800
G1 X74.61 E87.921 F1080
G1 Y191.65 E95.605
G1 X74.58 Y191.87 E95.628
G1 X74.5 Y192.06 E95.65
G1 X74.39 Y192.19 E95.667
G1 X74.2 Y192.32 E95.691
G1 X74.03 Y192.38 E95.709
G1 X73.97 E95.716
G1 X58.86 Y192.39 E97.286
G1 X58.71 Y192.38 E97.302
G1 X58.55 Y192.32 E97.32
G1 X58.39 Y192.22 E97.34
G1 X58.25 Y192.05 E97.362
G1 X58.18 Y191.91 E97.378
G1 X58.14 Y191.71 E97.4
G1 Y117.73 E105.09
G1 X61.69 E105.459
G1 X61.7 Y116.29 E105.608
G1 X61.74 Y115.1 E105.732
G1 X61.81 Y113.9 E105.856
G1 X61.91 Y112.72 E105.979
G1 X62.03 Y111.54 E106.103
G1 X62.18 Y110.36 E106.227
G1 X62.35 Y109.18 E106.351
G1 X62.55 Y108 E106.474
G1 X62.78 Y106.83 E106.598
G1 X63.04 Y105.67 E106.722
G1 X63.32 Y104.51 E106.846
G1 X63.63 Y103.36 E106.97
G1 X63.96 Y102.22 E107.093
G1 X64.32 Y101.09 E107.217
G1 X64.71 Y99.96 E107.341
G1 X65.12 Y98.84 E107.465
G1 X65.56 Y97.73 E107.589
G1 X66.02 Y96.64 E107.712
G1 X66.51 Y95.55 E107.836
G1 X67.02 Y94.47 E107.96
G1 X67.55 Y93.41 E108.084
G1 X68.11 Y92.36 E108.207
G1 X68.7 Y91.32 E108.332
G1 X69.3 Y90.3 E108.455
G1 X69.93 Y89.29 E108.579
G1 X70.59 Y88.29 E108.702
G1 X71.26 Y87.31 E108.826
G1 X71.96 Y86.35 E108.95
G1 X72.68 Y85.4 E109.074
G1 X73.42 Y84.46 E109.197
G1 X74.19 Y83.54 E109.322
G1 X74.97 Y82.65 E109.445
G1 X75.77 Y81.77 E109.569
G1 X76.59 Y80.91 E109.693
G1 X77.43 Y80.07 E109.816
G1 X78.3 Y79.24 E109.941
G1 X79.18 Y78.44 E110.064
G1 X80.07 Y77.66 E110.188
G1 X80.98 Y76.9 E110.311
G1 X81.92 Y76.16 E110.435
G1 X82.87 Y75.44 E110.559
G1 X83.83 Y74.74 E110.683
G1 X84.82 Y74.06 E110.807
G1 X85.81 Y73.41 E110.93
G1 X86.82 Y72.78 E111.054
G1 X87.84 Y72.17 E111.178
G1 X88.89 Y71.59 E111.302
G1 X89.94 Y71.03 E111.426
G1 X90.99 Y70.5 E111.549
G1 X92.07 Y69.98 E111.673
G1 X93.16 Y69.49 E111.797
G1 X94.25 Y69.03 E111.921
G1 X95.37 Y68.6 E112.045
G1 X96.48 Y68.19 E112.168
G1 X97.61 Y67.8 E112.292
G1 X98.74 Y67.44 E112.416
G1 X99.89 Y67.1 E112.54
G1 X101.03 Y66.8 E112.663
G1 X102.2 Y66.51 E112.787
G1 X103.36 Y66.26 E112.911
G1 X104.53 Y66.03 E113.035
G1 X105.7 Y65.83 E113.158
G1 X106.87 Y65.65 E113.282
G1 X108.06 Y65.5 E113.406
G1 X109.25 Y65.38 E113.53
G1 X110.43 Y65.29 E113.653
G1 X111.62 Y65.22 E113.778
G1 X112.81 Y65.18 E113.901
G1 X114 Y65.16 E114.025
G1 X115.19 Y65.18 E114.148
G1 X116.38 Y65.22 E114.272
G1 X117.57 Y65.29 E114.397
G1 X118.75 Y65.38 E114.52
G1 X119.94 Y65.5 E114.644
G1 X121.13 Y65.65 E114.768
G1 X122.3 Y65.83 E114.892
G1 X123.47 Y66.03 E115.015
G1 X124.64 Y66.26 E115.139
G1 X125.8 Y66.51 E115.262
G1 X126.97 Y66.8 E115.387
G1 X128.11 Y67.1 E115.51
G1 X129.26 Y67.44 E115.634
G1 X130.39 Y67.8 E115.757
G1 X131.52 Y68.19 E115.882
G1 X132.63 Y68.6 E116.005
G1 X133.75 Y69.03 E116.129
G1 X134.84 Y69.49 E116.253
G1 X135.93 Y69.98 E116.376
G1 X137.01 Y70.5 E116.501
G1 X138.06 Y71.03 E116.624
G1 X139.11 Y71.59 E116.748
G1 X140.16 Y72.17 E116.872
G1 X141.18 Y72.78 E116.995
G1 X142.19 Y73.41 E117.119
G1 X143.18 Y74.06 E117.243
G1 X144.16 Y74.74 E117.367
G1 X145.13 Y75.44 E117.491
G1 X146.08 Y76.16 E117.614
G1 X147.01 Y76.89 E117.738
G1 X147.93 Y77.66 E117.862
G1 X148.82 Y78.44 E117.985
G1 X149.7 Y79.24 E118.109
G1 X150.56 Y80.07 E118.233
G1 X151.41 Y80.91 E118.357
G1 X152.23 Y81.77 E118.481
G1 X153.03 Y82.65 E118.605
G1 X153.81 Y83.54 E118.728
G1 X154.58 Y84.46 E118.852
G1 X155.32 Y85.39 E118.976
G1 X156.04 Y86.34 E119.099
G1 X156.73 Y87.31 E119.223
G1 X157.41 Y88.29 E119.347
G1 X158.06 Y89.28 E119.471
G1 X158.69 Y90.29 E119.594
G1 X159.3 Y91.32 E119.718
G1 X159.88 Y92.35 E119.842
G1 X160.45 Y93.41 E119.966
G1 X160.98 Y94.47 E120.089
G1 X161.49 Y95.54 E120.213
G1 X161.98 Y96.63 E120.337
G1 X162.44 Y97.73 E120.461
G1 X162.88 Y98.84 E120.585
G1 X163.29 Y99.95 E120.708
G1 X163.68 Y101.09 E120.833
G1 X164.04 Y102.22 E120.956
G1 X164.37 Y103.36 E121.08
G1 X164.68 Y104.51 E121.203
G1 X164.96 Y105.67 E121.327
G1 X165.22 Y106.83 E121.451
G1 X165.45 Y108 E121.575
G1 X165.65 Y109.17 E121.699
G1 X165.82 Y110.35 E121.822
G1 X165.97 Y111.53 E121.946
G1 X166.09 Y112.72 E122.07
G1 X166.19 Y113.9 E122.194
G1 X166.26 Y115.09 E122.317
G1 X166.3 Y116.28 E122.441
G1 X166.31 Y117.48 E122.565
G1 X166.3 Y127.36 E123.592
G1 X166.27 Y127.56 E123.614
G1 X166.17 Y127.9 E123.65
G1 X166.02 Y128.2 E123.685
G1 X165.79 Y128.52 E123.727
G1 X165.56 Y128.73 E123.759
G1 X165.34 Y128.87 E123.786
G1 X165.19 Y128.94 E123.803
G1 X164.92 Y129.01 E123.832
G1 X158.32 E124.518
G1 X158.13 Y128.96 E124.539
G1 X157.97 Y128.9 E124.556
G1 X157.71 Y128.75 E124.588
G1 X157.46 Y128.52 E124.623
G1 X157.22 Y128.2 E124.665
G1 X157.12 Y127.99 E124.689
G1 X157.06 Y127.85 E124.705
G1 X156.98 Y127.56 E124.736
G1 X156.95 Y127.36 E124.757
G1 X156.94 Y118.58 E125.67
G1 X156.93 Y116.44 E125.892
G1 X156.89 Y115.4 E126
G1 X156.83 Y114.36 E126.108
G1 X156.74 Y113.33 E126.216
G1 X156.63 Y112.3 E126.324
G1 X156.49 Y111.27 E126.431
G1 X156.33 Y110.25 E126.539
G1 X156.14 Y109.23 E126.647
G1 X155.93 Y108.21 E126.755
G1 X155.69 Y107.2 E126.863
G1 X155.43 Y106.19 E126.971
G1 X155.15 Y105.2 E127.078
G1 X154.84 Y104.21 E127.186
G1 X154.51 Y103.22 E127.294
G1 X154.15 Y102.25 E127.402
G1 X153.77 Y101.28 E127.51
G1 X153.37 Y100.33 E127.618
G1 X152.94 Y99.38 E127.726
G1 X152.49 Y98.44 E127.833
G1 X152.02 Y97.52 E127.941
G1 X151.53 Y96.61 E128.049
G1 X151.01 Y95.71 E128.157
G1 X150.54 Y94.92 E128.253
G1 X149.98 Y94.04 E128.361
G1 X149.34 Y93.08 E128.481
G1 X148.74 Y92.24 E128.588
G1 X148.12 Y91.4 E128.696
G1 X147.48 Y90.59 E128.804
G1 X146.82 Y89.79 E128.912
G1 X146.14 Y89 E129.02
G1 X145.44 Y88.23 E129.128
G1 X144.73 Y87.48 E129.236
G1 X143.99 Y86.75 E129.343
G1 X143.24 Y86.03 E129.451
G1 X142.47 Y85.33 E129.559
G1 X141.69 Y84.66 E129.667
G1 X140.89 Y84 E129.775
G1 X140.07 Y83.36 E129.883
G1 X139.24 Y82.74 E129.99
G1 X138.39 Y82.14 E130.098
G1 X137.53 Y81.56 E130.206
G1 X136.66 Y81 E130.314
G1 X135.77 Y80.46 E130.422
G1 X134.87 Y79.95 E130.53
G1 X133.95 Y79.45 E130.638
G1 X133.03 Y78.98 E130.745
G1 X132.09 Y78.53 E130.853
G1 X131.15 Y78.11 E130.961
G1 X130.19 Y77.71 E131.069
G1 X129.23 Y77.33 E131.177
G1 X128.25 Y76.97 E131.285
G1 X127.27 Y76.64 E131.393
G1 X126.28 Y76.33 E131.501
G1 X125.28 Y76.04 E131.608
G1 X124.28 Y75.78 E131.716
G1 X123.27 Y75.55 E131.824
G1 X122.25 Y75.34 E131.932
G1 X121.23 Y75.15 E132.04
G1 X120.2 Y74.99 E132.148
G1 X119.18 Y74.85 E132.255
G1 X118.14 Y74.74 E132.363
G1 X117.11 Y74.65 E132.471
G1 X116.07 Y74.59 E132.579
G1 X115.04 Y74.55 E132.687
G1 X114 Y74.54 E132.795
G1 X112.96 Y74.55 E132.902
G1 X111.93 Y74.59 E133.01
G1 X110.89 Y74.65 E133.118
G1 X109.86 Y74.74 E133.226
G1 X108.82 Y74.85 E133.334
G1 X107.8 Y74.99 E133.442
G1 X106.77 Y75.15 E133.55
G1 X105.75 Y75.34 E133.657
G1 X104.73 Y75.55 E133.765
G1 X103.72 Y75.78 E133.873
G1 X102.72 Y76.04 E133.981
G1 X101.72 Y76.33 E134.089
G1 X100.73 Y76.64 E134.197
G1 X99.75 Y76.97 E134.305
G1 X98.77 Y77.33 E134.412
G1 X97.81 Y77.71 E134.52
G1 X96.85 Y78.11 E134.628
G1 X95.91 Y78.53 E134.736
G1 X94.97 Y78.98 E134.844
G1 X94.05 Y79.45 E134.952
G1 X93.13 Y79.95 E135.06
G1 X92.23 Y80.46 E135.167
G1 X91.34 Y81 E135.275
G1 X90.47 Y81.56 E135.383
G1 X89.61 Y82.14 E135.491
G1 X88.76 Y82.74 E135.599
G1 X87.93 Y83.36 E135.707
G1 X87.11 Y84 E135.815
G1 X86.31 Y84.66 E135.922
G1 X85.53 Y85.33 E136.03
G1 X84.76 Y86.03 E136.138
G1 X84.01 Y86.75 E136.246
G1 X83.27 Y87.48 E136.354
G1 X82.56 Y88.23 E136.462
G1 X81.86 Y89 E136.569
G1 X81.18 Y89.79 E136.677
G1 X80.52 Y90.59 E136.785
G1 X79.88 Y91.4 E136.893
G1 X79.26 Y92.24 E137.001
G1 X78.66 Y93.08 E137.109
G1 X78.08 Y93.94 E137.217
G1 X77.53 Y94.82 E137.324
G1 X76.99 Y95.71 E137.432
G1 X76.47 Y96.61 E137.54
G1 X75.98 Y97.52 E137.648
G1 X75.51 Y98.44 E137.756
G1 X75.06 Y99.38 E137.864
G1 X74.63 Y100.33 E137.972
G1 X74.23 Y101.28 E138.079
G1 X73.85 Y102.25 E138.187
G1 X73.49 Y103.22 E138.295
G1 X73.16 Y104.21 E138.403
G1 X72.85 Y105.2 E138.511
G1 X72.57 Y106.19 E138.619
G1 X72.31 Y107.2 E138.726
G1 X72.07 Y108.21 E138.834
G1 X71.86 Y109.23 E138.942
G1 X71.67 Y110.25 E139.05
G1 X71.51 Y111.27 E139.158
G1 X71.37 Y112.3 E139.266
G1 X71.26 Y113.33 E139.374
G1 X71.17 Y114.36 E139.481
G1 X71.11 Y115.4 E139.589
G1 X71.07 Y116.44 E139.697
G1 X71.06 Y117.68 E139.826
G1 Y117.73
G1 X74.06
G1 X70.55 Y118.23 F9000
; TYPE:WALL-INNER
G1 X74.11 E140.196 F1080
G1 Y191.61 E147.824
G1 X74.1 Y191.73 E147.836
G1 X74.07 Y191.79 E147.843
G1 X74.05 Y191.81 E147.846
G1 X73.97 Y191.87 E147.856
G1 X73.92 Y191.88 E147.861
G1 X58.89 Y191.89 E149.424
G1 X58.82 Y191.88 E149.431
G1 X58.76 Y191.86 E149.438
G1 X58.72 Y191.84 E149.443
G1 X58.67 Y191.78 E149.451
G1 X58.66 Y191.75 E149.454
G1 X58.64 Y191.66 E149.464
G1 Y118.23 E157.096
G1 X62.18 E157.465
G1 X62.2 Y116.3 E157.664
G1 X62.24 Y115.13 E157.787
G1 X62.31 Y113.95 E157.909
G1 X62.41 Y112.76 E158.034
G1 X62.52 Y111.6 E158.155
G1 X62.67 Y110.43 E158.277
G1 X62.85 Y109.25 E158.402
G1 X63.04 Y108.1 E158.522
G1 X63.27 Y106.94 E158.645
G1 X63.52 Y105.79 E158.768
G1 X63.81 Y104.63 E158.892
G1 X64.11 Y103.51 E159.013
G1 X64.44 Y102.37 E159.135
G1 X64.8 Y101.25 E159.258
G1 X65.18 Y100.12 E159.382
G1 X65.59 Y99.03 E159.503
G1 X66.02 Y97.91 E159.628
G1 X66.48 Y96.84 E159.748
G1 X66.97 Y95.75 E159.873
G1 X67.46 Y94.7 E159.994
G1 X67.99 Y93.65 E160.116
G1 X68.55 Y92.61 E160.239
G1 X69.14 Y91.56 E160.363
G1 X69.73 Y90.56 E160.484
G1 X70.35 Y89.56 E160.607
G1 X71 Y88.58 E160.729
G1 X71.67 Y87.6 E160.852
G1 X72.36 Y86.65 E160.974
G1 X73.07 Y85.71 E161.097
G1 X73.82 Y84.77 E161.221
G1 X74.56 Y83.88 E161.342
G1 X75.35 Y82.98 E161.466
G1 X76.13 Y82.12 E161.587
G1 X76.96 Y81.25 E161.712
G1 X77.78 Y80.43 E161.832
G1 X78.63 Y79.62 E161.955
G1 X79.5 Y78.82 E162.078
G1 X80.39 Y78.04 E162.2
G1 X81.3 Y77.29 E162.323
G1 X82.23 Y76.55 E162.447
G1 X83.17 Y75.83 E162.57
G1 X84.11 Y75.15 E162.691
G1 X85.09 Y74.48 E162.813
G1 X86.09 Y73.83 E162.938
G1 X87.09 Y73.2 E163.06
G1 X88.09 Y72.61 E163.181
G1 X89.13 Y72.02 E163.305
G1 X90.16 Y71.48 E163.426
G1 X91.22 Y70.94 E163.55
G1 X92.27 Y70.44 E163.671
G1 X93.37 Y69.95 E163.796
G1 X94.44 Y69.5 E163.916
G1 X95.55 Y69.06 E164.041
G1 X96.64 Y68.66 E164.162
G1 X97.77 Y68.27 E164.286
G1 X98.88 Y67.92 E164.407
G1 X100.03 Y67.58 E164.531
G1 X101.15 Y67.28 E164.652
G1 X102.3 Y67 E164.775
G1 X103.47 Y66.75 E164.899
G1 X104.63 Y66.52 E165.022
G1 X105.77 Y66.32 E165.142
G1 X106.95 Y66.15 E165.267
G1 X108.11 Y66 E165.388
G1 X109.28 Y65.88 E165.51
G1 X110.47 Y65.79 E165.634
G1 X111.63 Y65.72 E165.755
G1 X112.83 Y65.68 E165.88
G1 X114 Y65.66 E166.001
G1 X115.17 Y65.68 E166.123
G1 X116.37 Y65.72 E166.247
G1 X117.53 Y65.79 E166.368
G1 X118.72 Y65.88 E166.493
G1 X119.89 Y66 E166.615
G1 X121.05 Y66.15 E166.736
G1 X122.23 Y66.32 E166.86
G1 X123.37 Y66.52 E166.981
G1 X124.53 Y66.75 E167.104
G1 X125.7 Y67 E167.228
G1 X126.85 Y67.28 E167.351
G1 X127.97 Y67.58 E167.471
G1 X129.12 Y67.92 E167.596
G1 X130.23 Y68.27 E167.717
G1 X131.36 Y68.66 E167.841
G1 X132.45 Y69.06 E167.962
G1 X133.56 Y69.5 E168.086
G1 X134.63 Y69.95 E168.207
G1 X135.73 Y70.44 E168.331
G1 X136.78 Y70.94 E168.452
G1 X137.84 Y71.48 E168.577
G1 X138.87 Y72.02 E168.697
G1 X139.91 Y72.61 E168.822
G1 X140.91 Y73.2 E168.943
G1 X141.91 Y73.83 E169.065
G1 X142.91 Y74.48 E169.189
G1 X143.89 Y75.15 E169.312
G1 X144.83 Y75.83 E169.433
G1 X145.77 Y76.55 E169.556
G1 X146.7 Y77.29 E169.68
G1 X147.6 Y78.03 E169.801
G1 X148.5 Y78.82 E169.925
G1 X149.36 Y79.6 E170.046
G1 X150.22 Y80.43 E170.17
G1 X151.04 Y81.25 E170.291
G1 X151.86 Y82.1 E170.414
G1 X152.65 Y82.98 E170.536
G1 X153.43 Y83.86 E170.659
G1 X154.18 Y84.77 E170.781
G1 X154.93 Y85.71 E170.906
G1 X155.63 Y86.63 E171.027
G1 X156.32 Y87.59 E171.149
G1 X156.99 Y88.56 E171.272
G1 X157.65 Y89.56 E171.396
G1 X158.26 Y90.55 E171.517
G1 X158.87 Y91.56 E171.64
G1 X159.45 Y92.61 E171.764
G1 X160 Y93.63 E171.885
G1 X160.54 Y94.7 E172.009
G1 X161.04 Y95.75 E172.13
G1 X161.52 Y96.84 E172.254
G1 X161.98 Y97.91 E172.375
G1 X162.41 Y99.01 E172.498
G1 X162.82 Y100.12 E172.62
G1 X163.2 Y101.23 E172.743
G1 X163.56 Y102.36 E172.865
G1 X163.89 Y103.51 E172.99
G1 X164.19 Y104.63 E173.111
G1 X164.47 Y105.77 E173.233
G1 X164.73 Y106.94 E173.358
G1 X164.96 Y108.1 E173.48
G1 X165.15 Y109.25 E173.601
G1 X165.33 Y110.43 E173.725
G1 X165.47 Y111.58 E173.846
G1 X165.59 Y112.76 E173.969
G1 X165.69 Y113.93 E174.091
G1 X165.76 Y115.11 E174.214
G1 X165.8 Y116.3 E174.338
G1 X165.81 Y117.47 E174.46
G1 X165.8 Y127.32 E175.483
G1 X165.78 Y127.45 E175.496
G1 X165.7 Y127.72 E175.526
G1 X165.59 Y127.94 E175.552
G1 X165.41 Y128.19 E175.584
G1 X165.25 Y128.34 E175.606
G1 X165.11 Y128.43 E175.624
G1 X165.02 Y128.47 E175.634
G1 X164.85 Y128.51 E175.652
G1 X158.38 E176.324
G1 X158.28 Y128.49 E176.335
G1 X158.19 Y128.45 E176.345
G1 X158.01 Y128.35 E176.367
G1 X157.84 Y128.19 E176.392
G1 X157.65 Y127.93 E176.425
G1 X157.57 Y127.79 E176.442
G1 X157.54 Y127.7 E176.451
G1 X157.47 Y127.45 E176.478
G1 X157.45 Y127.32 E176.492
G1 X157.44 Y118.58 E177.401
G1 X157.43 Y116.43 E177.624
G1 X157.39 Y115.38 E177.734
G1 X157.33 Y114.33 E177.843
G1 X157.24 Y113.28 E177.952
G1 X157.12 Y112.24 E178.061
G1 X156.98 Y111.2 E178.17
G1 X156.82 Y110.16 E178.279
G1 X156.63 Y109.13 E178.388
G1 X156.42 Y108.1 E178.497
G1 X156.18 Y107.08 E178.607
G1 X155.91 Y106.06 E178.716
G1 X155.63 Y105.05 E178.825
G1 X155.31 Y104.05 E178.934
G1 X154.98 Y103.06 E179.043
G1 X154.62 Y102.07 E179.152
G1 X154.23 Y101.09 E179.261
G1 X153.83 Y100.13 E179.37
G1 X153.39 Y99.17 E179.479
G1 X152.94 Y98.22 E179.588
G1 X152.46 Y97.29 E179.698
G1 X151.96 Y96.36 E179.807
G1 X151.44 Y95.45 E179.916
G1 X150.96 Y94.65 E180.013
G1 X150.4 Y93.77 E180.122
G1 X149.75 Y92.8 E180.243
G1 X149.14 Y91.94 E180.352
G1 X148.52 Y91.1 E180.461
G1 X147.87 Y90.27 E180.57
G1 X147.2 Y89.46 E180.679
G1 X146.51 Y88.67 E180.789
G1 X145.81 Y87.89 E180.898
G1 X145.09 Y87.13 E181.007
G1 X144.34 Y86.39 E181.116
G1 X143.58 Y85.67 E181.225
G1 X142.81 Y84.96 E181.334
G1 X142.01 Y84.27 E181.443
G1 X141.2 Y83.61 E181.552
G1 X140.38 Y82.96 E181.661
G1 X139.53 Y82.33 E181.77
G1 X138.68 Y81.73 E181.88
G1 X137.81 Y81.14 E181.989
G1 X136.92 Y80.57 E182.098
G1 X136.02 Y80.03 E182.207
G1 X135.11 Y79.51 E182.316
G1 X134.19 Y79.01 E182.425
G1 X133.25 Y78.53 E182.534
G1 X132.31 Y78.08 E182.643
G1 X131.35 Y77.65 E182.753
G1 X130.38 Y77.24 E182.862
G1 X129.4 Y76.86 E182.971
G1 X128.42 Y76.5 E183.08
G1 X127.42 Y76.16 E183.189
G1 X126.42 Y75.85 E183.298
G1 X125.41 Y75.56 E183.407
G1 X124.4 Y75.3 E183.516
G1 X123.37 Y75.06 E183.625
G1 X122.35 Y74.84 E183.734
G1 X121.31 Y74.66 E183.844
G1 X120.28 Y74.49 E183.953
G1 X119.24 Y74.35 E184.062
G1 X118.19 Y74.24 E184.171
G1 X117.15 Y74.15 E184.28
G1 X116.1 Y74.09 E184.389
G1 X115.05 Y74.05 E184.498
G1 X114 Y74.04 E184.607
G1 X112.95 Y74.05 E184.716
G1 X111.9 Y74.09 E184.826
G1 X110.85 Y74.15 E184.935
G1 X109.81 Y74.24 E185.044
G1 X108.76 Y74.35 E185.153
G1 X107.72 Y74.49 E185.262
G1 X106.69 Y74.66 E185.371
G1 X105.65 Y74.84 E185.48
G1 X104.63 Y75.06 E185.589
G1 X103.6 Y75.3 E185.698
G1 X102.59 Y75.56 E185.808
G1 X101.58 Y75.85 E185.916
G1 X100.58 Y76.16 E186.026
G1 X99.58 Y76.5 E186.135
G1 X98.6 Y76.86 E186.244
G1 X97.62 Y77.24 E186.353
G1 X96.65 Y77.65 E186.462
G1 X95.69 Y78.08 E186.571
G1 X94.75 Y78.53 E186.68
G1 X93.81 Y79.01 E186.789
G1 X92.89 Y79.51 E186.899
G1 X91.98 Y80.03 E187.008
G1 X91.08 Y80.57 E187.117
G1 X90.19 Y81.14 E187.226
G1 X89.32 Y81.73 E187.335
G1 X88.47 Y82.33 E187.444
G1 X87.62 Y82.96 E187.553
G1 X86.8 Y83.61 E187.662
G1 X85.99 Y84.27 E187.771
G1 X85.19 Y84.96 E187.881
G1 X84.42 Y85.67 E187.99
G1 X83.66 Y86.39 E188.099
G1 X82.91 Y87.13 E188.208
G1 X82.19 Y87.89 E188.317
G1 X81.49 Y88.67 E188.426
G1 X80.8 Y89.46 E188.535
G1 X80.13 Y90.27 E188.644
G1 X79.48 Y91.1 E188.753
G1 X78.86 Y91.94 E188.862
G1 X78.25 Y92.8 E188.972
G1 X77.66 Y93.67 E189.081
G1 X77.1 Y94.55 E189.19
G1 X76.56 Y95.45 E189.299
G1 X76.04 Y96.36 E189.408
G1 X75.54 Y97.29 E189.517
G1 X75.06 Y98.22 E189.626
G1 X74.61 Y99.17 E189.735
G1 X74.17 Y100.13 E189.845
G1 X73.77 Y101.09 E189.954
G1 X73.38 Y102.07 E190.063
G1 X73.02 Y103.06 E190.172
G1 X72.69 Y104.05 E190.281
G1 X72.37 Y105.05 E190.39
G1 X72.09 Y106.06 E190.499
G1 X71.82 Y107.08 E190.608
G1 X71.58 Y108.1 E190.717
G1 X71.37 Y109.13 E190.826
G1 X71.18 Y110.16 E190.935
G1 X71.02 Y111.2 E191.045
G1 X70.88 Y112.24 E191.154
G1 X70.76 Y113.28 E191.263
G1 X70.67 Y114.33 E191.372
G1 X70.61 Y115.38 E191.481
G1 X70.57 Y116.43 E191.59
G1 X70.55 Y118.18 E191.772
G1 Y118.23
G1 E188.772 F1800
G1 Z1
G1 X59.53 Y118.66 F9000
; TYPE:BOTTOM-FILL
G1 Z0.5
G1 E191.772 F1800
G1 X59.08 Y119.12 E191.838 F1080
G1 Y119.82 F9000
G1 X60.23 Y118.66 E192.009 F1080
G1 X60.94 F9000
G1 X59.08 Y120.53 E192.283 F1080
G1 Y121.24 F9000
G1 X61.65 Y118.66 E192.661 F1080
G1 X62.35 F9000
G1 X59.08 Y121.94 E193.143 F1080
G1 E190.143 F1800
G1 Z1
G1 X61.05 Y118.59 F9000
G1 X62 Y118.04
G1 X63.69 Y111.85
G1 X74.67 Y84.43
G1 Z0.5
G1 E193.143 F1800
G1 X80.95 Y78.14 E194.067 F1080
G1 X84.11 Y75.7 F9000
G1 X72.23 Y87.58 E195.813 F1080
G1 X70.73 Y89.78 F9000
G1 X86.3 Y74.21 E198.101 F1080
G1 X88.12 Y73.1 F9000
G1 X69.63 Y91.59 E200.82 F1080
G1 X68.73 Y93.2 F9000
G1 X89.72 Y72.2 E203.905 F1080
G1 X91.18 Y71.45 F9000
G1 X67.98 Y94.66 E207.316 F1080
G1 X67.33 Y96.01 F9000
G1 X92.54 Y70.8 E211.022 F1080
G1 X93.81 Y70.24 F9000
G1 X66.77 Y97.28 E214.997 F1080
G1 X66.27 Y98.49 F9000
G1 X95.01 Y69.74 E219.221 F1080
G1 X96.16 Y69.3 F9000
G1 X65.83 Y99.63 E223.68 F1080
G1 X65.44 Y100.73 F9000
G1 X97.26 Y68.91 E228.357 F1080
G1 X98.32 Y68.56 F9000
G1 X65.09 Y101.79 E233.242 F1080
G1 X64.77 Y102.82 F9000
G1 X99.34 Y68.24 E238.324 F1080
G1 X100.33 Y67.96 F9000
G1 X64.48 Y103.81 E243.594 F1080
G1 X64.22 Y104.77 F9000
G1 X101.3 Y67.7 E249.044 F1080
G1 E246.044 F1800
G1 Z1
G1 X80.15 Y89.55 F9000
G1 Z0.5
G1 E249.044 F1800
G1 X64 Y105.71 E251.419 F1080
G1 X63.79 Y106.62 F9000
G1 X77.94 Y92.47 E253.499 F1080
G1 X76.61 Y94.51 F9000
G1 X63.61 Y107.51 E255.411 F1080
G1 X63.44 Y108.39 F9000
G1 X75.62 Y96.21 E257.2 F1080
G1 E254.2 F1800
G1 Z1
G1 X80.72 Y89.25 F9000
G1 X86.08 Y83.63
G1 Z0.5
G1 E257.2 F1800
G1 X102.23 Y67.47 E259.575 F1080
G1 X103.15 Y67.27 F9000
G1 X89 Y81.42 E261.655 F1080
G1 X91.03 Y80.09 F9000
G1 X104.04 Y67.08 E263.566 F1080
G1 X104.91 Y66.92 F9000
G1 X92.73 Y79.09 E265.356 F1080
G1 X94.23 Y78.3 F9000
G1 X105.76 Y66.77 E267.051 F1080
G1 X106.6 Y66.64 F9000
G1 X95.6 Y77.64 E268.668 F1080
G1 X96.87 Y77.08 F9000
G1 X107.42 Y66.53 E270.219 F1080
G1 X108.23 Y66.43 F9000
G1 X98.06 Y76.6 E271.713 F1080
G1 X99.19 Y76.17 F9000
G1 X109.01 Y66.35 E273.157 F1080
G1 X109.79 Y66.28 F9000
G1 X100.27 Y75.8 E274.557 F1080
G1 X101.3 Y75.47 F9000
G1 X110.56 Y66.22 E275.917 F1080
G1 X111.31 Y66.18 F9000
G1 X102.3 Y75.19 E277.241 F1080
G1 X103.26 Y74.93 F9000
G1 X112.05 Y66.15 E278.532 F1080
G1 X112.78 Y66.12 F9000
G1 X104.19 Y74.71 E279.794 F1080
G1 X105.09 Y74.51 F9000
G1 X113.49 Y66.11 E281.029 F1080
G1 X114.21 F9000
G1 X105.97 Y74.34 E282.239 F1080
G1 X106.83 Y74.19 F9000
G1 X114.9 Y66.12 E283.426 F1080
G1 X115.59 Y66.13 F9000
G1 X107.67 Y74.05 E284.59 F1080
G1 X108.49 Y73.94 F9000
G1 X116.28 Y66.16 E285.735 F1080
G1 X116.95 Y66.19 F9000
G1 X109.29 Y73.85 E286.86 F1080
G1 X110.08 Y73.77 F9000
G1 X117.61 Y66.23 E287.968 F1080
G1 X118.27 Y66.29 F9000
G1 X110.85 Y73.71 E289.059 F1080
G1 X111.6 Y73.66 F9000
G1 X118.92 Y66.34 E290.136 F1080
G1 X119.56 Y66.41 F9000
G1 X112.34 Y73.63 E291.197 F1080
G1 X113.07 Y73.61 F9000
G1 X120.19 Y66.48 E292.244 F1080
G1 X120.82 Y66.56 F9000
G1 X113.79 Y73.6 E293.279 F1080
G1 X114.49 F9000
G1 X121.44 Y66.65 E294.3 F1080
G1 X122.06 Y66.74 F9000
G1 X115.18 Y73.61 E295.31 F1080
G1 X115.87 Y73.64 F9000
G1 X122.66 Y66.84 E296.309 F1080
G1 X123.26 Y66.95 F9000
G1 X116.54 Y73.67 E297.298 F1080
G1 X117.21 Y73.71 F9000
G1 X123.86 Y67.06 E298.275 F1080
G1 X124.45 Y67.18 F9000
G1 X117.86 Y73.77 E299.244 F1080
G1 X118.5 Y73.83 F9000
G1 X125.03 Y67.31 E300.203 F1080
G1 X125.61 Y67.43 F9000
G1 X119.14 Y73.9 E301.153 F1080
G1 X119.77 Y73.98 F9000
G1 X126.18 Y67.57 E302.095 F1080
G1 X126.74 Y67.71 F9000
G1 X120.39 Y74.06 E303.029 F1080
G1 X121 Y74.16 F9000
G1 X127.3 Y67.86 E303.955 F1080
G1 X127.86 Y68.01 F9000
G1 X121.61 Y74.26 E304.874 F1080
G1 X122.2 Y74.37 F9000
G1 X128.41 Y68.17 E305.786 F1080
G1 X128.95 Y68.33 F9000
G1 X122.79 Y74.49 E306.691 F1080
G1 X123.38 Y74.61 F9000
G1 X129.49 Y68.5 E307.59 F1080
G1 X130.03 Y68.67 F9000
G1 X123.95 Y74.74 E308.482 F1080
G1 X124.53 Y74.88 F9000
G1 X130.56 Y68.85 E309.368 F1080
G1 X131.08 Y69.03 F9000
G1 X125.09 Y75.02 E310.249 F1080
G1 X125.65 Y75.17 F9000
G1 X131.6 Y69.22 E311.125 F1080
G1 X132.12 Y69.41 F9000
G1 X126.2 Y75.33 E311.995 F1080
G1 X126.74 Y75.49 F9000
G1 X132.63 Y69.6 E312.86 F1080
G1 X133.14 Y69.8 F9000
G1 X127.28 Y75.66 E313.721 F1080
G1 X127.82 Y75.83 F9000
G1 X133.64 Y70.01 E314.576 F1080
G1 X134.14 Y70.22 F9000
G1 X128.34 Y76.01 E315.428 F1080
G1 X128.87 Y76.19 F9000
G1 X134.63 Y70.43 E316.275 F1080
G1 X135.12 Y70.65 F9000
G1 X129.38 Y76.38 E317.117 F1080
G1 X129.9 Y76.58 F9000
G1 X135.6 Y70.87 E317.956 F1080
G1 X136.08 Y71.1 F9000
G1 X130.4 Y76.78 E318.791 F1080
G1 X130.9 Y76.99 F9000
G1 X136.56 Y71.33 E319.623 F1080
G1 X137.03 Y71.56 F9000
G1 X131.4 Y77.19 E320.451 F1080
G1 X131.89 Y77.41 F9000
G1 X137.5 Y71.8 E321.277 F1080
G1 X137.97 Y72.04 F9000
G1 X132.38 Y77.63 E322.098 F1080
G1 X132.86 Y77.86 F9000
G1 X138.43 Y72.29 E322.917 F1080
G1 X138.89 Y72.54 F9000
G1 X133.34 Y78.09 E323.733 F1080
G1 X133.81 Y78.32 F9000
G1 X139.34 Y72.79 E324.546 F1080
G1 X139.79 Y73.05 F9000
G1 X134.28 Y78.56 E325.356 F1080
G1 X134.74 Y78.81 F9000
G1 X140.23 Y73.31 E326.164 F1080
G1 X140.68 Y73.58 F9000
G1 X135.2 Y79.06 E326.97 F1080
G1 X135.65 Y79.31 F9000
G1 X141.11 Y73.85 E327.773 F1080
G1 X141.55 Y74.12 F9000
G1 X136.1 Y79.57 E328.575 F1080
G1 X136.54 Y79.83 F9000
G1 X141.98 Y74.4 E329.374 F1080
G1 X142.4 Y74.68 F9000
G1 X136.98 Y80.1 E330.171 F1080
G1 X137.42 Y80.37 F9000
G1 X142.83 Y74.96 E330.966 F1080
G1 X143.25 Y75.25 F9000
G1 X137.85 Y80.65 E331.759 F1080
G1 X138.28 Y80.93 F9000
G1 X143.67 Y75.54 E332.552 F1080
G1 X144.08 Y75.83 F9000
G1 X138.7 Y81.21 E333.342 F1080
G1 X139.12 Y81.5 F9000
G1 X144.49 Y76.13 E334.131 F1080
G1 X144.89 Y76.43 F9000
G1 X139.53 Y81.79 E334.919 F1080
G1 X139.94 Y82.09 F9000
G1 X145.29 Y76.74 E335.705 F1080
G1 X145.69 Y77.05 F9000
G1 X140.35 Y82.39 E336.49 F1080
G1 X140.75 Y82.69 F9000
G1 X146.08 Y77.36 E337.274 F1080
G1 X146.48 Y77.67 F9000
G1 X141.15 Y83.01 E338.058 F1080
G1 X141.54 Y83.32 F9000
G1 X146.86 Y78 E338.84 F1080
G1 X147.25 Y78.32 F9000
G1 X141.93 Y83.64 E339.622 F1080
G1 X142.32 Y83.96 F9000
G1 X147.63 Y78.65 E340.402 F1080
G1 X148.01 Y78.98 F9000
G1 X142.7 Y84.28 E341.183 F1080
G1 X143.08 Y84.61 F9000
G1 X148.38 Y79.31 E341.962 F1080
G1 X148.75 Y79.65 F9000
G1 X143.45 Y84.95 E342.742 F1080
G1 X143.82 Y85.28 F9000
G1 X149.12 Y79.98 E343.521 F1080
G1 X149.48 Y80.33 F9000
G1 X144.18 Y85.63 E344.3 F1080
G1 X144.54 Y85.97 F9000
G1 X149.84 Y80.68 E345.078 F1080
G1 X150.2 Y81.03 F9000
G1 X144.9 Y86.32 E345.856 F1080
G1 X145.25 Y86.68 F9000
G1 X150.55 Y81.38 E346.635 F1080
G1 X150.9 Y81.74 F9000
G1 X145.6 Y87.04 E347.414 F1080
G1 X145.95 Y87.4 F9000
G1 X151.25 Y82.1 E348.192 F1080
G1 X151.59 Y82.46 F9000
G1 X146.29 Y87.76 E348.972 F1080
G1 X146.62 Y88.14 F9000
G1 X151.93 Y82.83 E349.751 F1080
G1 X152.26 Y83.2 F9000
G1 X146.96 Y88.51 E350.531 F1080
G1 X147.29 Y88.89 F9000
G1 X152.6 Y83.58 E351.312 F1080
G1 X152.93 Y83.96 F9000
G1 X147.61 Y89.27 E352.093 F1080
G1 X147.93 Y89.66 F9000
G1 X153.25 Y84.34 E352.875 F1080
G1 X153.57 Y84.72 F9000
G1 X148.25 Y90.05 E353.658 F1080
G1 X148.56 Y90.44 F9000
G1 X153.89 Y85.11 E354.441 F1080
G1 X154.2 Y85.5 F9000
G1 X148.87 Y90.84 E355.226 F1080
G1 X149.17 Y91.24 F9000
G1 X154.52 Y85.9 E356.011 F1080
G1 X154.82 Y86.3 F9000
G1 X149.47 Y91.65 E356.798 F1080
G1 X149.77 Y92.06 F9000
G1 X155.13 Y86.7 E357.586 F1080
G1 X155.43 Y87.11 F9000
G1 X150.06 Y92.48 E358.375 F1080
G1 X150.35 Y92.9 F9000
G1 X155.73 Y87.52 E359.166 F1080
G1 X156.02 Y87.93 F9000
G1 X150.63 Y93.32 E359.959 F1080
G1 X150.91 Y93.75 F9000
G1 X156.31 Y88.35 E360.753 F1080
G1 X156.6 Y88.77 F9000
G1 X151.18 Y94.18 E361.549 F1080
G1 X151.45 Y94.62 F9000
G1 X156.88 Y89.19 E362.346 F1080
G1 X157.16 Y89.62 F9000
G1 X151.72 Y95.06 E363.146 F1080
G1 X151.98 Y95.51 F9000
G1 X157.44 Y90.05 E363.948 F1080
G1 X157.71 Y90.49 F9000
G1 X152.24 Y95.96 E364.752 F1080
G1 X152.49 Y96.41 F9000
G1 X157.98 Y90.93 E365.558 F1080
G1 X158.24 Y91.37 F9000
G1 X152.74 Y96.87 E366.367 F1080
G1 X152.98 Y97.33 F9000
G1 X158.5 Y91.81 E367.178 F1080
G1 X158.76 Y92.27 F9000
G1 X153.22 Y97.8 E367.992 F1080
G1 X153.45 Y98.28 F9000
G1 X159.01 Y92.72 E368.809 F1080
G1 X159.26 Y93.18 F9000
G1 X153.68 Y98.76 E369.629 F1080
G1 X153.91 Y99.24 F9000
G1 X159.5 Y93.64 E370.451 F1080
G1 X159.74 Y94.11 F9000
G1 X154.13 Y99.73 E371.277 F1080
G1 X154.34 Y100.22 F9000
G1 X159.98 Y94.58 E372.106 F1080
G1 X160.21 Y95.05 F9000
G1 X154.55 Y100.72 E372.939 F1080
G1 X154.75 Y101.22 F9000
G1 X160.44 Y95.53 E373.776 F1080
G1 X160.67 Y96.01 F9000
G1 X154.95 Y101.73 E374.616 F1080
G1 X155.15 Y102.24 F9000
G1 X160.89 Y96.5 E375.46 F1080
G1 X161.11 Y96.99 F9000
G1 X155.34 Y102.76 E376.308 F1080
G1 X155.52 Y103.28 F9000
G1 X161.32 Y97.48 E377.16 F1080
G1 X161.53 Y97.98 F9000
G1 X155.7 Y103.81 E378.018 F1080
G1 X155.87 Y104.35 F9000
G1 X161.73 Y98.49 E378.879 F1080
G1 X161.93 Y98.99 F9000
G1 X156.03 Y104.89 E379.746 F1080
G1 X156.19 Y105.44 F9000
G1 X162.12 Y99.51 E380.617 F1080
G1 X162.31 Y100.02 F9000
G1 X156.35 Y105.99 E381.494 F1080
G1 X156.49 Y106.55 F9000
G1 X162.5 Y100.55 E382.377 F1080
G1 X162.68 Y101.07 F9000
G1 X156.64 Y107.11 E383.265 F1080
G1 X156.77 Y107.69 F9000
G1 X162.85 Y101.6 E384.159 F1080
G1 X163.02 Y102.14 F9000
G1 X156.9 Y108.27 E385.059 F1080
G1 X157.02 Y108.85 F9000
G1 X163.19 Y102.68 E385.966 F1080
G1 X163.35 Y103.23 F9000
G1 X157.13 Y109.45 E386.88 F1080
G1 X157.24 Y110.04 F9000
G1 X163.51 Y103.78 E387.801 F1080
G1 X163.66 Y104.34 F9000
G1 X157.34 Y110.65 E388.729 F1080
G1 X157.44 Y111.26 F9000
G1 X163.8 Y104.9 E389.666 F1080
G1 X163.94 Y105.46 F9000
G1 X157.52 Y111.89 E390.61 F1080
G1 X157.6 Y112.52 F9000
G1 X164.08 Y106.04 E391.563 F1080
G1 X164.21 Y106.62 F9000
G1 X157.67 Y113.16 E392.524 F1080
G1 X157.72 Y113.81 F9000
G1 X164.33 Y107.2 E393.495 F1080
G1 X164.44 Y107.79 F9000
G1 X157.77 Y114.46 E394.475 F1080
G1 X157.81 Y115.13 F9000
G1 X164.56 Y108.39 E395.467 F1080
G1 X164.66 Y108.99 F9000
G1 X157.84 Y115.81 E396.469 F1080
G1 X157.87 Y116.49 F9000
G1 X164.76 Y109.6 E397.482 F1080
G1 X164.85 Y110.21 F9000
G1 X157.87 Y117.19 E398.508 F1080
G1 X157.88 Y117.9 F9000
G1 X164.94 Y110.83 E399.546 F1080
G1 X165.02 Y111.46 F9000
G1 X157.88 Y118.6 E400.595 F1080
G1 Y119.31 F9000
G1 X165.08 Y112.1 E401.654 F1080
G1 X165.15 Y112.74 F9000
G1 X157.88 Y120.01 E402.723 F1080
G1 Y120.72 F9000
G1 X165.2 Y113.4 E403.799 F1080
G1 X165.25 Y114.05 F9000
G1 X157.88 Y121.43 E404.883 F1080
G1 Y122.13 F9000
G1 X165.29 Y114.72 E405.972 F1080
G1 X165.32 Y115.4 F9000
G1 X157.88 Y122.84 E407.066 F1080
G1 Y123.54 F9000
G1 X165.35 Y116.08 E408.163 F1080
G1 X165.36 Y116.77 F9000
G1 X157.88 Y124.25 E409.262 F1080
G1 Y124.96 F9000
G1 X165.37 Y117.47 E410.362 F1080
G1 Y118.18 F9000
G1 X157.89 Y125.66 E411.462 F1080
G1 Y126.37 F9000
G1 X165.37 Y118.89 E412.562 F1080
G1 Y119.6 F9000
G1 X157.89 Y127.08 E413.661 F1080
G1 X158.01 Y127.67 F9000
G1 X165.37 Y120.3 E414.743 F1080
G1 Y121.01 F9000
G1 X158.35 Y128.03 E415.775 F1080
G1 X159.01 Y128.07 F9000
G1 X165.37 Y121.72 E416.709 F1080
G1 X165.36 Y122.43 F9000
G1 X159.72 Y128.07 E417.539 F1080
G1 X160.43 F9000
G1 X165.36 Y123.14 E418.265 F1080
G1 Y123.84 F9000
G1 X161.13 Y128.07 E418.887 F1080
G1 X161.84 F9000
G1 X165.36 Y124.55 E419.405 F1080
G1 Y125.26 F9000
G1 X162.55 Y128.07 E419.819 F1080
G1 X163.25 F9000
G1 X165.36 Y125.97 E420.128 F1080
G1 Y126.67 F9000
G1 X163.96 Y128.07 E420.334 F1080
G1 X164.67 F9000
G1 X165.33 Y127.41 E420.432 F1080
G1 E417.432 F1800
G1 Z1
G1 X156.45 Y107.16 F9000
G1 X153.02 Y97.81
G1 X147.74 Y89.71
G1 X141.29 Y83.63
G1 X134.58 Y78.94
G1 X127.19 Y75.75
G1 X117.09 Y73.78
G1 X106.44 Y74.28
G1 X95.08 Y77.84
G1 X86.52 Y83.44
G1 X79.62 Y90.39
G1 X74.83 Y97.71
G1 Z0.5
G1 E420.432 F1800
G1 X63.3 Y109.24 E422.127 F1080
G1 X63.17 Y110.07 F9000
G1 X74.17 Y99.07 E423.744 F1080
G1 X73.61 Y100.34 F9000
G1 X63.06 Y110.89 E425.295 F1080
G1 X62.95 Y111.7 F9000
G1 X73.12 Y101.53 E426.789 F1080
G1 X72.7 Y102.67 F9000
G1 X62.87 Y112.49 E428.233 F1080
G1 X62.81 Y113.26 F9000
G1 X72.33 Y103.74 E429.632 F1080
G1 X72 Y104.78 F9000
G1 X62.75 Y114.03 E430.992 F1080
G1 X62.7 Y114.78 F9000
G1 X71.71 Y105.77 E432.316 F1080
G1 X71.46 Y106.73 F9000
G1 X62.67 Y115.52 E433.608 F1080
G1 X62.64 Y116.25 F9000
G1 X71.23 Y107.66 E434.87 F1080
G1 X71.04 Y108.57 F9000
G1 X62.63 Y116.97 E436.105 F1080
G1 Y117.69 F9000
G1 X70.86 Y109.45 E437.316 F1080
G1 X70.71 Y110.31 F9000
G1 X62.62 Y118.4 E438.506 F1080
G1 E435.506 F1800
G1 Z1
G1 X59.08 Y122.65 F9000
G1 Z0.5
G1 E438.506 F1800
G1 X70.58 Y111.15 E440.196 F1080
G1 X70.47 Y111.97 F9000
G1 X59.08 Y123.36 E441.871 F1080
G1 Y124.07 F9000
G1 X70.38 Y112.76 E443.532 F1080
G1 X70.3 Y113.55 F9000
G1 X59.08 Y124.77 E445.182 F1080
G1 Y125.48 F9000
G1 X70.23 Y114.32 E446.822 F1080
G1 X70.19 Y115.07 F9000
G1 X59.08 Y126.19 E448.455 F1080
G1 Y126.89 F9000
G1 X70.15 Y115.81 E450.084 F1080
G1 X70.13 Y116.55 F9000
G1 X59.08 Y127.6 E451.709 F1080
G1 Y128.31 F9000
G1 X70.12 Y117.26 E453.332 F1080
G1 X70.11 Y117.98 F9000
G1 X59.08 Y129.01 E454.955 F1080
G1 Y129.72 F9000
G1 X70.13 Y118.66 E456.58 F1080
G1 X70.84 F9000
G1 X59.08 Y130.43 E458.309 F1080
G1 Y131.14 F9000
G1 X71.55 Y118.66 E460.143 F1080
G1 X72.25 F9000
G1 X59.08 Y131.84 E462.08 F1080
G1 Y132.55 F9000
G1 X72.96 Y118.66 E464.121 F1080
G1 X73.67 F9000
G1 X59.08 Y133.26 E466.266 F1080
G1 Y133.96 F9000
G1 X73.67 Y119.37 E468.412 F1080
G1 Y120.07 F9000
G1 X59.08 Y134.67 E470.557 F1080
G1 Y135.38 F9000
G1 X73.67 Y120.78 E472.703 F1080
G1 Y121.49 F9000
G1 X59.08 Y136.09 E474.849 F1080
G1 Y136.79 F9000
G1 X73.67 Y122.19 E476.995 F1080
G1 Y122.9 F9000
G1 X59.08 Y137.5 E479.141 F1080
G1 Y138.21 F9000
G1 X73.67 Y123.61 E481.287 F1080
G1 Y124.32 F9000
G1 X59.08 Y138.91 E483.432 F1080
G1 Y139.62 F9000
G1 X73.67 Y125.02 E485.578 F1080
G1 Y125.73 F9000
G1 X59.08 Y140.33 E487.724 F1080
G1 Y141.03 F9000
G1 X73.67 Y126.44 E489.87 F1080
G1 Y127.14 F9000
G1 X59.08 Y141.74 E492.015 F1080
G1 Y142.45 F9000
G1 X73.67 Y127.85 E494.161 F1080
G1 Y128.56 F9000
G1 X59.08 Y143.16 E496.307 F1080
G1 Y143.86 F9000
G1 X73.67 Y129.27 E498.452 F1080
G1 Y129.97 F9000
G1 X59.08 Y144.57 E500.598 F1080
G1 Y145.28 F9000
G1 X73.67 Y130.68 E502.744 F1080
G1 Y131.39 F9000
G1 X59.08 Y145.98 E504.89 F1080
G1 Y146.69 F9000
G1 X73.67 Y132.09 E507.035 F1080
G1 Y132.8 F9000
G1 X59.08 Y147.4 E509.181 F1080
G1 Y148.11 F9000
G1 X73.67 Y133.51 E511.327 F1080
G1 Y134.22 F9000
G1 X59.08 Y148.81 E513.472 F1080
G1 Y149.52 F9000
G1 X73.67 Y134.92 E515.618 F1080
G1 Y135.63 F9000
G1 X59.08 Y150.23 E517.764 F1080
G1 Y150.93 F9000
G1 X73.67 Y136.34 E519.909 F1080
G1 Y137.04 F9000
G1 X59.08 Y151.64 E522.055 F1080
G1 Y152.35 F9000
G1 X73.67 Y137.75 E524.201 F1080
G1 Y138.46 F9000
G1 X59.08 Y153.05 E526.346 F1080
G1 Y153.76 F9000
G1 X73.67 Y139.16 E528.492 F1080
G1 Y139.87 F9000
G1 X59.08 Y154.47 E530.637 F1080
G1 Y155.18 F9000
G1 X73.67 Y140.58 E532.783 F1080
G1 Y141.29 F9000
G1 X59.08 Y155.88 E534.928 F1080
G1 Y156.59 F9000
G1 X73.67 Y141.99 E537.074 F1080
G1 Y142.7 F9000
G1 X59.08 Y157.3 E539.22 F1080
G1 Y158 F9000
G1 X73.67 Y143.41 E541.365 F1080
G1 Y144.11 F9000
G1 X59.08 Y158.71 E543.511 F1080
G1 Y159.42 F9000
G1 X73.67 Y144.82 E545.657 F1080
G1 Y145.53 F9000
G1 X59.08 Y160.13 E547.802 F1080
G1 Y160.83 F9000
G1 X73.67 Y146.24 E549.948 F1080
G1 Y146.94 F9000
G1 X59.08 Y161.54 E552.093 F1080
G1 Y162.25 F9000
G1 X73.67 Y147.65 E554.239 F1080
G1 Y148.36 F9000
G1 X59.08 Y162.95 E556.384 F1080
G1 Y163.66 F9000
G1 X73.67 Y149.06 E558.53 F1080
G1 Y149.77 F9000
G1 X59.08 Y164.37 E560.675 F1080
G1 Y165.07 F9000
G1 X73.67 Y150.48 E562.821 F1080
G1 Y151.19 F9000
G1 X59.08 Y165.78 E564.966 F1080
G1 Y166.49 F9000
G1 X73.67 Y151.89 E567.112 F1080
G1 Y152.6 F9000
G1 X59.08 Y167.2 E569.257 F1080
G1 Y167.9 F9000
G1 X73.67 Y153.31 E571.402 F1080
G1 Y154.01 F9000
G1 X59.08 Y168.61 E573.548 F1080
G1 Y169.32 F9000
G1 X73.67 Y154.72 E575.693 F1080
G1 Y155.43 F9000
G1 X59.08 Y170.02 E577.839 F1080
G1 Y170.73 F9000
G1 X73.67 Y156.14 E579.984 F1080
G1 Y156.84 F9000
G1 X59.08 Y171.44 E582.13 F1080
G1 Y172.15 F9000
G1 X73.67 Y157.55 E584.275 F1080
G1 Y158.26 F9000
G1 X59.08 Y172.85 E586.421 F1080
G1 Y173.56 F9000
G1 X73.67 Y158.96 E588.566 F1080
G1 Y159.67 F9000
G1 X59.08 Y174.27 E590.712 F1080
G1 Y174.97 F9000
G1 X73.67 Y160.38 E592.857 F1080
G1 Y161.09 F9000
G1 X59.08 Y175.68 E595.002 F1080
G1 Y176.39 F9000
G1 X73.67 Y161.79 E597.148 F1080
G1 Y162.5 F9000
G1 X59.08 Y177.09 E599.293 F1080
G1 Y177.8 F9000
G1 X73.67 Y163.21 E601.439 F1080
G1 Y163.91 F9000
G1 X59.08 Y178.51 E603.584 F1080
G1 Y179.22 F9000
G1 X73.67 Y164.62 E605.73 F1080
G1 Y165.33 F9000
G1 X59.08 Y179.92 E607.875 F1080
G1 Y180.63 F9000
G1 X73.67 Y166.04 E610.021 F1080
G1 Y166.74 F9000
G1 X59.08 Y181.34 E612.166 F1080
G1 Y182.04 F9000
G1 X73.67 Y167.45 E614.311 F1080
G1 Y168.16 F9000
G1 X59.08 Y182.75 E616.457 F1080
G1 Y183.46 F9000
G1 X73.67 Y168.86 E618.602 F1080
G1 Y169.57 F9000
G1 X59.08 Y184.17 E620.747 F1080
G1 Y184.87 F9000
G1 X73.67 Y170.28 E622.893 F1080
G1 Y170.98 F9000
G1 X59.08 Y185.58 E625.038 F1080
G1 Y186.29 F9000
G1 X73.67 Y171.69 E627.184 F1080
G1 Y172.4 F9000
G1 X59.08 Y186.99 E629.329 F1080
G1 Y187.7 F9000
G1 X73.67 Y173.11 E631.474 F1080
G1 Y173.81 F9000
G1 X59.08 Y188.41 E633.619 F1080
G1 Y189.12 F9000
G1 X73.67 Y174.52 E635.765 F1080
G1 Y175.23 F9000
G1 X59.08 Y189.82 E637.91 F1080
G1 Y190.53 F9000
G1 X73.67 Y175.93 E640.055 F1080
G1 Y176.64 F9000
G1 X59.08 Y191.24 E642.201 F1080
G1 X59.57 Y191.45 F9000
G1 X73.67 Y177.35 E644.273 F1080
G1 Y178.06 F9000
G1 X60.28 Y191.45 E646.242 F1080
G1 X60.99 F9000
G1 X73.67 Y178.76 E648.106 F1080
G1 Y179.47 F9000
G1 X61.7 Y191.45 E649.867 F1080
G1 X62.4 F9000
G1 X73.67 Y180.18 E651.524 F1080
G1 Y180.88 F9000
G1 X63.11 Y191.45 E653.076 F1080
G1 X63.82 F9000
G1 X73.67 Y181.59 E654.525 F1080
G1 Y182.3 F9000
G1 X64.53 Y191.45 E655.869 F1080
G1 X65.23 F9000
G1 X73.67 Y183.01 E657.11 F1080
G1 Y183.71 F9000
G1 X65.94 Y191.45 E658.247 F1080
G1 X66.65 F9000
G1 X73.67 Y184.42 E659.28 F1080
G1 Y185.13 F9000
G1 X67.36 Y191.44 E660.208 F1080
G1 X68.06 F9000
G1 X73.67 Y185.83 E661.033 F1080
G1 Y186.54 F9000
G1 X68.77 Y191.44 E661.754 F1080
G1 X69.48 F9000
G1 X73.67 Y187.25 E662.371 F1080
G1 Y187.96 F9000
G1 X70.19 Y191.44 E662.883 F1080
G1 X70.89 F9000
G1 X73.67 Y188.66 E663.292 F1080
G1 Y189.37 F9000
G1 X71.6 Y191.44 E663.597 F1080
G1 X72.31 F9000
G1 X73.67 Y190.08 E663.798 F1080
G1 Y190.78 F9000
G1 X73.02 Y191.44 E663.895 F1080
; Layer Change GCode
; LAYER:1
; LAYER_HEIGHT:0.3
; TYPE:FILL
G1 E660.895 F1800
G1 Z1
G1 X72.64 Y190.69 Z1.3 F9000
G1 X72.44 Y182.72
G1 X72.23 Y174.75
G1 X72.03 Y166.79
G1 X71.83 Y158.82
G1 X71.63 Y150.85
G1 X71.42 Y142.88
G1 X71.22 Y134.91
G1 X71.02 Y126.94
G1 X70.81 Y118.98
; TYPE:WALL-INNER
G1 Z0.8
G1 E663.895 F1800
G1 X73.87 E664.277 F3600
G1 Y123.81 E664.88
G1 Y128.65 E665.484
G1 Y133.49 E666.088
G1 Y138.33 E666.691
G1 Y143.17 E667.295
G1 Y148.01 E667.899
G1 Y152.85 E668.502
G1 Y157.69 E669.106
G1 Y162.53 E669.71
G1 Y167.37 E670.313
G1 Y172.21 E670.917
G1 Y177.05 E671.521
G1 Y181.89 E672.124
G1 Y186.73 E672.728
G1 Y191.57 E673.332
G1 X73.86 Y191.65 E673.341
G1 X68.88 E673.962
G1 X63.9 E674.584
G1 X58.92 E675.205
G1 X58.88 E675.209
G1 Y186.8 E675.813
G1 Y181.96 E676.418
G1 Y177.11 E677.022
G1 Y172.27 E677.626
G1 Y167.42 E678.231
G1 Y162.58 E678.835
G1 Y157.73 E679.439
G1 Y152.89 E680.043
G1 Y148.04 E680.648
G1 Y143.2 E681.252
G1 Y138.35 E681.856
G1 Y133.51 E682.46
G1 Y128.66 E683.065
G1 Y123.82 E683.669
G1 Y118.98 E684.273
G1 X61.89 E684.649
G1 X61.92 Y116.67 E684.937
G1 X61.95 Y115.51 E685.082
G1 X62.01 Y114.32 E685.23
G1 X62.09 Y113.14 E685.378
G1 X62.2 Y111.96 E685.526
G1 X62.35 Y110.75 E685.678
G1 X62.51 Y109.61 E685.821
G1 X62.7 Y108.44 E685.969
G1 X62.93 Y107.24 E686.121
G1 X63.16 Y106.11 E686.265
G1 X63.44 Y104.96 E686.413
G1 X63.74 Y103.78 E686.565
G1 X64.07 Y102.64 E686.713
G1 X64.41 Y101.54 E686.857
G1 X64.8 Y100.38 E687.009
G1 X65.18 Y99.3 E687.152
G1 X65.61 Y98.19 E687.3
G1 X66.08 Y97.06 E687.452
G1 X66.54 Y96.01 E687.596
G1 X67.06 Y94.9 E687.749
G1 X67.57 Y93.87 E687.892
G1 X68.13 Y92.79 E688.044
G1 X68.89 Y91.42 E688.24
G1 X69.9 Y89.75 E688.483
G1 X70.57 Y88.72 E688.636
G1 X71.23 Y87.74 E688.784
G1 X71.9 Y86.8 E688.927
G1 X72.63 Y85.82 E689.079
G1 X73.36 Y84.89 E689.227
G1 X74.11 Y83.97 E689.375
G1 X74.86 Y83.1 E689.519
G1 X75.66 Y82.22 E689.667
G1 X76.47 Y81.35 E689.815
G1 X77.33 Y80.48 E689.967
G1 X78.15 Y79.68 E690.111
G1 X79.05 Y78.85 E690.263
G1 X79.91 Y78.09 E690.406
G1 X80.82 Y77.32 E690.554
G1 X81.76 Y76.56 E690.706
G1 X82.68 Y75.86 E690.85
G1 X83.66 Y75.13 E691.002
G1 X84.6 Y74.47 E691.146
G1 X85.6 Y73.81 E691.295
G1 X86.6 Y73.17 E691.444
G1 X87.64 Y72.55 E691.594
G1 X88.64 Y71.98 E691.738
G1 X89.69 Y71.41 E691.887
G1 X90.76 Y70.86 E692.037
G1 X91.82 Y70.34 E692.184
G1 X92.9 Y69.85 E692.332
G1 X93.97 Y69.39 E692.477
G1 X95.09 Y68.94 E692.628
G1 X96.18 Y68.53 E692.773
G1 X97.32 Y68.13 E692.923
G1 X98.44 Y67.76 E693.071
G1 X99.58 Y67.42 E693.219
G1 X100.7 Y67.11 E693.364
G1 X101.87 Y66.82 E693.515
G1 X103.03 Y66.55 E693.663
G1 X104.19 Y66.32 E693.811
G1 X105.35 Y66.11 E693.958
G1 X106.52 Y65.92 E694.106
G1 X107.7 Y65.77 E694.254
G1 X108.89 Y65.64 E694.403
G1 X110.05 Y65.54 E694.548
G1 X111.23 Y65.46 E694.696
G1 X112.43 Y65.41 E694.846
G1 X113.62 Y65.39 E694.995
G1 X114.82 E695.143
G1 X115.97 Y65.42 E695.287
G1 X117.17 Y65.48 E695.437
G1 X118.35 Y65.57 E695.585
G1 X119.51 Y65.68 E695.731
G1 X120.73 Y65.82 E695.883
G1 X121.87 Y65.98 E696.028
G1 X123.05 Y66.18 E696.176
G1 X124.23 Y66.4 E696.326
G1 X125.36 Y66.64 E696.47
G1 X126.52 Y66.91 E696.618
G1 X127.7 Y67.22 E696.77
G1 X128.83 Y67.54 E696.917
G1 X129.94 Y67.88 E697.062
G1 X131.09 Y68.27 E697.214
G1 X132.2 Y68.67 E697.36
G1 X133.28 Y69.09 E697.505
G1 X134.41 Y69.55 E697.658
G1 X135.48 Y70.02 E697.803
G1 X136.57 Y70.53 E697.954
G1 X137.6 Y71.04 E698.097
G1 X138.69 Y71.61 E698.249
G1 X139.69 Y72.16 E698.393
G1 X140.75 Y72.78 E698.545
G1 X141.73 Y73.38 E698.689
G1 X142.75 Y74.04 E698.841
G1 X143.74 Y74.71 E698.989
G1 X144.67 Y75.37 E699.132
G1 X145.65 Y76.1 E699.285
G1 X146.58 Y76.84 E699.432
G1 X147.5 Y77.59 E699.58
G1 X148.37 Y78.34 E699.724
G1 X149.26 Y79.13 E699.872
G1 X150.13 Y79.96 E700.022
G1 X150.99 Y80.8 E700.172
G1 X151.79 Y81.63 E700.316
G1 X152.62 Y82.52 E700.468
G1 X153.38 Y83.38 E700.611
G1 X154.15 Y84.29 E700.759
G1 X154.92 Y85.24 E700.912
G1 X155.62 Y86.15 E701.055
G1 X156.34 Y87.13 E701.207
G1 X157 Y88.08 E701.351
G1 X157.66 Y89.06 E701.499
G1 X158.3 Y90.07 E701.647
G1 X158.93 Y91.11 E701.799
G1 X159.5 Y92.11 E701.943
G1 X160.06 Y93.15 E702.09
G1 X160.62 Y94.24 E702.242
G1 X161.14 Y95.31 E702.391
G1 X161.63 Y96.38 E702.538
G1 X162.08 Y97.44 E702.682
G1 X162.53 Y98.54 E702.83
G1 X162.95 Y99.65 E702.978
G1 X163.34 Y100.77 E703.126
G1 X163.71 Y101.9 E703.274
G1 X164.06 Y103.07 E703.426
G1 X164.36 Y104.18 E703.569
G1 X164.66 Y105.36 E703.722
G1 X164.92 Y106.48 E703.865
G1 X165.16 Y107.68 E704.017
G1 X165.36 Y108.81 E704.161
G1 X165.55 Y109.98 E704.309
G1 X165.71 Y111.19 E704.461
G1 X165.84 Y112.37 E704.609
G1 X165.94 Y113.52 E704.753
G1 X166.02 Y114.7 E704.901
G1 X166.07 Y115.89 E705.048
G1 X166.09 Y117.11 E705.201
G1 Y122.1 E705.824
G1 Y127.1 E706.447
G1 X166.08 Y127.37 E706.481
G1 X166.05 Y127.58 E706.507
G1 X165.96 Y127.89 E706.548
G1 X165.82 Y128.19 E706.589
G1 X165.65 Y128.46 E706.629
G1 X165.58 Y128.54 E706.642
G1 X165.41 Y128.72 E706.673
G1 X165.29 Y128.81 E706.692
G1 X165.09 Y128.93 E706.721
G1 X165.03 Y128.96 E706.729
G1 X164.75 Y129.04 E706.766
G1 X164.6 Y129.06 E706.785
G1 X158.72 E707.518
G1 X158.52 Y129.04 E707.542
G1 X158.39 Y129.01 E707.559
G1 X158.16 Y128.93 E707.589
G1 X158.04 Y128.87 E707.607
G1 X157.91 Y128.77 E707.627
G1 X157.79 Y128.67 E707.646
G1 X157.69 Y128.57 E707.665
G1 X157.57 Y128.42 E707.688
G1 X157.42 Y128.19 E707.723
G1 X157.29 Y127.89 E707.763
G1 X157.2 Y127.58 E707.803
G1 X157.16 Y127.28 E707.841
G1 Y122.37 E708.453
G1 Y117.46 E709.066
G1 X157.12 Y115.74 E709.281
G1 X157.04 Y114.35 E709.455
G1 X156.88 Y112.62 E709.671
G1 X156.75 Y111.58 E709.802
G1 X156.54 Y110.21 E709.975
G1 X156.21 Y108.5 E710.191
G1 X155.98 Y107.48 E710.322
G1 X155.64 Y106.14 E710.495
G1 X155.15 Y104.47 E710.712
G1 X154.71 Y103.15 E710.885
G1 X154.1 Y101.52 E711.102
G1 X153.57 Y100.24 E711.276
G1 X152.84 Y98.66 E711.492
G1 X152.21 Y97.42 E711.666
G1 X151.37 Y95.89 E711.883
G1 X150.48 Y94.41 E712.099
G1 X149.52 Y92.96 E712.316
G1 X148.5 Y91.55 E712.533
G1 X147.65 Y90.45 E712.706
G1 X146.53 Y89.12 E712.923
G1 X145.6 Y88.08 E713.097
G1 X144.39 Y86.84 E713.313
G1 X143.39 Y85.87 E713.487
G1 X142.09 Y84.72 E713.703
G1 X141.02 Y83.82 E713.877
G1 X139.65 Y82.77 E714.093
G1 X138.51 Y81.96 E714.267
G1 X137.07 Y81 E714.483
G1 X135.88 Y80.27 E714.657
G1 X134.36 Y79.43 E714.874
G1 X133.12 Y78.79 E715.048
G1 X131.55 Y78.05 E715.264
G1 X130.59 Y77.64 E715.395
G1 X129.3 Y77.12 E715.568
G1 X127.67 Y76.54 E715.784
G1 X126.67 Y76.22 E715.915
G1 X125.34 Y75.83 E716.088
G1 X123.65 Y75.41 E716.304
G1 X122.63 Y75.19 E716.435
G1 X121.26 Y74.93 E716.608
G1 X119.55 Y74.68 E716.825
G1 X118.16 Y74.52 E716.999
G1 X116.43 Y74.39 E717.215
G1 X115.39 Y74.34 E717.346
G1 X114 Y74.32 E717.519
G1 X112.26 Y74.36 E717.735
G1 X110.87 Y74.43 E717.909
G1 X109.15 Y74.59 E718.125
G1 X108.1 Y74.73 E718.256
G1 X106.73 Y74.93 E718.429
G1 X105.03 Y75.26 E718.646
G1 X104.01 Y75.49 E718.777
G1 X102.66 Y75.83 E718.95
G1 X101 Y76.33 E719.166
G1 X99.67 Y76.77 E719.34
G1 X98.05 Y77.38 E719.556
G1 X96.76 Y77.91 E719.73
G1 X95.19 Y78.64 E719.947
G1 X93.94 Y79.26 E720.12
G1 X92.42 Y80.1 E720.337
G1 X91.52 Y80.64 E720.467
G1 X90.64 Y81.19 E720.598
G1 X89.48 Y81.96 E720.771
G1 X88.07 Y82.98 E720.987
G1 X86.97 Y83.83 E721.161
G1 X85.64 Y84.94 E721.377
G1 X84.61 Y85.87 E721.551
G1 X83.36 Y87.08 E721.767
G1 X82.39 Y88.09 E721.941
G1 X81.24 Y89.38 E722.158
G1 X80.35 Y90.45 E722.332
G1 X79.29 Y91.83 E722.548
G1 X78.48 Y92.96 E722.722
G1 X77.53 Y94.41 E722.938
G1 X76.8 Y95.6 E723.112
G1 X75.95 Y97.11 E723.328
G1 X75.31 Y98.35 E723.502
G1 X74.58 Y99.92 E723.718
G1 X74.16 Y100.88 E723.849
G1 X73.65 Y102.17 E724.022
G1 X73.07 Y103.81 E724.239
G1 X72.75 Y104.81 E724.37
G1 X72.36 Y106.14 E724.543
G1 X71.94 Y107.82 E724.759
G1 X71.72 Y108.85 E724.89
G1 X71.46 Y110.21 E725.063
G1 X71.2 Y111.93 E725.279
G1 X71.04 Y113.31 E725.453
G1 X70.91 Y115.04 E725.669
G1 X70.87 Y116.09 E725.8
G1 X70.82 Y118.88 E726.148
G1 X70.81 Y118.98
G1 X71.83 Y117.98 F9000
; TYPE:WALL-OUTER
G1 X74.87 E726.527 F3000
G1 Y122.89 E727.14
G1 Y127.8 E727.752
G1 Y132.71 E728.365
G1 Y137.62 E728.978
G1 Y142.53 E729.59
G1 Y147.44 E730.203
G1 Y152.35 E730.815
G1 Y157.27 E731.428
G1 Y162.18 E732.04
G1 Y167.09 E732.653
G1 Y172 E733.265
G1 Y176.91 E733.878
G1 Y181.82 E734.491
G1 Y186.73 E735.103
G1 Y191.64 E735.716
G1 X74.84 Y191.92 E735.75
G1 X74.75 Y192.14 E735.78
G1 X74.67 Y192.27 E735.799
G1 X74.5 Y192.44 E735.828
G1 X74.41 Y192.5 E735.842
G1 X74.21 Y192.59 E735.87
G1 X74.05 Y192.64 E735.89
G1 X73.92 Y192.65 E735.907
G1 X70.16 E736.376
G1 X66.39 E736.845
G1 X62.63 E737.315
G1 X58.87 E737.784
G1 X58.72 Y192.64 E737.803
G1 X58.53 Y192.59 E737.827
G1 X58.38 Y192.53 E737.847
G1 X58.28 Y192.46 E737.862
G1 X58.11 Y192.3 E737.892
G1 X58 Y192.14 E737.915
G1 X57.91 Y191.92 E737.946
G1 X57.88 Y191.73 E737.969
G1 Y186.82 E738.582
G1 Y181.9 E739.195
G1 Y176.98 E739.809
G1 Y172.06 E740.422
G1 Y167.15 E741.035
G1 Y162.23 E741.649
G1 Y157.31 E742.262
G1 Y152.4 E742.875
G1 Y147.48 E743.488
G1 Y142.56 E744.102
G1 Y137.64 E744.715
G1 Y132.73 E745.328
G1 Y127.81 E745.942
G1 Y122.89 E746.555
G1 Y117.98 E747.168
G1 X60.9 E747.546
G1 X60.92 Y116.67 E747.709
G1 X60.95 Y115.45 E747.861
G1 X61.01 Y114.25 E748.011
G1 X61.1 Y113.05 E748.161
G1 X61.21 Y111.84 E748.312
G1 X61.35 Y110.63 E748.464
G1 X61.52 Y109.45 E748.614
G1 X61.72 Y108.25 E748.764
G1 X61.94 Y107.07 E748.915
G1 X62.19 Y105.88 E749.066
G1 X62.47 Y104.71 E749.217
G1 X62.77 Y103.54 E749.367
G1 X63.1 Y102.37 E749.518
G1 X63.46 Y101.21 E749.67
G1 X63.85 Y100.06 E749.821
G1 X64.25 Y98.94 E749.97
G1 X64.69 Y97.81 E750.121
G1 X65.15 Y96.69 E750.272
G1 X65.64 Y95.57 E750.424
G1 X66.14 Y94.49 E750.573
G1 X66.68 Y93.41 E750.724
G1 X67.25 Y92.33 E750.876
G1 X68.01 Y90.94 E751.074
G1 X69.07 Y89.19 E751.329
G1 X69.72 Y88.19 E751.478
G1 X70.4 Y87.18 E751.63
G1 X71.1 Y86.2 E751.779
G1 X71.82 Y85.23 E751.93
G1 X72.57 Y84.28 E752.081
G1 X73.34 Y83.34 E752.233
G1 X74.12 Y82.43 E752.382
G1 X74.94 Y81.52 E752.534
G1 X75.76 Y80.65 E752.684
G1 X76.6 Y79.79 E752.834
G1 X77.48 Y78.94 E752.986
G1 X78.36 Y78.13 E753.136
G1 X79.26 Y77.33 E753.286
G1 X80.2 Y76.54 E753.439
G1 X81.13 Y75.79 E753.588
G1 X82.08 Y75.05 E753.739
G1 X83.06 Y74.33 E753.889
G1 X84.05 Y73.64 E754.04
G1 X85.05 Y72.97 E754.191
G1 X86.08 Y72.32 E754.343
G1 X87.11 Y71.7 E754.492
G1 X88.16 Y71.1 E754.643
G1 X89.22 Y70.52 E754.794
G1 X90.3 Y69.97 E754.945
G1 X91.38 Y69.44 E755.095
G1 X92.49 Y68.94 E755.248
G1 X93.59 Y68.46 E755.397
G1 X94.71 Y68.01 E755.548
G1 X95.86 Y67.58 E755.7
G1 X97 Y67.18 E755.85
G1 X98.13 Y66.81 E756
G1 X99.3 Y66.46 E756.152
G1 X100.46 Y66.14 E756.301
G1 X101.63 Y65.85 E756.452
G1 X102.82 Y65.58 E756.604
G1 X104 Y65.34 E756.755
G1 X105.19 Y65.12 E756.905
G1 X106.37 Y64.94 E757.055
G1 X107.58 Y64.77 E757.207
G1 X108.79 Y64.64 E757.358
G1 X109.98 Y64.54 E757.507
G1 X111.18 Y64.46 E757.658
G1 X112.4 Y64.41 E757.81
G1 X113.61 Y64.39 E757.96
G1 X114.81 E758.11
G1 X116.03 Y64.42 E758.262
G1 X117.22 Y64.48 E758.412
G1 X118.43 Y64.57 E758.563
G1 X119.63 Y64.69 E758.713
G1 X120.84 Y64.83 E758.865
G1 X122.04 Y65 E759.016
G1 X123.22 Y65.19 E759.165
G1 X124.41 Y65.42 E759.316
G1 X125.59 Y65.67 E759.467
G1 X126.78 Y65.95 E759.619
G1 X127.95 Y66.25 E759.77
G1 X129.1 Y66.58 E759.919
G1 X130.27 Y66.94 E760.071
G1 X131.41 Y67.32 E760.222
G1 X132.54 Y67.73 E760.371
G1 X133.67 Y68.16 E760.522
G1 X134.78 Y68.62 E760.673
G1 X135.9 Y69.11 E760.825
G1 X136.99 Y69.62 E760.974
G1 X138.07 Y70.15 E761.125
G1 X139.15 Y70.72 E761.277
G1 X140.2 Y71.3 E761.426
G1 X141.25 Y71.91 E761.579
G1 X142.27 Y72.54 E761.728
G1 X143.29 Y73.19 E761.879
G1 X144.3 Y73.88 E762.031
G1 X145.27 Y74.57 E762.18
G1 X146.24 Y75.3 E762.331
G1 X147.19 Y76.04 E762.482
G1 X148.14 Y76.82 E762.634
G1 X149.04 Y77.59 E762.783
G1 X149.95 Y78.41 E762.935
G1 X150.83 Y79.24 E763.086
G1 X151.68 Y80.08 E763.235
G1 X152.53 Y80.96 E763.387
G1 X153.35 Y81.83 E763.537
G1 X154.15 Y82.74 E763.688
G1 X154.94 Y83.67 E763.84
G1 X155.69 Y84.6 E763.989
G1 X156.43 Y85.56 E764.14
G1 X157.14 Y86.53 E764.29
G1 X157.83 Y87.52 E764.441
G1 X158.5 Y88.53 E764.592
G1 X159.15 Y89.55 E764.743
G1 X159.78 Y90.58 E764.894
G1 X160.38 Y91.63 E765.044
G1 X160.95 Y92.7 E765.195
G1 X161.5 Y93.77 E765.346
G1 X162.03 Y94.86 E765.496
G1 X162.54 Y95.97 E765.649
G1 X163.01 Y97.07 E765.798
G1 X163.46 Y98.19 E765.949
G1 X163.89 Y99.33 E766.101
G1 X164.29 Y100.46 E766.25
G1 X164.66 Y101.61 E766.401
G1 X165.01 Y102.77 E766.552
G1 X165.33 Y103.93 E766.702
G1 X165.63 Y105.1 E766.853
G1 X165.9 Y106.28 E767.004
G1 X166.14 Y107.47 E767.155
G1 X166.35 Y108.66 E767.305
G1 X166.54 Y109.85 E767.456
G1 X166.7 Y111.05 E767.607
G1 X166.83 Y112.25 E767.758
G1 X166.94 Y113.45 E767.908
G1 X167.01 Y114.66 E768.059
G1 X167.07 Y115.88 E768.211
G1 X167.09 Y117.08 E768.361
G1 Y120.43 E768.779
G1 Y123.78 E769.196
G1 Y127.13 E769.614
G1 X167.08 Y127.47 E769.657
G1 X167.03 Y127.79 E769.697
G1 X166.9 Y128.24 E769.755
G1 X166.71 Y128.67 E769.815
G1 X166.46 Y129.05 E769.871
G1 X166.32 Y129.23 E769.899
G1 X166.07 Y129.47 E769.943
G1 X165.86 Y129.63 E769.976
G1 X165.54 Y129.83 E770.022
G1 X165.36 Y129.9 E770.047
G1 X164.95 Y130.02 E770.1
G1 X164.65 Y130.06 E770.137
G1 X161.67 E770.51
G1 X158.68 E770.882
G1 X158.37 Y130.04 E770.921
G1 X158.11 Y129.97 E770.955
G1 X157.75 Y129.85 E771.002
G1 X157.52 Y129.72 E771.035
G1 X157.3 Y129.57 E771.068
G1 X157.11 Y129.41 E771.099
G1 X156.94 Y129.24 E771.13
G1 X156.75 Y129 E771.167
G1 X156.54 Y128.66 E771.218
G1 X156.35 Y128.23 E771.276
G1 X156.22 Y127.79 E771.333
G1 X156.16 Y127.35 E771.388
G1 Y122.41 E772.004
G1 Y117.47 E772.621
G1 X156.12 Y115.78 E772.832
G1 X156.05 Y114.42 E773.001
G1 X155.89 Y112.73 E773.213
G1 X155.76 Y111.72 E773.341
G1 X155.56 Y110.38 E773.51
G1 X155.23 Y108.71 E773.721
G1 X155.01 Y107.71 E773.849
G1 X154.68 Y106.4 E774.018
G1 X154.19 Y104.77 E774.23
G1 X153.77 Y103.48 E774.399
G1 X153.17 Y101.89 E774.611
G1 X152.65 Y100.64 E774.78
G1 X151.94 Y99.1 E774.992
G1 X151.33 Y97.88 E775.161
G1 X150.5 Y96.39 E775.373
G1 X149.63 Y94.95 E775.584
G1 X148.7 Y93.53 E775.796
G1 X147.7 Y92.15 E776.009
G1 X146.87 Y91.08 E776.178
G1 X145.78 Y89.77 E776.39
G1 X144.87 Y88.76 E776.559
G1 X143.69 Y87.55 E776.771
G1 X142.71 Y86.6 E776.94
G1 X141.44 Y85.47 E777.152
G1 X140.4 Y84.61 E777.321
G1 X139.05 Y83.57 E777.533
G1 X137.95 Y82.78 E777.702
G1 X136.53 Y81.85 E777.914
G1 X135.37 Y81.14 E778.084
G1 X133.89 Y80.31 E778.295
G1 X132.68 Y79.68 E778.465
G1 X131.14 Y78.96 E778.677
G1 X130.21 Y78.56 E778.804
G1 X128.95 Y78.06 E778.973
G1 X127.35 Y77.49 E779.185
G1 X126.37 Y77.18 E779.312
G1 X125.07 Y76.8 E779.481
G1 X123.43 Y76.39 E779.693
G1 X122.43 Y76.17 E779.82
G1 X121.1 Y75.92 E779.989
G1 X119.42 Y75.67 E780.201
G1 X118.07 Y75.51 E780.371
G1 X116.37 Y75.39 E780.582
G1 X115.35 Y75.34 E780.71
G1 X114 Y75.32 E780.879
G1 X112.3 Y75.35 E781.091
G1 X110.95 Y75.43 E781.26
G1 X109.25 Y75.59 E781.472
G1 X108.24 Y75.72 E781.599
G1 X106.9 Y75.92 E781.768
G1 X105.23 Y76.24 E781.98
G1 X104.24 Y76.47 E782.107
G1 X102.92 Y76.8 E782.276
G1 X101.29 Y77.28 E782.488
G1 X100.01 Y77.71 E782.658
G1 X98.42 Y78.31 E782.869
G1 X97.16 Y78.83 E783.039
G1 X95.62 Y79.54 E783.251
G1 X94.41 Y80.15 E783.42
G1 X92.92 Y80.97 E783.632
G1 X92.04 Y81.49 E783.759
G1 X91.18 Y82.03 E783.886
G1 X90.05 Y82.78 E784.055
G1 X88.67 Y83.78 E784.267
G1 X87.6 Y84.61 E784.436
G1 X86.3 Y85.7 E784.648
G1 X85.29 Y86.6 E784.817
G1 X84.07 Y87.79 E785.029
G1 X83.13 Y88.77 E785.199
G1 X82 Y90.04 E785.411
G1 X81.13 Y91.08 E785.58
G1 X80.1 Y92.43 E785.792
G1 X79.3 Y93.53 E785.961
G1 X78.37 Y94.95 E786.173
G1 X77.66 Y96.1 E786.342
G1 X76.83 Y97.59 E786.554
G1 X76.21 Y98.79 E786.723
G1 X75.49 Y100.33 E786.935
G1 X75.09 Y101.27 E787.062
G1 X74.58 Y102.53 E787.232
G1 X74.01 Y104.13 E787.443
G1 X73.7 Y105.1 E787.571
G1 X73.32 Y106.4 E787.74
G1 X72.91 Y108.05 E787.952
G1 X72.7 Y109.05 E788.079
G1 X72.44 Y110.38 E788.248
G1 X72.19 Y112.06 E788.46
G1 X72.04 Y113.41 E788.629
G1 X71.91 Y115.1 E788.841
G1 X71.87 Y116.12 E788.968
G1 X71.84 Y117.88 E789.187
G1 X71.83 Y117.98
G1 X74.83
G1 X70.81 Y118.98 F9000
G1 E786.187 F1800
G1 Z1.3
G1 X69.59 Y126.86 F9000
G1 X68.37 Y134.74
G1 X67.15 Y142.63
G1 X65.93 Y150.51
G1 X64.71 Y158.39
G1 X63.49 Y166.28
G1 X62.26 Y174.16
G1 X61.04 Y182.05
G1 X59.82 Y189.93
; TYPE:FILL
G1 Z0.8
G1 E789.187 F1800
G1 X60.6 Y190.71 E789.325 F3600
G1 X62.01 F9000
G1 X59.82 Y188.52 E789.711 F3600
G1 Y187.1 F9000
G1 X63.43 Y190.71 E790.347 F3600
G1 X64.84 F9000
G1 X62.33 Y188.2 E790.79 F3600
G1 X59.82 Y185.69 E791.233
G1 Y184.27 F9000
G1 X63.04 Y187.49 E791.8 F3600
G1 X66.26 Y190.71 E792.368
G1 X67.67 F9000
G1 X65.05 Y188.09 E792.829 F3600
G1 X62.44 Y185.47 E793.29
G1 X59.82 Y182.86 E793.752
G1 Y181.44 F9000
G1 X62.91 Y184.53 E794.296 F3600
G1 X66 Y187.62 E794.841
G1 X69.08 Y190.71 E795.386
G1 X70.5 F9000
G1 X67.83 Y188.04 E795.856 F3600
G1 X65.16 Y185.37 E796.327
G1 X62.49 Y182.7 E796.798
G1 X59.82 Y180.03 E797.269
G1 Y178.62 F9000
G1 X62.84 Y181.64 E797.802 F3600
G1 X65.87 Y184.66 E798.335
G1 X68.89 Y187.68 E798.868
G1 X71.91 Y190.71 E799.401
G1 X72.93 Y190.31 F9000
G1 X69.66 Y187.03 E799.979 F3600
G1 X66.38 Y183.76 E800.558
G1 X63.1 Y180.48 E801.136
G1 X59.82 Y177.2 E801.714
G1 Y175.79 F9000
G1 X63.1 Y179.06 E802.292 F3600
G1 X66.38 Y182.34 E802.871
G1 X69.66 Y185.62 E803.449
G1 X72.93 Y188.9 E804.027
G1 Y187.49 F9000
G1 X69.65 Y184.21 E804.605 F3600
G1 X66.38 Y180.93 E805.184
G1 X63.1 Y177.65 E805.762
G1 X59.82 Y174.37 E806.34
G1 Y172.96 F9000
G1 X63.1 Y176.24 E806.918 F3600
G1 X66.38 Y179.51 E807.497
G1 X69.65 Y182.79 E808.075
G1 X72.93 Y186.07 E808.653
G1 Y184.66 F9000
G1 X69.65 Y181.38 E809.231 F3600
G1 X66.38 Y178.1 E809.81
G1 X63.1 Y174.82 E810.388
G1 X59.82 Y171.54 E810.966
G1 Y170.13 F9000
G1 X63.1 Y173.41 E811.544 F3600
G1 X66.38 Y176.69 E812.123
G1 X69.65 Y179.96 E812.701
G1 X72.93 Y183.24 E813.279
G1 Y181.83 F9000
G1 X69.65 Y178.55 E813.857 F3600
G1 X66.38 Y175.27 E814.436
G1 X63.1 Y171.99 E815.014
G1 X59.82 Y168.71 E815.592
G1 Y167.3 F9000
G1 X63.1 Y170.58 E816.17 F3600
G1 X66.38 Y173.86 E816.749
G1 X69.65 Y177.14 E817.327
G1 X72.93 Y180.41 E817.905
G1 Y179 F9000
G1 X69.65 Y175.72 E818.484 F3600
G1 X66.38 Y172.44 E819.062
G1 X63.1 Y169.16 E819.64
G1 X59.82 Y165.89 E820.218
G1 Y164.47 F9000
G1 X63.1 Y167.75 E820.797 F3600
G1 X66.38 Y171.03 E821.375
G1 X69.65 Y174.31 E821.953
G1 X72.93 Y177.59 E822.532
G1 Y176.17 F9000
G1 X69.65 Y172.89 E823.11 F3600
G1 X66.38 Y169.61 E823.688
G1 X63.1 Y166.34 E824.266
G1 X59.82 Y163.06 E824.845
G1 Y161.64 F9000
G1 X63.1 Y164.92 E825.423 F3600
G1 X66.38 Y168.2 E826.001
G1 X69.65 Y171.48 E826.58
G1 X72.93 Y174.76 E827.158
G1 Y173.34 F9000
G1 X69.65 Y170.06 E827.736 F3600
G1 X66.38 Y166.79 E828.315
G1 X63.1 Y163.51 E828.893
G1 X59.82 Y160.23 E829.471
G1 Y158.81 F9000
G1 X63.1 Y162.09 E830.049 F3600
G1 X66.38 Y165.37 E830.628
G1 X69.65 Y168.65 E831.206
G1 X72.93 Y171.93 E831.784
G1 Y170.51 F9000
G1 X69.65 Y167.24 E832.363 F3600
G1 X66.38 Y163.96 E832.941
G1 X63.1 Y160.68 E833.519
G1 X59.82 Y157.4 E834.098
G1 Y155.99 F9000
G1 X63.1 Y159.26 E834.676 F3600
G1 X66.38 Y162.54 E835.254
G1 X69.65 Y165.82 E835.832
G1 X72.93 Y169.1 E836.411
G1 Y167.69 F9000
G1 X69.65 Y164.41 E836.989 F3600
G1 X66.38 Y161.13 E837.568
G1 X63.1 Y157.85 E838.146
G1 X59.82 Y154.57 E838.724
G1 Y153.16 F9000
G1 X63.1 Y156.43 E839.303 F3600
G1 X66.38 Y159.71 E839.881
G1 X69.65 Y162.99 E840.459
G1 X72.93 Y166.27 E841.038
G1 Y164.86 F9000
G1 X69.65 Y161.58 E841.616 F3600
G1 X66.38 Y158.3 E842.194
G1 X63.1 Y155.02 E842.773
G1 X59.82 Y151.74 E843.351
G1 Y150.33 F9000
G1 X63.1 Y153.61 E843.929 F3600
G1 X66.38 Y156.89 E844.508
G1 X69.65 Y160.16 E845.086
G1 X72.93 Y163.44 E845.664
G1 Y162.03 F9000
G1 X69.65 Y158.75 E846.243 F3600
G1 X66.38 Y155.47 E846.821
G1 X63.1 Y152.19 E847.399
G1 X59.82 Y148.91 E847.978
G1 Y147.5 F9000
G1 X63.1 Y150.78 E848.556 F3600
G1 X66.38 Y154.06 E849.134
G1 X69.65 Y157.34 E849.713
G1 X72.93 Y160.62 E850.291
G1 Y159.2 F9000
G1 X69.65 Y155.92 E850.87 F3600
G1 X66.38 Y152.64 E851.448
G1 X63.1 Y149.36 E852.026
G1 X59.82 Y146.08 E852.605
G1 Y144.67 F9000
G1 X63.1 Y147.95 E853.183 F3600
G1 X66.38 Y151.23 E853.762
G1 X69.65 Y154.51 E854.34
G1 X72.93 Y157.79 E854.918
G1 Y156.37 F9000
G1 X69.65 Y153.09 E855.497 F3600
G1 X66.38 Y149.81 E856.075
G1 X63.1 Y146.54 E856.653
G1 X59.82 Y143.26 E857.232
G1 Y141.84 F9000
G1 X63.1 Y145.12 E857.81 F3600
G1 X66.37 Y148.4 E858.389
G1 X69.65 Y151.68 E858.967
G1 X72.93 Y154.96 E859.545
G1 Y153.54 F9000
G1 X69.65 Y150.26 E860.124 F3600
G1 X66.37 Y146.99 E860.702
G1 X63.1 Y143.71 E861.281
G1 X59.82 Y140.43 E861.859
G1 Y139.01 F9000
G1 X63.1 Y142.29 E862.437 F3600
G1 X66.37 Y145.57 E863.016
G1 X69.65 Y148.85 E863.594
G1 X72.93 Y152.13 E864.173
G1 Y150.72 F9000
G1 X69.65 Y147.44 E864.751 F3600
G1 X66.37 Y144.16 E865.33
G1 X63.1 Y140.88 E865.908
G1 X59.82 Y137.6 E866.486
G1 Y136.18 F9000
G1 X63.1 Y139.46 E867.065 F3600
G1 X66.37 Y142.74 E867.643
G1 X69.65 Y146.02 E868.222
G1 X72.93 Y149.3 E868.8
G1 Y147.89 F9000
G1 X69.65 Y144.61 E869.379 F3600
G1 X66.37 Y141.33 E869.957
G1 X63.1 Y138.05 E870.535
G1 X59.82 Y134.77 E871.114
G1 Y133.36 F9000
G1 X63.1 Y136.63 E871.692 F3600
G1 X66.37 Y139.91 E872.271
G1 X69.65 Y143.19 E872.849
G1 X72.93 Y146.47 E873.428
G1 Y145.06 F9000
G1 X69.65 Y141.78 E874.006 F3600
G1 X66.37 Y138.5 E874.584
G1 X63.1 Y135.22 E875.163
G1 X59.82 Y131.94 E875.741
G1 Y130.53 F9000
G1 X63.1 Y133.81 E876.32 F3600
G1 X66.37 Y137.09 E876.898
G1 X69.65 Y140.36 E877.477
G1 X72.93 Y143.64 E878.055
G1 Y142.23 F9000
G1 X69.65 Y138.95 E878.634 F3600
G1 X66.37 Y135.67 E879.212
G1 X63.09 Y132.39 E879.79
G1 X59.82 Y129.11 E880.369
G1 Y127.7 F9000
G1 X63.09 Y130.98 E880.947 F3600
G1 X66.37 Y134.26 E881.526
G1 X69.65 Y137.54 E882.104
G1 X72.93 Y140.82 E882.683
G1 Y139.4 F9000
G1 X69.65 Y136.12 E883.261 F3600
G1 X66.37 Y132.84 E883.84
G1 X63.09 Y129.56 E884.418
G1 X59.82 Y126.28 E884.997
G1 Y124.87 F9000
G1 X63.09 Y128.15 E885.575 F3600
G1 X66.37 Y131.43 E886.154
G1 X69.65 Y134.71 E886.732
G1 X72.93 Y137.99 E887.311
G1 Y136.57 F9000
G1 X69.65 Y133.29 E887.889 F3600
G1 X66.37 Y130.01 E888.468
G1 X63.09 Y126.73 E889.046
G1 X59.82 Y123.46 E889.624
G1 X59.81 Y122.04 F9000
G1 X63.09 Y125.32 E890.203 F3600
G1 X66.37 Y128.6 E890.781
G1 X69.65 Y131.88 E891.36
G1 X72.93 Y135.16 E891.939
G1 Y133.75 F9000
G1 X69.65 Y130.47 E892.517 F3600
G1 X66.37 Y127.19 E893.096
G1 X63.09 Y123.91 E893.674
G1 X59.81 Y120.63 E894.253
G1 X60.52 Y119.91 F9000
G1 X63.62 Y123.02 E894.8 F3600
G1 X66.73 Y126.12 E895.348
G1 X69.83 Y129.23 E895.895
G1 X72.93 Y132.33 E896.443
G1 Y130.92 F9000
G1 X70.18 Y128.17 E896.928 F3600
G1 X67.43 Y125.41 E897.413
G1 X64.68 Y122.66 E897.898
G1 X61.93 Y119.91 E898.383
G1 X62.83 Y119.39 F9000
G1 X66.2 Y122.76 E898.978 F3600
G1 X69.56 Y126.13 E899.572
G1 X72.93 Y129.5 E900.166
G1 Y128.09 F9000
G1 X69.57 Y124.72 E900.76 F3600
G1 X66.21 Y121.36 E901.353
G1 X62.84 Y118 E901.946
G1 X62.86 Y116.6 F9000
G1 X66.22 Y119.96 E902.539 F3600
G1 X69.57 Y123.31 E903.131
G1 X72.93 Y126.67 E903.723
G1 Y125.26 F9000
G1 X69.59 Y121.91 E904.313 F3600
G1 X66.24 Y118.57 E904.903
G1 X62.9 Y115.23 E905.493
G1 X62.98 Y113.89 F9000
G1 X66.3 Y117.21 E906.078 F3600
G1 X69.61 Y120.53 E906.664
G1 X72.93 Y123.85 E907.249
G1 Y122.43 F9000
G1 X70.42 Y119.91 E907.693 F3600
G1 X69.87 Y119.36 F9000
G1 X66.48 Y115.97 E908.291 F3600
G1 X63.09 Y112.58 E908.889
G1 X63.23 Y111.31 F9000
G1 X66.56 Y114.64 E909.477 F3600
G1 X69.89 Y117.98 E910.065
G1 X69.92 Y116.59 F9000
G1 X66.66 Y113.32 E910.64 F3600
G1 X63.39 Y110.06 E911.216
G1 X63.59 Y108.84 F9000
G1 X66.78 Y112.03 E911.779 F3600
G1 X69.97 Y115.22 E912.341
G1 X70.06 Y113.9 F9000
G1 X66.93 Y110.77 E912.893 F3600
G1 X63.81 Y107.65 E913.444
G1 X64.05 Y106.47 F9000
G1 X67.11 Y109.54 E913.985 F3600
G1 X70.18 Y112.6 E914.526
G1 X70.34 Y111.35 F9000
G1 X67.33 Y108.34 E915.057 F3600
G1 X64.31 Y105.33 E915.588
G1 X64.6 Y104.2 F9000
G1 X67.56 Y107.16 E916.11 F3600
G1 X70.52 Y110.12 E916.632
G1 X70.74 Y108.93 F9000
G1 X67.83 Y106.01 E917.146 F3600
G1 X64.91 Y103.1 E917.66
G1 X65.24 Y102.01 F9000
G1 X68.12 Y104.89 E918.167 F3600
G1 X70.99 Y107.76 E918.674
G1 X71.27 Y106.62 F9000
G1 X68.43 Y103.79 E919.174 F3600
G1 X65.59 Y100.95 E919.675
G1 X65.96 Y99.9 F9000
G1 X68.76 Y102.7 E920.168 F3600
G1 X71.56 Y105.5 E920.662
G1 X71.89 Y104.41 F9000
G1 X69.12 Y101.65 E921.15 F3600
G1 X66.35 Y98.88 E921.638
G1 X66.76 Y97.87 F9000
G1 X69.5 Y100.61 E922.121 F3600
G1 X72.23 Y103.35 E922.604
G1 X72.6 Y102.3 F9000
G1 X69.89 Y99.59 E923.082 F3600
G1 X67.18 Y96.88 E923.56
G1 X67.62 Y95.91 F9000
G1 X70.31 Y98.59 E924.034 F3600
G1 X72.99 Y101.28 E924.507
G1 X73.4 Y100.27 F9000
G1 X70.74 Y97.61 E924.977 F3600
G1 X68.08 Y94.95 E925.446
G1 X68.55 Y94.01 F9000
G1 X71.19 Y96.65 E925.912 F3600
G1 X73.83 Y99.29 E926.377
G1 X74.28 Y98.33 F9000
G1 X71.66 Y95.71 E926.84 F3600
G1 X69.04 Y93.08 E927.302
G1 X69.55 Y92.17 F9000
G1 X72.15 Y94.78 E927.761 F3600
G1 X74.75 Y97.38 E928.22
G1 X75.24 Y96.45 F9000
G1 X72.66 Y93.87 E928.676 F3600
G1 X70.07 Y91.28 E929.133
G1 X70.6 Y90.4 F9000
G1 X73.18 Y92.97 E929.586 F3600
G1 X75.75 Y95.55 E930.04
G1 X76.27 Y94.66 F9000
G1 X73.71 Y92.1 E930.491 F3600
G1 X71.15 Y89.54 E930.943
G1 X71.72 Y88.69 F9000
G1 X74.27 Y91.24 E931.392 F3600
G1 X76.81 Y93.78 E931.841
G1 X77.37 Y92.93 F9000
G1 X74.84 Y90.39 E932.288 F3600
G1 X72.3 Y87.86 E932.736
G1 X72.9 Y87.04 F9000
G1 X75.42 Y89.56 E933.181 F3600
G1 X77.95 Y92.09 E933.627
G1 X78.54 Y91.27 F9000
G1 X76.02 Y88.75 E934.071 F3600
G1 X73.5 Y86.23 E934.515
G1 X74.12 Y85.44 F9000
G1 X76.64 Y87.95 E934.959 F3600
G1 X79.15 Y90.47 E935.402
G1 X79.77 Y89.67 F9000
G1 X77.27 Y87.17 E935.844 F3600
G1 X74.76 Y84.66 E936.286
G1 X75.41 Y83.9 F9000
G1 X77.92 Y86.4 E936.728 F3600
G1 X80.42 Y88.9 E937.169
G1 X81.08 Y88.15 F9000
G1 X78.58 Y85.65 E937.61 F3600
G1 X76.08 Y83.15 E938.05
G1 X76.76 Y82.42 F9000
G1 X79.25 Y84.91 E938.49 F3600
G1 X81.75 Y87.4 E938.93
G1 X82.44 Y86.68 F9000
G1 X79.95 Y84.19 E939.37 F3600
G1 X77.45 Y81.69 E939.81
G1 X78.16 Y80.99 F9000
G1 X80.65 Y83.48 E940.25 F3600
G1 X83.15 Y85.98 E940.69
G1 X83.87 Y85.28 F9000
G1 X81.37 Y82.79 E941.13 F3600
G1 X78.88 Y80.29 E941.571
G1 X79.61 Y79.61 F9000
G1 X82.11 Y82.11 E942.011 F3600
G1 X84.61 Y84.61 E942.452
G1 X85.36 Y83.95 F9000
G1 X82.86 Y81.45 E942.894 F3600
G1 X80.36 Y78.94 E943.335
G1 X81.12 Y78.29 F9000
G1 X83.63 Y80.8 E943.777 F3600
G1 X86.13 Y83.3 E944.219
G1 X86.92 Y82.68 F9000
G1 X84.41 Y80.17 E944.662 F3600
G1 X81.9 Y77.66 E945.105
G1 X82.69 Y77.03 F9000
G1 X85.21 Y79.55 E945.549 F3600
G1 X87.72 Y82.07 E945.993
G1 X88.55 Y81.47 F9000
G1 X86.02 Y78.95 E946.439 F3600
G1 X83.49 Y76.42 E946.884
G1 X84.31 Y75.82 F9000
G1 X86.85 Y78.36 E947.332 F3600
G1 X89.38 Y80.9 E947.779
G1 X90.23 Y80.33 F9000
G1 X87.69 Y77.79 E948.228 F3600
G1 X85.14 Y75.24 E948.677
G1 X85.99 Y74.68 F9000
G1 X88.55 Y77.23 E949.128 F3600
G1 X91.1 Y79.79 E949.58
G1 X91.99 Y79.26 F9000
G1 X89.42 Y76.69 E950.033 F3600
G1 X86.85 Y74.13 E950.486
G1 X87.73 Y73.59 F9000
G1 X90.32 Y76.17 E950.942 F3600
G1 X92.9 Y78.76 E951.399
G1 X93.82 Y78.27 F9000
G1 X91.22 Y75.67 E951.857 F3600
G1 X88.62 Y73.07 E952.316
G1 X89.53 Y72.56 F9000
G1 X92.15 Y75.18 E952.778 F3600
G1 X94.77 Y77.8 E953.239
G1 X95.73 Y77.35 F9000
G1 X93.09 Y74.71 E953.705 F3600
G1 X90.45 Y72.07 E954.171
G1 X91.39 Y71.59 F9000
G1 X94.05 Y74.25 E954.64 F3600
G1 X96.71 Y76.91 E955.109
G1 X97.71 Y76.5 F9000
G1 X95.03 Y73.82 E955.582 F3600
G1 X92.35 Y71.13 E956.055
G1 X93.32 Y70.69 F9000
G1 X96.03 Y73.4 E956.533 F3600
G1 X98.74 Y76.11 E957.011
G1 X99.78 Y75.74 F9000
G1 X97.04 Y73 E957.493 F3600
G1 X94.31 Y70.27 E957.976
G1 X95.32 Y69.86 F9000
G1 X98.08 Y72.63 E958.463 F3600
G1 X100.85 Y75.39 E958.951
G1 X101.94 Y75.07 F9000
G1 X99.14 Y72.27 E959.445 F3600
G1 X96.34 Y69.47 E959.938
G1 X97.38 Y69.1 F9000
G1 X100.22 Y71.93 E960.438 F3600
G1 X103.05 Y74.77 E960.938
G1 X104.19 Y74.49 F9000
G1 X101.32 Y71.62 E961.444 F3600
G1 X98.45 Y68.75 E961.95
G1 X99.53 Y68.42 F9000
G1 X102.44 Y71.33 E962.464 F3600
G1 X105.36 Y74.24 E962.978
G1 X106.54 Y74.01 F9000
G1 X103.59 Y71.06 E963.499 F3600
G1 X100.63 Y68.1 E964.02
G1 X101.76 Y67.81 F9000
G1 X104.76 Y70.82 E964.55 F3600
G1 X107.77 Y73.82 E965.08
G1 X109.02 Y73.66 F9000
G1 X105.96 Y70.6 E965.62 F3600
G1 X102.9 Y67.55 E966.159
G1 X104.07 Y67.3 F9000
G1 X107.19 Y70.42 E966.709 F3600
G1 X110.31 Y73.54 E967.26
G1 X111.63 Y73.45 F9000
G1 X108.45 Y70.26 E967.821 F3600
G1 X105.26 Y67.08 E968.383
G1 X106.48 Y66.88 F9000
G1 X109.74 Y70.14 E968.958 F3600
G1 X113 Y73.4 E969.533
G1 X114.4 Y73.38 F9000
G1 X111.06 Y70.05 E970.121 F3600
G1 X107.72 Y66.71 E970.71
G1 X109 Y66.57 F9000
G1 X112.42 Y70 E971.314 F3600
G1 X115.85 Y73.42 E971.919
G1 X117.36 Y73.52 F9000
G1 X113.83 Y69.99 E972.541 F3600
G1 X110.3 Y66.46 E973.163
G1 X111.64 Y66.38 F9000
G1 X114.06 Y68.81 E973.591 F3600
G1 X116.49 Y71.23 E974.019
G1 X118.91 Y73.66 E974.446
G1 X120.54 Y73.88 F9000
G1 X118.03 Y71.36 E974.89 F3600
G1 X115.52 Y68.85 E975.333
G1 X113.01 Y66.34 E975.776
G1 X114.41 Y66.33 F9000
G1 X117.02 Y68.94 E976.237 F3600
G1 X119.63 Y71.55 E976.697
G1 X122.25 Y74.16 E977.158
G1 X124.04 Y74.54 F9000
G1 X121.31 Y71.81 E977.639 F3600
G1 X118.58 Y69.09 E978.12
G1 X115.86 Y66.36 E978.601
G1 X117.35 Y66.44 F9000
G1 X120.21 Y69.3 E979.106 F3600
G1 X123.08 Y72.17 E979.612
G1 X125.94 Y75.03 E980.117
G1 X127.98 Y75.66 F9000
G1 X124.95 Y72.62 E980.652 F3600
G1 X121.92 Y69.59 E981.187
G1 X118.89 Y66.56 E981.721
G1 X120.48 Y66.74 F9000
G1 X123.72 Y69.98 E982.294 F3600
G1 X126.97 Y73.23 E982.866
G1 X130.22 Y76.48 E983.439
G1 X132.71 Y77.55 F9000
G1 X129.18 Y74.03 E984.061 F3600
G1 X125.66 Y70.5 E984.683
G1 X122.13 Y66.98 E985.304
G1 X123.85 Y67.28 F9000
G1 X126.8 Y70.23 E985.823 F3600
G1 X129.74 Y73.17 E986.342
G1 X132.68 Y76.11 E986.861
G1 X135.62 Y79.05 E987.38
G1 E984.38 F1800
G1 Z1.3
G1 X139.47 Y81.48 F9000
G1 Z0.8
G1 E987.38 F1800
G1 X136.01 Y78.03 E987.989 F3600
G1 X132.56 Y74.58 E988.598
G1 X129.11 Y71.13 E989.207
G1 X125.66 Y67.67 E989.816
G1 E986.816 F1800
G1 Z1.3
G1 X132.29 Y74.82 F9000
G1 X138.93 Y81.96
G1 X144.82 Y87.84
G1 X150.71 Y93.71
G1 X156.4 Y107.08
G1 X157.75 Y120.98
G1 X158.1 Y126.99
G1 Z0.8
G1 E989.816 F1800
G1 X159.23 Y128.11 E990.014 F3600
G1 X160.64 F9000
G1 X158.1 Y125.57 E990.463 F3600
G1 Y124.16 F9000
G1 X162.06 Y128.12 E991.161 F3600
G1 X163.47 F9000
G1 X160.78 Y125.43 E991.635 F3600
G1 X158.1 Y122.74 E992.108
G1 Y121.33 F9000
G1 X161.44 Y124.67 E992.698 F3600
G1 X164.78 Y128.01 E993.287
G1 X165.14 Y126.96 F9000
G1 X161.62 Y123.44 E993.908 F3600
G1 X158.1 Y119.91 E994.53
G1 Y118.5 F9000
G1 X161.62 Y122.02 E995.151 F3600
G1 X165.14 Y125.54 E995.772
G1 Y124.13 F9000
G1 X161.62 Y120.6 E996.394 F3600
G1 X158.09 Y117.08 E997.017
G1 X158.05 Y115.63 F9000
G1 X160.42 Y117.99 E997.434 F3600
G1 X162.78 Y120.35 E997.851
G1 X165.14 Y122.72 E998.268
G1 Y121.3 F9000
G1 X162.75 Y118.91 E998.69 F3600
G1 X160.36 Y116.52 E999.112
G1 X157.97 Y114.12 E999.534
G1 X157.82 Y112.56 F9000
G1 X160.26 Y115.01 E999.965 F3600
G1 X162.7 Y117.45 E1000.396
G1 X165.15 Y119.89 E1000.827
G1 Y118.48 F9000
G1 X162.63 Y115.96 E1001.27 F3600
G1 X160.12 Y113.45 E1001.714
G1 X157.6 Y110.93 E1002.158
G1 X157.31 Y109.22 F9000
G1 X159.92 Y111.84 E1002.618 F3600
G1 X162.53 Y114.45 E1003.079
G1 X165.15 Y117.06 E1003.54
G1 X165.11 Y115.61 F9000
G1 X162.39 Y112.89 E1004.021 F3600
G1 X159.66 Y110.16 E1004.502
G1 X156.93 Y107.44 E1004.983
G1 X156.44 Y105.53 F9000
G1 X159.3 Y108.39 E1005.488 F3600
G1 X162.17 Y111.26 E1005.994
G1 X165.04 Y114.12 E1006.499
G1 X164.91 Y112.59 F9000
G1 X161.88 Y109.55 E1007.034 F3600
G1 X158.84 Y106.52 E1007.57
G1 X155.81 Y103.48 E1008.105
G1 X155 Y101.26 F9000
G1 X158.25 Y104.51 E1008.677 F3600
G1 X161.49 Y107.75 E1009.249
G1 X164.73 Y110.99 E1009.821
G1 X164.49 Y109.34 F9000
G1 X160.97 Y105.82 E1010.443 F3600
G1 X157.44 Y102.29 E1011.064
G1 X153.92 Y98.77 E1011.686
G1 X152.42 Y95.85 F9000
G1 X155.36 Y98.79 E1012.205 F3600
G1 X158.3 Y101.74 E1012.724
G1 X161.25 Y104.68 E1013.243
G1 X164.19 Y107.62 E1013.762
G1 X163.8 Y105.82 F9000
G1 X160.35 Y102.36 E1014.371 F3600
G1 X156.89 Y98.91 E1014.98
G1 X153.44 Y95.46 E1015.589
G1 X149.99 Y92.01 E1016.198
G1 E1013.198 F1800
G1 Z1.3
G1 X156.65 Y97.96 F9000
G1 X163.32 Y103.92
G1 Z0.8
G1 E1016.198 F1800
G1 X160.07 Y100.67 E1016.772 F3600
G1 X156.81 Y97.42 E1017.345
G1 X153.56 Y94.17 E1017.919
G1 X150.31 Y90.91 E1018.493
G1 X147.06 Y87.66 E1019.066
G1 X143.81 Y84.41 E1019.64
G1 X140.56 Y81.16 E1020.213
G1 X137.3 Y77.91 E1020.787
G1 X134.05 Y74.66 E1021.36
G1 X130.8 Y71.4 E1021.934
G1 X127.55 Y68.15 E1022.507
G1 X129.56 Y68.75 F9000
G1 X132.88 Y72.07 E1023.092 F3600
G1 X136.19 Y75.38 E1023.677
G1 X139.51 Y78.7 E1024.262
G1 X142.83 Y82.01 E1024.847
G1 X146.14 Y85.33 E1025.431
G1 X149.46 Y88.65 E1026.016
G1 X152.77 Y91.96 E1026.601
G1 X156.09 Y95.28 E1027.186
G1 X159.4 Y98.59 E1027.771
G1 X162.72 Y101.91 E1028.356
G1 X161.98 Y99.75 F9000
G1 X158.62 Y96.39 E1028.949 F3600
G1 X155.25 Y93.03 E1029.542
G1 X151.89 Y89.67 E1030.135
G1 X148.53 Y86.3 E1030.728
G1 X145.17 Y82.94 E1031.321
G1 X141.81 Y79.58 E1031.914
G1 X138.44 Y76.22 E1032.507
G1 X135.08 Y72.86 E1033.1
G1 X131.72 Y69.49 E1033.693
G1 X134.06 Y70.43 F9000
G1 X137.44 Y73.8 E1034.288 F3600
G1 X140.81 Y77.17 E1034.883
G1 X144.18 Y80.54 E1035.478
G1 X147.55 Y83.91 E1036.073
G1 X150.93 Y87.29 E1036.667
G1 X154.3 Y90.66 E1037.262
G1 X157.67 Y94.03 E1037.857
G1 X161.04 Y97.4 E1038.452
G1 X159.84 Y94.79 F9000
G1 X156.53 Y91.48 E1039.035 F3600
G1 X153.23 Y88.17 E1039.618
G1 X149.92 Y84.86 E1040.202
G1 X146.61 Y81.56 E1040.785
G1 X143.31 Y78.25 E1041.368
G1 X140 Y74.94 E1041.951
G1 X136.69 Y71.64 E1042.535
G1 X139.75 Y73.29 F9000
G1 X142.83 Y76.36 E1043.077 F3600
G1 X145.9 Y79.43 E1043.619
G1 X148.97 Y82.51 E1044.161
G1 X152.05 Y85.58 E1044.703
G1 X155.12 Y88.65 E1045.245
G1 X158.19 Y91.72 E1045.787
G1 E1042.787 F1800
G1 Z1.3
G1 X155.61 Y87.72 F9000
G1 Z0.8
G1 E1045.787 F1800
G1 X152.64 Y84.76 E1046.309 F3600
G1 X149.68 Y81.8 E1046.831
G1 X146.72 Y78.84 E1047.353
G1 X143.76 Y75.88 E1047.876
G1 E1044.876 F1800
G1 Z1.3
G1 X134.74 Y75.49 F9000
G1 X125.72 Y75.09
G1 X114 Y73.57
G1 X106.01 Y75.02
G1 X98.02 Y76.48
G1 X87.47 Y82.68
G1 X77.4 Y93.58
G1 X71.56 Y105.78
G1 X70.12 Y115.39
G1 X72.93 Y121.02
G1 Z0.8
G1 E1047.876 F1800
G1 X71.83 Y119.91 E1048.07 F3600
; Layer Change GCode
; LAYER:2
; LAYER_HEIGHT:0.3
; TYPE:FILL
G1 X71.37 Y118.98 Z1.1 F9000
; TYPE:WALL-INNER
G1 X74.1 E1048.41 F3600
G1 Y123.82 E1049.015
G1 Y128.66 E1049.619
G1 Y133.51 E1050.223
G1 Y138.35 E1050.827
G1 Y143.2 E1051.432
G1 Y148.04 E1052.036
G1 Y152.89 E1052.64
G1 Y157.73 E1053.245
G1 Y162.58 E1053.849
G1 Y167.42 E1054.453
G1 Y172.27 E1055.057
G1 Y177.11 E1055.662
G1 Y181.96 E1056.266
G1 Y186.8 E1056.87
G1 Y191.65 E1057.475
G1 X74.08 Y191.74 E1057.486
G1 X74.07 Y191.77 E1057.49
G1 X74.03 Y191.82 E1057.498
G1 X73.97 Y191.85 E1057.507
G1 X73.96 Y191.86 E1057.508
G1 X73.9 Y191.87 E1057.515
G1 X70.14 E1057.985
G1 X66.37 E1058.454
G1 X62.61 E1058.923
G1 X58.85 E1059.392
G1 X58.78 Y191.86 E1059.401
G1 X58.74 Y191.83 E1059.407
G1 X58.72 Y191.82 E1059.41
G1 X58.7 Y191.8 E1059.414
G1 X58.67 Y191.72 E1059.424
G1 X58.65 Y191.65 E1059.433
G1 Y186.8 E1060.038
G1 Y181.96 E1060.642
G1 Y177.11 E1061.246
G1 Y172.27 E1061.85
G1 Y167.42 E1062.455
G1 Y162.58 E1063.059
G1 Y157.73 E1063.663
G1 Y152.89 E1064.268
G1 Y148.04 E1064.872
G1 Y143.2 E1065.476
G1 Y138.35 E1066.081
G1 Y133.51 E1066.685
G1 Y128.66 E1067.289
G1 Y123.82 E1067.893
G1 Y118.98 E1068.498
G1 X61.34 E1068.833
G1 X61.37 Y116.26 E1069.172
G1 X61.41 Y115.1 E1069.317
G1 X61.49 Y113.87 E1069.471
G1 X61.58 Y112.7 E1069.616
G1 X61.7 Y111.48 E1069.77
G1 X61.85 Y110.32 E1069.915
G1 X62.03 Y109.11 E1070.069
G1 X62.23 Y107.96 E1070.214
G1 X62.47 Y106.75 E1070.368
G1 X62.71 Y105.61 E1070.513
G1 X63 Y104.45 E1070.663
G1 X63.31 Y103.29 E1070.812
G1 X63.64 Y102.14 E1070.961
G1 X64.02 Y100.97 E1071.115
G1 X64.41 Y99.83 E1071.264
G1 X64.81 Y98.74 E1071.41
G1 X65.26 Y97.59 E1071.564
G1 X65.73 Y96.49 E1071.713
G1 X66.2 Y95.42 E1071.858
G1 X66.73 Y94.31 E1072.012
G1 X67.25 Y93.27 E1072.157
G1 X67.83 Y92.18 E1072.311
G1 X68.41 Y91.17 E1072.456
G1 X69.03 Y90.11 E1072.61
G1 X69.65 Y89.12 E1072.755
G1 X70.33 Y88.09 E1072.909
G1 X71.01 Y87.1 E1073.058
G1 X71.69 Y86.16 E1073.203
G1 X72.41 Y85.21 E1073.353
G1 X73.18 Y84.24 E1073.507
G1 X73.92 Y83.35 E1073.652
G1 X74.73 Y82.42 E1073.805
G1 X75.52 Y81.56 E1073.951
G1 X76.35 Y80.69 E1074.1
G1 X77.22 Y79.82 E1074.254
G1 X78.08 Y78.99 E1074.403
G1 X78.94 Y78.21 E1074.548
G1 X79.87 Y77.4 E1074.702
G1 X80.77 Y76.65 E1074.847
G1 X81.73 Y75.89 E1075.001
G1 X82.69 Y75.16 E1075.151
G1 X83.63 Y74.48 E1075.296
G1 X84.62 Y73.8 E1075.445
G1 X85.65 Y73.13 E1075.599
G1 X86.64 Y72.5 E1075.746
G1 X87.69 Y71.88 E1075.898
G1 X88.72 Y71.3 E1076.045
G1 X89.8 Y70.73 E1076.197
G1 X90.84 Y70.21 E1076.342
G1 X91.95 Y69.68 E1076.496
G1 X93.01 Y69.2 E1076.641
G1 X94.12 Y68.74 E1076.79
G1 X95.26 Y68.28 E1076.944
G1 X96.36 Y67.88 E1077.089
G1 X97.5 Y67.49 E1077.241
G1 X98.65 Y67.12 E1077.391
G1 X99.81 Y66.78 E1077.542
G1 X100.95 Y66.48 E1077.689
G1 X102.12 Y66.19 E1077.839
G1 X103.27 Y65.94 E1077.986
G1 X104.48 Y65.7 E1078.14
G1 X105.63 Y65.51 E1078.285
G1 X106.85 Y65.32 E1078.439
G1 X108.02 Y65.18 E1078.585
G1 X109.22 Y65.05 E1078.736
G1 X110.39 Y64.96 E1078.883
G1 X111.62 Y64.89 E1079.037
G1 X112.79 Y64.85 E1079.183
G1 X114 Y64.84 E1079.333
G1 X115.21 Y64.85 E1079.484
G1 X116.38 Y64.89 E1079.63
G1 X117.61 Y64.96 E1079.784
G1 X118.78 Y65.05 E1079.931
G1 X119.98 Y65.18 E1080.081
G1 X121.15 Y65.32 E1080.228
G1 X122.37 Y65.51 E1080.382
G1 X123.52 Y65.7 E1080.527
G1 X124.73 Y65.94 E1080.68
G1 X125.88 Y66.19 E1080.827
G1 X127.05 Y66.48 E1080.978
G1 X128.19 Y66.78 E1081.125
G1 X129.35 Y67.12 E1081.276
G1 X130.5 Y67.49 E1081.426
G1 X131.64 Y67.88 E1081.577
G1 X132.74 Y68.28 E1081.723
G1 X133.88 Y68.74 E1081.876
G1 X134.99 Y69.2 E1082.026
G1 X136.05 Y69.68 E1082.171
G1 X137.16 Y70.21 E1082.325
G1 X138.2 Y70.73 E1082.47
G1 X139.28 Y71.3 E1082.621
G1 X140.31 Y71.88 E1082.769
G1 X141.36 Y72.5 E1082.921
G1 X142.35 Y73.13 E1083.068
G1 X143.38 Y73.8 E1083.221
G1 X144.37 Y74.48 E1083.371
G1 X145.31 Y75.16 E1083.516
G1 X146.27 Y75.89 E1083.666
G1 X147.23 Y76.65 E1083.819
G1 X148.13 Y77.4 E1083.964
G1 X149.06 Y78.21 E1084.118
G1 X149.92 Y78.99 E1084.263
G1 X150.78 Y79.82 E1084.413
G1 X151.65 Y80.69 E1084.566
G1 X152.48 Y81.56 E1084.716
G1 X153.27 Y82.42 E1084.861
G1 X154.08 Y83.35 E1085.015
G1 X154.82 Y84.24 E1085.16
G1 X155.59 Y85.21 E1085.314
G1 X156.31 Y86.16 E1085.463
G1 X156.99 Y87.1 E1085.608
G1 X157.67 Y88.09 E1085.758
G1 X158.35 Y89.12 E1085.911
G1 X158.97 Y90.11 E1086.057
G1 X159.59 Y91.17 E1086.21
G1 X160.17 Y92.18 E1086.356
G1 X160.75 Y93.27 E1086.509
G1 X161.27 Y94.31 E1086.655
G1 X161.8 Y95.42 E1086.808
G1 X162.27 Y96.49 E1086.954
G1 X162.74 Y97.59 E1087.103
G1 X163.19 Y98.74 E1087.257
G1 X163.59 Y99.83 E1087.402
G1 X163.98 Y100.97 E1087.552
G1 X164.35 Y102.11 E1087.701
G1 X164.69 Y103.29 E1087.855
G1 X164.99 Y104.41 E1088
G1 X165.29 Y105.61 E1088.154
G1 X165.53 Y106.75 E1088.299
G1 X165.77 Y107.96 E1088.452
G1 X165.97 Y109.11 E1088.598
G1 X166.15 Y110.32 E1088.751
G1 X166.3 Y111.48 E1088.897
G1 X166.42 Y112.67 E1089.046
G1 X166.51 Y113.87 E1089.196
G1 X166.59 Y115.1 E1089.349
G1 X166.63 Y116.26 E1089.494
G1 X166.64 Y117.47 E1089.646
G1 Y122.39 E1090.259
G1 X166.63 Y127.3 E1090.872
G1 X166.6 Y127.63 E1090.912
G1 X166.51 Y128 E1090.96
G1 X166.39 Y128.31 E1091.001
G1 X166.21 Y128.66 E1091.05
G1 X166.1 Y128.82 E1091.075
G1 X165.9 Y129.06 E1091.114
G1 X165.69 Y129.26 E1091.15
G1 X165.35 Y129.5 E1091.203
G1 X165.29 Y129.53 E1091.211
G1 X164.96 Y129.67 E1091.255
G1 X164.91 Y129.68 E1091.262
G1 X164.58 Y129.74 E1091.303
G1 X158.67 E1092.041
G1 X158.58 Y129.73 E1092.052
G1 X158.29 Y129.67 E1092.089
G1 X158.19 Y129.63 E1092.102
G1 X157.93 Y129.51 E1092.138
G1 X157.59 Y129.29 E1092.188
G1 X157.49 Y129.2 E1092.205
G1 X157.26 Y128.96 E1092.247
G1 X157.04 Y128.65 E1092.294
G1 X156.86 Y128.32 E1092.34
G1 X156.74 Y127.99 E1092.384
G1 X156.66 Y127.68 E1092.424
G1 X156.62 Y127.3 E1092.472
G1 X156.61 Y122.91 E1093.019
G1 Y118.52 E1093.567
G1 X156.6 Y116.45 E1093.825
G1 X156.56 Y115.42 E1093.954
G1 X156.5 Y114.39 E1094.083
G1 X156.41 Y113.36 E1094.211
G1 X156.3 Y112.34 E1094.34
G1 X156.16 Y111.32 E1094.468
G1 X156 Y110.3 E1094.596
G1 X155.82 Y109.29 E1094.725
G1 X155.61 Y108.28 E1094.853
G1 X155.37 Y107.28 E1094.982
G1 X155.11 Y106.28 E1095.11
G1 X154.83 Y105.29 E1095.239
G1 X154.53 Y104.31 E1095.367
G1 X154.2 Y103.33 E1095.496
G1 X153.84 Y102.36 E1095.624
G1 X153.46 Y101.41 E1095.752
G1 X153.07 Y100.46 E1095.881
G1 X152.64 Y99.52 E1096.009
G1 X152.2 Y98.59 E1096.137
G1 X151.73 Y97.67 E1096.266
G1 X151.24 Y96.77 E1096.395
G1 X150.73 Y95.87 E1096.523
G1 X150.25 Y95.08 E1096.638
G1 X149.7 Y94.22 E1096.766
G1 X149.07 Y93.27 E1096.908
G1 X148.47 Y92.43 E1097.037
G1 X147.86 Y91.6 E1097.165
G1 X147.22 Y90.79 E1097.294
G1 X146.57 Y90 E1097.422
G1 X145.89 Y89.22 E1097.55
G1 X145.2 Y88.46 E1097.679
G1 X144.49 Y87.71 E1097.807
G1 X143.76 Y86.98 E1097.936
G1 X143.02 Y86.27 E1098.064
G1 X142.26 Y85.58 E1098.192
G1 X141.48 Y84.91 E1098.321
G1 X140.68 Y84.25 E1098.449
G1 X139.87 Y83.62 E1098.578
G1 X139.05 Y83 E1098.706
G1 X138.21 Y82.41 E1098.835
G1 X137.35 Y81.83 E1098.963
G1 X136.48 Y81.28 E1099.092
G1 X135.6 Y80.75 E1099.22
G1 X134.71 Y80.23 E1099.348
G1 X133.8 Y79.74 E1099.477
G1 X132.88 Y79.28 E1099.605
G1 X131.96 Y78.83 E1099.734
G1 X131.02 Y78.41 E1099.862
G1 X130.07 Y78.01 E1099.991
G1 X129.11 Y77.63 E1100.119
G1 X128.14 Y77.28 E1100.247
G1 X127.17 Y76.95 E1100.376
G1 X126.19 Y76.64 E1100.504
G1 X125.19 Y76.36 E1100.633
G1 X124.2 Y76.1 E1100.761
G1 X123.19 Y75.87 E1100.89
G1 X122.19 Y75.66 E1101.018
G1 X121.17 Y75.47 E1101.147
G1 X120.16 Y75.31 E1101.275
G1 X119.14 Y75.17 E1101.403
G1 X118.11 Y75.06 E1101.532
G1 X117.09 Y74.98 E1101.66
G1 X116.06 Y74.91 E1101.789
G1 X115.03 Y74.88 E1101.917
G1 X114 Y74.86 E1102.046
G1 X112.97 Y74.88 E1102.174
G1 X111.94 Y74.91 E1102.302
G1 X110.91 Y74.98 E1102.431
G1 X109.89 Y75.06 E1102.559
G1 X108.86 Y75.17 E1102.688
G1 X107.84 Y75.31 E1102.816
G1 X106.83 Y75.47 E1102.944
G1 X105.81 Y75.66 E1103.073
G1 X104.81 Y75.87 E1103.201
G1 X103.8 Y76.1 E1103.33
G1 X102.81 Y76.36 E1103.458
G1 X101.81 Y76.64 E1103.587
G1 X100.83 Y76.95 E1103.715
G1 X99.86 Y77.28 E1103.844
G1 X98.89 Y77.63 E1103.972
G1 X97.93 Y78.01 E1104.1
G1 X96.98 Y78.41 E1104.229
G1 X96.04 Y78.83 E1104.357
G1 X95.12 Y79.28 E1104.486
G1 X94.2 Y79.74 E1104.614
G1 X93.29 Y80.23 E1104.743
G1 X92.4 Y80.75 E1104.871
G1 X91.52 Y81.28 E1104.999
G1 X90.65 Y81.83 E1105.128
G1 X89.79 Y82.41 E1105.256
G1 X88.95 Y83 E1105.385
G1 X88.13 Y83.62 E1105.513
G1 X87.32 Y84.25 E1105.642
G1 X86.52 Y84.91 E1105.77
G1 X85.74 Y85.58 E1105.898
G1 X84.98 Y86.27 E1106.027
G1 X84.24 Y86.98 E1106.155
G1 X83.51 Y87.71 E1106.284
G1 X82.8 Y88.46 E1106.412
G1 X82.11 Y89.22 E1106.541
G1 X81.43 Y90 E1106.669
G1 X80.78 Y90.79 E1106.797
G1 X80.14 Y91.6 E1106.926
G1 X79.53 Y92.43 E1107.054
G1 X78.93 Y93.27 E1107.183
G1 X78.36 Y94.12 E1107.311
G1 X77.81 Y94.99 E1107.439
G1 X77.27 Y95.87 E1107.568
G1 X76.76 Y96.77 E1107.696
G1 X76.27 Y97.67 E1107.825
G1 X75.8 Y98.59 E1107.954
G1 X75.36 Y99.52 E1108.082
G1 X74.93 Y100.46 E1108.21
G1 X74.54 Y101.41 E1108.339
G1 X74.16 Y102.36 E1108.467
G1 X73.8 Y103.33 E1108.595
G1 X73.47 Y104.31 E1108.724
G1 X73.17 Y105.29 E1108.852
G1 X72.89 Y106.28 E1108.981
G1 X72.63 Y107.28 E1109.109
G1 X72.39 Y108.28 E1109.238
G1 X72.18 Y109.29 E1109.366
G1 X72 Y110.3 E1109.495
G1 X71.84 Y111.32 E1109.623
G1 X71.7 Y112.34 E1109.751
G1 X71.59 Y113.36 E1109.88
G1 X71.5 Y114.39 E1110.008
G1 X71.44 Y115.42 E1110.137
G1 X71.4 Y116.45 E1110.265
G1 X71.37 Y118.88 E1110.568
G1 Y118.98
G1 X72.38 Y117.98 F9000
; TYPE:WALL-OUTER
G1 X75.1 E1110.907 F3000
G1 Y122.89 E1111.52
G1 Y127.81 E1112.134
G1 Y132.73 E1112.747
G1 Y137.65 E1113.361
G1 Y142.56 E1113.974
G1 Y147.48 E1114.587
G1 Y152.4 E1115.201
G1 Y157.32 E1115.814
G1 Y162.24 E1116.428
G1 Y167.15 E1117.041
G1 Y172.07 E1117.654
G1 Y176.99 E1118.268
G1 Y181.91 E1118.881
G1 Y186.83 E1119.495
G1 Y191.74 E1120.108
G1 X75.04 Y192.04 E1120.145
G1 X74.95 Y192.25 E1120.174
G1 X74.87 Y192.37 E1120.191
G1 X74.73 Y192.54 E1120.219
G1 X74.62 Y192.63 E1120.236
G1 X74.41 Y192.76 E1120.268
G1 X74.22 Y192.83 E1120.293
G1 X73.98 Y192.87 E1120.323
G1 X70.18 E1120.798
G1 X66.37 E1121.272
G1 X62.57 E1121.746
G1 X58.77 E1122.221
G1 X58.52 Y192.83 E1122.252
G1 X58.39 Y192.78 E1122.27
G1 X58.2 Y192.68 E1122.296
G1 X58.05 Y192.57 E1122.319
G1 X57.91 Y192.42 E1122.344
G1 X57.84 Y192.31 E1122.361
G1 X57.71 Y192.03 E1122.4
G1 X57.65 Y191.74 E1122.436
G1 Y186.83 E1123.049
G1 Y181.91 E1123.663
G1 Y176.99 E1124.276
G1 Y172.07 E1124.889
G1 Y167.15 E1125.503
G1 Y162.24 E1126.116
G1 Y157.32 E1126.73
G1 Y152.4 E1127.343
G1 Y147.48 E1127.956
G1 Y142.56 E1128.57
G1 Y137.65 E1129.183
G1 Y132.73 E1129.797
G1 Y127.81 E1130.41
G1 Y122.89 E1131.023
G1 Y117.98 E1131.637
G1 X60.35 E1131.974
G1 X60.37 Y116.26 E1132.188
G1 X60.42 Y115.03 E1132.342
G1 X60.49 Y113.82 E1132.493
G1 X60.58 Y112.6 E1132.645
G1 X60.71 Y111.39 E1132.797
G1 X60.86 Y110.18 E1132.949
G1 X61.04 Y108.97 E1133.102
G1 X61.25 Y107.77 E1133.254
G1 X61.48 Y106.56 E1133.408
G1 X61.74 Y105.38 E1133.559
G1 X62.04 Y104.18 E1133.712
G1 X62.35 Y103.01 E1133.863
G1 X62.69 Y101.84 E1134.016
G1 X63.06 Y100.66 E1134.169
G1 X63.46 Y99.51 E1134.322
G1 X63.88 Y98.37 E1134.472
G1 X64.33 Y97.24 E1134.625
G1 X64.8 Y96.1 E1134.779
G1 X65.3 Y95 E1134.929
G1 X65.83 Y93.88 E1135.083
G1 X66.37 Y92.8 E1135.234
G1 X66.95 Y91.72 E1135.386
G1 X67.54 Y90.66 E1135.539
G1 X68.17 Y89.61 E1135.691
G1 X68.81 Y88.57 E1135.843
G1 X69.48 Y87.55 E1135.995
G1 X70.18 Y86.54 E1136.149
G1 X70.89 Y85.56 E1136.3
G1 X71.63 Y84.58 E1136.452
G1 X72.4 Y83.62 E1136.606
G1 X73.17 Y82.69 E1136.757
G1 X73.98 Y81.76 E1136.911
G1 X74.8 Y80.87 E1137.062
G1 X75.64 Y79.98 E1137.214
G1 X76.51 Y79.11 E1137.367
G1 X77.39 Y78.27 E1137.52
G1 X78.29 Y77.45 E1137.671
G1 X79.22 Y76.64 E1137.824
G1 X80.14 Y75.87 E1137.975
G1 X81.11 Y75.1 E1138.129
G1 X82.07 Y74.37 E1138.28
G1 X83.06 Y73.66 E1138.432
G1 X84.08 Y72.96 E1138.586
G1 X85.09 Y72.29 E1138.737
G1 X86.12 Y71.65 E1138.889
G1 X87.18 Y71.03 E1139.041
G1 X88.25 Y70.42 E1139.195
G1 X89.33 Y69.85 E1139.347
G1 X90.41 Y69.3 E1139.498
G1 X91.52 Y68.77 E1139.652
G1 X92.62 Y68.28 E1139.803
G1 X93.76 Y67.8 E1139.957
G1 X94.9 Y67.35 E1140.109
G1 X96.03 Y66.94 E1140.26
G1 X97.19 Y66.54 E1140.412
G1 X98.36 Y66.17 E1140.566
G1 X99.53 Y65.82 E1140.718
G1 X100.7 Y65.51 E1140.869
G1 X101.9 Y65.22 E1141.023
G1 X103.08 Y64.96 E1141.174
G1 X104.29 Y64.72 E1141.327
G1 X105.48 Y64.52 E1141.478
G1 X106.7 Y64.34 E1141.632
G1 X107.91 Y64.18 E1141.784
G1 X109.12 Y64.06 E1141.936
G1 X110.33 Y63.96 E1142.087
G1 X111.55 Y63.89 E1142.24
G1 X112.78 Y63.85 E1142.393
G1 X114 Y63.84 E1142.545
G1 X115.22 Y63.85 E1142.697
G1 X116.45 Y63.89 E1142.85
G1 X117.67 Y63.96 E1143.003
G1 X118.88 Y64.06 E1143.154
G1 X120.09 Y64.18 E1143.306
G1 X121.3 Y64.33 E1143.458
G1 X122.52 Y64.52 E1143.612
G1 X123.71 Y64.72 E1143.763
G1 X124.92 Y64.96 E1143.916
G1 X126.1 Y65.22 E1144.067
G1 X127.3 Y65.51 E1144.221
G1 X128.47 Y65.82 E1144.372
G1 X129.64 Y66.17 E1144.524
G1 X130.81 Y66.54 E1144.678
G1 X131.97 Y66.94 E1144.83
G1 X133.1 Y67.35 E1144.981
G1 X134.24 Y67.8 E1145.133
G1 X135.38 Y68.28 E1145.287
G1 X136.48 Y68.77 E1145.438
G1 X137.59 Y69.3 E1145.592
G1 X138.67 Y69.85 E1145.743
G1 X139.75 Y70.42 E1145.895
G1 X140.82 Y71.03 E1146.049
G1 X141.87 Y71.64 E1146.199
G1 X142.91 Y72.29 E1146.353
G1 X143.92 Y72.96 E1146.504
G1 X144.94 Y73.66 E1146.658
G1 X145.93 Y74.37 E1146.81
G1 X146.89 Y75.1 E1146.961
G1 X147.86 Y75.87 E1147.115
G1 X148.78 Y76.64 E1147.266
G1 X149.71 Y77.45 E1147.419
G1 X150.61 Y78.27 E1147.57
G1 X151.49 Y79.11 E1147.723
G1 X152.36 Y79.98 E1147.876
G1 X153.2 Y80.87 E1148.028
G1 X154.02 Y81.76 E1148.179
G1 X154.83 Y82.69 E1148.333
G1 X155.6 Y83.62 E1148.484
G1 X156.37 Y84.58 E1148.638
G1 X157.1 Y85.55 E1148.789
G1 X157.82 Y86.54 E1148.941
G1 X158.52 Y87.55 E1149.095
G1 X159.18 Y88.56 E1149.245
G1 X159.83 Y89.6 E1149.398
G1 X160.45 Y90.65 E1149.55
G1 X161.05 Y91.72 E1149.704
G1 X161.62 Y92.79 E1149.855
G1 X162.17 Y93.88 E1150.007
G1 X162.7 Y95 E1150.161
G1 X163.2 Y96.1 E1150.311
G1 X163.67 Y97.24 E1150.465
G1 X164.12 Y98.36 E1150.616
G1 X164.54 Y99.51 E1150.768
G1 X164.94 Y100.66 E1150.921
G1 X165.31 Y101.83 E1151.073
G1 X165.65 Y103 E1151.225
G1 X165.96 Y104.18 E1151.378
G1 X166.26 Y105.38 E1151.531
G1 X166.52 Y106.56 E1151.682
G1 X166.75 Y107.75 E1151.835
G1 X166.96 Y108.96 E1151.987
G1 X167.14 Y110.18 E1152.141
G1 X167.29 Y111.38 E1152.291
G1 X167.42 Y112.59 E1152.444
G1 X167.51 Y113.81 E1152.596
G1 X167.58 Y115.03 E1152.748
G1 X167.63 Y116.25 E1152.901
G1 X167.64 Y117.48 E1153.054
G1 Y122.42 E1153.67
G1 X167.63 Y127.36 E1154.286
G1 X167.58 Y127.81 E1154.343
G1 X167.47 Y128.28 E1154.404
G1 X167.31 Y128.71 E1154.461
G1 X167.07 Y129.17 E1154.525
G1 X166.9 Y129.42 E1154.563
G1 X166.63 Y129.75 E1154.616
G1 X166.33 Y130.04 E1154.668
G1 X165.86 Y130.36 E1154.738
G1 X165.7 Y130.44 E1154.762
G1 X165.27 Y130.62 E1154.819
G1 X165.11 Y130.66 E1154.84
G1 X164.66 Y130.74 E1154.896
G1 X161.64 E1155.274
G1 X158.61 E1155.652
G1 X158.41 Y130.71 E1155.677
G1 X158.02 Y130.63 E1155.726
G1 X157.82 Y130.56 E1155.753
G1 X157.44 Y130.39 E1155.805
G1 X156.99 Y130.09 E1155.872
G1 X156.79 Y129.92 E1155.904
G1 X156.49 Y129.6 E1155.96
G1 X156.18 Y129.18 E1156.025
G1 X155.95 Y128.73 E1156.088
G1 X155.78 Y128.28 E1156.147
G1 X155.68 Y127.86 E1156.201
G1 X155.62 Y127.36 E1156.264
G1 X155.61 Y122.94 E1156.815
G1 Y118.53 E1157.366
G1 X155.6 Y116.47 E1157.623
G1 X155.56 Y115.46 E1157.748
G1 X155.5 Y114.46 E1157.874
G1 X155.42 Y113.46 E1157.999
G1 X155.31 Y112.46 E1158.124
G1 X155.17 Y111.46 E1158.25
G1 X155.02 Y110.47 E1158.375
G1 X154.84 Y109.48 E1158.501
G1 X154.63 Y108.5 E1158.626
G1 X154.4 Y107.52 E1158.752
G1 X154.15 Y106.54 E1158.877
G1 X153.87 Y105.58 E1159.002
G1 X153.57 Y104.62 E1159.128
G1 X153.25 Y103.66 E1159.253
G1 X152.91 Y102.72 E1159.379
G1 X152.54 Y101.78 E1159.504
G1 X152.15 Y100.86 E1159.63
G1 X151.74 Y99.94 E1159.755
G1 X151.3 Y99.03 E1159.88
G1 X150.85 Y98.14 E1160.006
G1 X150.37 Y97.25 E1160.131
G1 X149.87 Y96.38 E1160.257
G1 X149.4 Y95.61 E1160.369
G1 X148.87 Y94.76 E1160.494
G1 X148.25 Y93.84 E1160.633
G1 X147.66 Y93.02 E1160.758
G1 X147.06 Y92.21 E1160.884
G1 X146.44 Y91.42 E1161.009
G1 X145.8 Y90.64 E1161.134
G1 X145.15 Y89.88 E1161.26
G1 X144.47 Y89.14 E1161.385
G1 X143.78 Y88.41 E1161.511
G1 X143.07 Y87.7 E1161.636
G1 X142.34 Y87 E1161.762
G1 X141.59 Y86.33 E1161.887
G1 X140.83 Y85.67 E1162.013
G1 X140.06 Y85.03 E1162.138
G1 X139.27 Y84.41 E1162.263
G1 X138.46 Y83.81 E1162.389
G1 X137.64 Y83.23 E1162.514
G1 X136.8 Y82.67 E1162.64
G1 X135.96 Y82.13 E1162.765
G1 X135.1 Y81.61 E1162.89
G1 X134.22 Y81.11 E1163.016
G1 X133.34 Y80.63 E1163.141
G1 X132.44 Y80.17 E1163.267
G1 X131.53 Y79.74 E1163.392
G1 X130.62 Y79.33 E1163.517
G1 X129.69 Y78.94 E1163.643
G1 X128.76 Y78.57 E1163.768
G1 X127.81 Y78.22 E1163.894
G1 X126.86 Y77.9 E1164.019
G1 X125.9 Y77.6 E1164.145
G1 X124.93 Y77.33 E1164.27
G1 X123.96 Y77.07 E1164.395
G1 X122.98 Y76.84 E1164.521
G1 X121.99 Y76.64 E1164.646
G1 X121.01 Y76.46 E1164.772
G1 X120.01 Y76.3 E1164.897
G1 X119.02 Y76.17 E1165.023
G1 X118.02 Y76.06 E1165.148
G1 X117.01 Y75.97 E1165.273
G1 X116.01 Y75.91 E1165.399
G1 X115.01 Y75.88 E1165.524
G1 X114 Y75.86 E1165.65
G1 X112.99 Y75.88 E1165.775
G1 X111.99 Y75.91 E1165.9
G1 X110.99 Y75.97 E1166.026
G1 X109.98 Y76.06 E1166.151
G1 X108.98 Y76.17 E1166.277
G1 X107.99 Y76.3 E1166.402
G1 X106.99 Y76.46 E1166.527
G1 X106.01 Y76.64 E1166.653
G1 X105.02 Y76.84 E1166.778
G1 X104.04 Y77.07 E1166.904
G1 X103.07 Y77.33 E1167.029
G1 X102.1 Y77.6 E1167.155
G1 X101.14 Y77.9 E1167.28
G1 X100.19 Y78.22 E1167.405
G1 X99.24 Y78.57 E1167.531
G1 X98.31 Y78.94 E1167.656
G1 X97.38 Y79.33 E1167.782
G1 X96.47 Y79.74 E1167.907
G1 X95.56 Y80.17 E1168.032
G1 X94.66 Y80.63 E1168.158
G1 X93.78 Y81.11 E1168.283
G1 X92.9 Y81.61 E1168.409
G1 X92.04 Y82.13 E1168.534
G1 X91.2 Y82.67 E1168.66
G1 X90.36 Y83.23 E1168.785
G1 X89.54 Y83.81 E1168.91
G1 X88.73 Y84.41 E1169.036
G1 X87.94 Y85.03 E1169.161
G1 X87.17 Y85.67 E1169.287
G1 X86.41 Y86.33 E1169.412
G1 X85.66 Y87 E1169.538
G1 X84.93 Y87.7 E1169.663
G1 X84.22 Y88.41 E1169.788
G1 X83.53 Y89.14 E1169.914
G1 X82.85 Y89.88 E1170.039
G1 X82.2 Y90.64 E1170.165
G1 X81.56 Y91.42 E1170.29
G1 X80.94 Y92.21 E1170.415
G1 X80.34 Y93.02 E1170.541
G1 X79.76 Y93.84 E1170.666
G1 X79.19 Y94.67 E1170.792
G1 X78.65 Y95.52 E1170.917
G1 X78.13 Y96.38 E1171.043
G1 X77.63 Y97.25 E1171.168
G1 X77.15 Y98.14 E1171.293
G1 X76.7 Y99.03 E1171.419
G1 X76.26 Y99.94 E1171.544
G1 X75.85 Y100.86 E1171.67
G1 X75.46 Y101.78 E1171.795
G1 X75.09 Y102.72 E1171.92
G1 X74.75 Y103.66 E1172.046
G1 X74.43 Y104.62 E1172.171
G1 X74.13 Y105.58 E1172.297
G1 X73.85 Y106.54 E1172.422
G1 X73.6 Y107.52 E1172.548
G1 X73.37 Y108.5 E1172.673
G1 X73.16 Y109.48 E1172.798
G1 X72.98 Y110.47 E1172.924
G1 X72.83 Y111.46 E1173.049
G1 X72.69 Y112.46 E1173.175
G1 X72.58 Y113.46 E1173.3
G1 X72.5 Y114.46 E1173.426
G1 X72.44 Y115.46 E1173.551
G1 X72.4 Y116.47 E1173.676
G1 X72.39 Y117.88 E1173.852
G1 X72.38 Y117.98
G1 X75.1
G1 Y118.26
G1 X71.37 Y118.98 F9000
G1 E1170.852 F1800
G1 Z1.6
G1 X59.69 Y119.91 F9000
; TYPE:FILL
G1 Z1.1
G1 E1173.852 F1800
G1 X59.59 Y120.01 E1173.87 F3600
G1 Y121.43 F9000
G1 X61.1 Y119.91 E1174.137 F3600
G1 E1171.137 F1800
G1 Z1.6
G1 X64.18 Y112.32 F9000
G1 X67.25 Y104.72
G1 X70.32 Y97.12
G1 X73.39 Y89.53
G1 X76.46 Y81.93
G1 Z1.1
G1 E1174.137 F1800
G1 X78.46 Y79.93 E1174.49 F3600
G1 E1171.49 F1800
G1 Z1.6
G1 X85.39 Y74.41 F9000
G1 Z1.1
G1 E1174.49 F1800
G1 X82.5 Y77.3 E1175 F3600
G1 X79.61 Y80.19 E1175.509
G1 X76.72 Y83.09 E1176.019
G1 X73.83 Y85.98 E1176.529
G1 X70.94 Y88.87 E1177.039
G1 E1174.039 F1800
G1 Z1.6
G1 X68.75 Y92.47 F9000
G1 Z1.1
G1 E1177.039 F1800
G1 X72.12 Y89.1 E1177.634 F3600
G1 X75.5 Y85.72 E1178.229
G1 X78.87 Y82.35 E1178.825
G1 X82.25 Y78.97 E1179.42
G1 X85.62 Y75.6 E1180.015
G1 X89 Y72.22 E1180.61
G1 X91.89 Y70.75 F9000
G1 X88.37 Y74.26 E1181.231 F3600
G1 X84.85 Y77.78 E1181.851
G1 X81.34 Y81.3 E1182.471
G1 X77.82 Y84.81 E1183.092
G1 X74.3 Y88.33 E1183.712
G1 X70.79 Y91.85 E1184.333
G1 X67.27 Y95.36 E1184.953
G1 X66.15 Y97.9 F9000
G1 X69.68 Y94.37 E1185.576 F3600
G1 X73.22 Y90.83 E1186.2
G1 X76.75 Y87.3 E1186.823
G1 X80.29 Y83.76 E1187.447
G1 X83.82 Y80.23 E1188.07
G1 X87.36 Y76.69 E1188.694
G1 X90.89 Y73.16 E1189.317
G1 X94.43 Y69.62 E1189.941
G1 X96.71 Y68.75 F9000
G1 X93.22 Y72.25 E1190.557 F3600
G1 X89.72 Y75.74 E1191.173
G1 X86.23 Y79.23 E1191.789
G1 X82.74 Y82.72 E1192.405
G1 X79.25 Y86.22 E1193.021
G1 X75.75 Y89.71 E1193.637
G1 X72.26 Y93.2 E1194.253
G1 X68.77 Y96.69 E1194.869
G1 X65.28 Y100.19 E1195.485
G1 X64.58 Y102.3 F9000
G1 X68 Y98.87 E1196.089 F3600
G1 X71.43 Y95.45 E1196.693
G1 X74.85 Y92.02 E1197.297
G1 X78.28 Y88.6 E1197.901
G1 X81.7 Y85.17 E1198.505
G1 X85.13 Y81.75 E1199.109
G1 X88.55 Y78.33 E1199.713
G1 X91.97 Y74.9 E1200.317
G1 X95.4 Y71.48 E1200.921
G1 X98.82 Y68.05 E1201.525
G1 X100.8 Y67.49 F9000
G1 X97.45 Y70.84 E1202.115 F3600
G1 X94.11 Y74.18 E1202.705
G1 X90.77 Y77.52 E1203.294
G1 X87.42 Y80.87 E1203.884
G1 X84.08 Y84.21 E1204.474
G1 X80.74 Y87.55 E1205.064
G1 X77.39 Y90.9 E1205.654
G1 X74.05 Y94.24 E1206.243
G1 X70.7 Y97.59 E1206.833
G1 X67.36 Y100.93 E1207.423
G1 X64.02 Y104.27 E1208.013
G1 X63.56 Y106.15 F9000
G1 X66.82 Y102.89 E1208.588 F3600
G1 X70.08 Y99.63 E1209.163
G1 X73.34 Y96.37 E1209.738
G1 X76.6 Y93.11 E1210.312
G1 X79.86 Y89.85 E1210.887
G1 X83.12 Y86.59 E1211.462
G1 X86.37 Y83.33 E1212.037
G1 X89.63 Y80.07 E1212.612
G1 X92.89 Y76.81 E1213.187
G1 X96.15 Y73.55 E1213.762
G1 X99.41 Y70.29 E1214.337
G1 X102.67 Y67.03 E1214.912
G1 X104.45 Y66.67 F9000
G1 X101.55 Y69.57 E1215.423 F3600
G1 X98.65 Y72.47 E1215.935
G1 X95.75 Y75.36 E1216.446
G1 X92.85 Y78.26 E1216.958
G1 X89.96 Y81.16 E1217.469
G1 E1214.469 F1800
G1 Z1.6
G1 X93.46 Y79.07 F9000
G1 Z1.1
G1 E1217.469 F1800
G1 X96.63 Y75.9 E1218.029 F3600
G1 X99.81 Y72.73 E1218.589
G1 X102.98 Y69.55 E1219.148
G1 X106.16 Y66.38 E1219.708
G1 X107.8 Y66.15 F9000
G1 X104.91 Y69.04 E1220.218 F3600
G1 X102.01 Y71.93 E1220.728
G1 X99.12 Y74.82 E1221.238
G1 X96.23 Y77.72 E1221.748
G1 X98.64 Y76.72 F9000
G1 X101.32 Y74.04 E1222.221 F3600
G1 X104.01 Y71.35 E1222.695
G1 X106.69 Y68.67 E1223.169
G1 X109.38 Y65.98 E1223.642
G1 X110.91 Y65.87 F9000
G1 X107.54 Y69.24 E1224.236 F3600
G1 X104.17 Y72.61 E1224.83
G1 X100.8 Y75.97 E1225.424
G1 X102.8 Y75.39 F9000
G1 X106 Y72.19 E1225.988 F3600
G1 X109.19 Y69 E1226.551
G1 X112.39 Y65.8 E1227.115
G1 X113.83 Y65.78 F9000
G1 X110.77 Y68.83 E1227.653 F3600
G1 X107.72 Y71.88 E1228.192
G1 X104.67 Y74.93 E1228.73
G1 X106.43 Y74.59 F9000
G1 X109.36 Y71.65 E1229.247 F3600
G1 X112.3 Y68.72 E1229.764
G1 X115.23 Y65.79 E1230.282
G1 X116.59 Y65.84 F9000
G1 X113.76 Y68.67 E1230.78 F3600
G1 X110.94 Y71.5 E1231.279
G1 X108.11 Y74.33 E1231.778
G1 X109.71 Y74.14 F9000
G1 X112.45 Y71.4 E1232.261 F3600
G1 X115.18 Y68.66 E1232.743
G1 X117.92 Y65.93 E1233.226
G1 X119.22 Y66.04 F9000
G1 X116.56 Y68.7 E1233.695 F3600
G1 X113.9 Y71.36 E1234.163
G1 X111.25 Y74.01 E1234.632
G1 X112.73 Y73.94 F9000
G1 X115.32 Y71.36 E1235.088 F3600
G1 X117.9 Y68.77 E1235.544
G1 X120.49 Y66.19 E1236
G1 X121.73 Y66.36 F9000
G1 X119.21 Y68.88 E1236.445 F3600
G1 X116.69 Y71.4 E1236.889
G1 X114.16 Y73.93 E1237.334
G1 X115.55 Y73.95 F9000
G1 X118.01 Y71.49 E1237.769 F3600
G1 X120.48 Y69.02 E1238.204
G1 X122.95 Y66.56 E1238.639
G1 X124.14 Y66.78 F9000
G1 X121.72 Y69.2 E1239.064 F3600
G1 X119.31 Y71.61 E1239.49
G1 X116.9 Y74.02 E1239.916
G1 X118.21 Y74.13 F9000
