; Generated with MatterSlice 2.22.04
; filamentDiameter = 1.75
; extrusionWidth = 1
; firstLayerExtrusionWidth = 1.3
; layerThickness = 0.75
; firstLayerThickness = 1
; automatic settings before start_gcode
G21 ; set units to millimeters
M107 ; fan off
M140 S50 ; start heating the bed
M104 T0 S210 ; start heating T0
M190 S50 ; wait for bed temperature to be reached
T0 ; set the active extruder to 0
; settings from start_gcode
G28 X0 Y0 Z0 ; home all axes
G1 Z5 F5000
M109 S210 ; set the extruder temp and wait
G28 X0 Y0 Z0 ; Home Z again in case there was filament on nozzle
G29 ; probe the bed
; automatic settings after start_gcode
T0 ; set the active extruder to 0
G90 ; use absolute coordinates
G92 E0 ; reset the expected extruder position
M82 ; use absolute distance for extrusion
; Layer count: 34
; Layer Change GCode
; LAYER:0
; LAYER_HEIGHT:1
; TYPE:FILL
M400
M107
G1 X50.53 Y56.55 Z1.5 F9000
G1 X115.17 Y56.27
; TYPE:SKIRT
G1 Z1
G1 F1800
G1 X116.57 Y56.31 E0.757 F720
G1 X117.96 Y56.39 E1.508
G1 X119.35 Y56.49 E2.261
G1 X120.73 Y56.63 E3.012
G1 X122.12 Y56.8 E3.765
G1 X123.5 Y57 E4.522
G1 X124.87 Y57.23 E5.274
G1 X126.24 Y57.5 E6.026
G1 X127.6 Y57.79 E6.78
G1 X128.96 Y58.12 E7.532
G1 X130.31 Y58.47 E8.286
G1 X131.65 Y58.86 E9.04
G1 X132.97 Y59.27 E9.791
G1 X134.3 Y59.72 E10.546
G1 X135.61 Y60.2 E11.3
G1 X136.91 Y60.71 E12.054
G1 X138.19 Y61.24 E12.806
G1 X139.46 Y61.81 E13.557
G1 X140.72 Y62.4 E14.311
G1 X141.97 Y63.02 E15.065
G1 X143.2 Y63.68 E15.819
G1 X144.42 Y64.35 E16.57
G1 X145.62 Y65.06 E17.323
G1 X146.81 Y65.79 E18.078
G1 X147.97 Y66.55 E18.831
G1 X149.12 Y67.34 E19.583
G1 X150.26 Y68.15 E20.338
G1 X151.37 Y68.99 E21.091
G1 X152.46 Y69.85 E21.843
G1 X153.54 Y70.74 E22.598
G1 X154.59 Y71.65 E23.349
G1 X155.62 Y72.59 E24.101
G1 X156.63 Y73.55 E24.855
G1 X157.62 Y74.53 E25.609
G1 X158.59 Y75.54 E26.364
G1 X159.53 Y76.56 E27.117
G1 X160.45 Y77.6 E27.867
G1 X161.35 Y78.67 E28.622
G1 X162.22 Y79.76 E29.375
G1 X163.06 Y80.87 E30.128
G1 X163.89 Y82 E30.882
G1 X164.68 Y83.14 E31.633
G1 X165.45 Y84.3 E32.388
G1 X166.19 Y85.48 E33.142
G1 X166.9 Y86.68 E33.895
G1 X167.59 Y87.89 E34.646
G1 X168.25 Y89.12 E35.4
G1 X168.88 Y90.36 E36.155
G1 X169.49 Y91.62 E36.908
G1 X170.06 Y92.89 E37.66
G1 X170.6 Y94.17 E38.412
G1 X171.12 Y95.46 E39.166
G1 X171.61 Y96.77 E39.92
G1 X172.06 Y98.09 E40.673
G1 X172.49 Y99.41 E41.425
G1 X172.89 Y100.75 E42.18
G1 X173.25 Y102.1 E42.934
G1 X173.59 Y103.45 E43.684
G1 X173.89 Y104.81 E44.439
G1 X174.16 Y106.17 E45.191
G1 X174.4 Y107.54 E45.944
G1 X174.62 Y108.93 E46.7
G1 X174.79 Y110.31 E47.453
G1 X174.94 Y111.69 E48.203
G1 X175.06 Y113.08 E48.956
G1 X175.14 Y114.47 E49.711
G1 X175.19 Y115.87 E50.466
G1 X175.21 Y117.23 E51.202
G1 X175.22 Y127.28 E56.634
G1 X175.19 Y128.08 E57.065
G1 X175.05 Y129.16 E57.654
G1 X174.7 Y130.56 E58.434
G1 X174.07 Y132.16 E59.365
G1 X173.14 Y133.68 E60.329
G1 X172.26 Y134.75 E61.078
G1 X171.11 Y135.83 E61.928
G1 X78.81 Y199.54 E122.546
G1 X77.41 Y200.3 E123.408
G1 X75.65 Y200.81 E124.395
G1 X74.3 Y200.95 E125.132
G1 X58.44 E133.703
G1 X57.09 Y200.81 E134.437
G1 X55.46 Y200.34 E135.351
G1 X53.92 Y199.57 E136.283
G1 X52.42 Y198.42 E137.302
G1 X51.08 Y196.82 E138.432
G1 X50.05 Y194.8 E139.659
G1 X49.58 Y192.63 E140.859
G1 X49.58 Y116.12 E182.211
G1 X56.26 Y97.13 E193.089
G1 X56.72 Y95.87 E193.816
G1 X57.23 Y94.57 E194.57
G1 X57.77 Y93.29 E195.322
G1 X58.33 Y92.02 E196.073
G1 X58.93 Y90.75 E196.827
G1 X59.55 Y89.5 E197.582
G1 X60.2 Y88.27 E198.334
G1 X60.88 Y87.06 E199.086
G1 X61.58 Y85.85 E199.841
G1 X62.32 Y84.67 E200.595
G1 X63.08 Y83.5 E201.347
G1 X63.86 Y82.35 E202.099
G1 X64.68 Y81.22 E202.854
G1 X65.52 Y80.11 E203.607
G1 X66.38 Y79.01 E204.359
G1 X67.27 Y77.94 E205.114
G1 X68.18 Y76.89 E205.865
G1 X69.11 Y75.85 E206.617
G1 X70.07 Y74.84 E207.372
G1 X71.05 Y73.85 E208.126
G1 X72.06 Y72.88 E208.88
G1 X73.09 Y71.94 E209.633
G1 X74.13 Y71.02 E210.384
G1 X75.2 Y70.13 E211.139
G1 X76.29 Y69.26 E211.891
G1 X77.39 Y68.41 E212.644
G1 X78.52 Y67.59 E213.398
G1 X79.66 Y66.8 E214.15
G1 X80.83 Y66.03 E214.904
G1 X82.01 Y65.28 E215.658
G1 X83.21 Y64.57 E216.411
G1 X84.41 Y63.88 E217.163
G1 X85.64 Y63.22 E217.916
G1 X86.89 Y62.59 E218.671
G1 X88.15 Y61.99 E219.425
G1 X89.41 Y61.42 E220.176
G1 X90.69 Y60.87 E220.928
G1 X91.99 Y60.35 E221.682
G1 X93.3 Y59.87 E222.437
G1 X94.61 Y59.41 E223.189
G1 X95.94 Y58.99 E223.941
G1 X97.28 Y58.59 E224.697
G1 X98.62 Y58.22 E225.451
G1 X99.97 Y57.89 E226.201
G1 X101.33 Y57.59 E226.955
G1 X102.7 Y57.31 E227.707
G1 X104.07 Y57.07 E228.46
G1 X105.45 Y56.86 E229.216
G1 X106.83 Y56.68 E229.969
G1 X108.21 Y56.53 E230.719
G1 X109.6 Y56.42 E231.472
G1 X111 Y56.33 E232.227
G1 X112.39 Y56.28 E232.982
G1 X113.78 Y56.26 E233.733
G1 X115.17 Y56.27 E234.485
G1 X115.15 Y57.57 F9000
G1 X116.52 Y57.61 E235.226 F720
G1 X117.88 Y57.69 E235.961
G1 X119.24 Y57.79 E236.698
G1 X120.59 Y57.92 E237.434
G1 X121.94 Y58.09 E238.171
G1 X123.3 Y58.29 E238.911
G1 X124.64 Y58.51 E239.647
G1 X125.98 Y58.77 E240.384
G1 X127.32 Y59.06 E241.122
G1 X128.64 Y59.38 E241.858
G1 X129.96 Y59.72 E242.596
G1 X131.27 Y60.1 E243.333
G1 X132.57 Y60.51 E244.069
G1 X133.86 Y60.95 E244.808
G1 X135.15 Y61.42 E245.545
G1 X136.42 Y61.91 E246.283
G1 X137.67 Y62.44 E247.019
G1 X138.92 Y62.99 E247.755
G1 X140.15 Y63.57 E248.493
G1 X141.38 Y64.18 E249.231
G1 X142.58 Y64.82 E249.968
G1 X143.77 Y65.48 E250.704
G1 X144.95 Y66.17 E251.44
G1 X146.11 Y66.89 E252.18
G1 X147.25 Y67.63 E252.917
G1 X148.38 Y68.4 E253.652
G1 X149.49 Y69.2 E254.392
G1 X150.58 Y70.02 E255.128
G1 X151.65 Y70.86 E255.865
G1 X152.7 Y71.73 E256.603
G1 X153.73 Y72.63 E257.339
G1 X154.74 Y73.54 E258.075
G1 X155.73 Y74.48 E258.813
G1 X156.7 Y75.44 E259.551
G1 X157.64 Y76.43 E260.289
G1 X158.57 Y77.43 E261.026
G1 X159.46 Y78.45 E261.761
G1 X160.34 Y79.5 E262.5
G1 X161.19 Y80.56 E263.237
G1 X162.02 Y81.65 E263.973
G1 X162.83 Y82.75 E264.711
G1 X163.6 Y83.87 E265.448
G1 X164.36 Y85.01 E266.185
G1 X165.08 Y86.16 E266.924
G1 X165.78 Y87.33 E267.661
G1 X166.45 Y88.52 E268.396
G1 X167.1 Y89.72 E269.134
G1 X167.72 Y90.94 E269.873
G1 X168.31 Y92.17 E270.61
G1 X168.87 Y93.41 E271.345
G1 X169.4 Y94.66 E272.082
G1 X169.91 Y95.93 E272.82
G1 X170.38 Y97.21 E273.558
G1 X170.83 Y98.5 E274.295
G1 X171.25 Y99.8 E275.031
G1 X171.64 Y101.11 E275.77
G1 X171.99 Y102.42 E276.508
G1 X172.32 Y103.74 E277.242
G1 X172.62 Y105.08 E277.98
G1 X172.88 Y106.41 E278.717
G1 X173.12 Y107.76 E279.454
G1 X173.33 Y109.11 E280.193
G1 X173.5 Y110.46 E280.93
G1 X173.65 Y111.81 E281.665
G1 X173.76 Y113.17 E282.402
G1 X173.84 Y114.54 E283.141
G1 X173.89 Y115.9 E283.879
G1 X173.91 Y117.24 E284.602
G1 X173.92 Y127.25 E290.015
G1 X173.89 Y127.97 E290.402
G1 X173.77 Y128.92 E290.92
G1 X173.46 Y130.16 E291.612
G1 X172.9 Y131.58 E292.435
G1 X172.08 Y132.93 E293.289
G1 X171.31 Y133.86 E293.942
G1 X170.29 Y134.81 E294.695
G1 X78.13 Y198.43 E355.224
G1 X76.91 Y199.09 E355.971
G1 X75.41 Y199.53 E356.819
G1 X74.23 Y199.65 E357.457
G1 X58.51 E365.957
G1 X57.34 Y199.53 E366.591
G1 X55.94 Y199.12 E367.378
G1 X54.61 Y198.46 E368.18
G1 X53.33 Y197.48 E369.055
G1 X52.17 Y196.1 E370.026
G1 X51.29 Y194.36 E371.08
G1 X50.88 Y192.49 E372.116
G1 X50.88 Y116.34 E413.273
G1 X57.49 Y97.57 E424.027
G1 X57.94 Y96.33 E424.742
G1 X58.44 Y95.06 E425.48
G1 X58.96 Y93.8 E426.216
G1 X59.51 Y92.56 E426.952
G1 X60.09 Y91.32 E427.689
G1 X60.7 Y90.1 E428.428
G1 X61.34 Y88.89 E429.164
G1 X62 Y87.7 E429.901
G1 X62.7 Y86.53 E430.639
G1 X63.42 Y85.37 E431.377
G1 X64.16 Y84.22 E432.114
G1 X64.93 Y83.1 E432.849
G1 X65.72 Y81.99 E433.588
G1 X66.55 Y80.9 E434.325
G1 X67.39 Y79.83 E435.061
G1 X68.26 Y78.78 E435.8
G1 X69.15 Y77.75 E436.536
G1 X70.06 Y76.74 E437.272
G1 X71 Y75.75 E438.01
G1 X71.97 Y74.78 E438.748
G1 X72.95 Y73.83 E439.486
G1 X73.96 Y72.91 E440.223
G1 X74.98 Y72.01 E440.958
G1 X76.02 Y71.13 E441.697
G1 X77.09 Y70.28 E442.434
G1 X78.17 Y69.45 E443.17
G1 X79.27 Y68.65 E443.908
G1 X80.39 Y67.87 E444.644
G1 X81.53 Y67.12 E445.382
G1 X82.69 Y66.39 E446.12
G1 X83.86 Y65.69 E446.857
G1 X85.04 Y65.02 E447.593
G1 X86.25 Y64.38 E448.331
G1 X87.46 Y63.76 E449.07
G1 X88.69 Y63.17 E449.807
G1 X89.93 Y62.61 E450.542
G1 X91.19 Y62.07 E451.279
G1 X92.46 Y61.57 E452.017
G1 X93.74 Y61.09 E452.755
G1 X95.02 Y60.64 E453.492
G1 X96.32 Y60.23 E454.228
G1 X97.63 Y59.84 E454.967
G1 X98.95 Y59.48 E455.705
G1 X100.27 Y59.16 E456.439
G1 X101.6 Y58.86 E457.177
G1 X102.94 Y58.59 E457.914
G1 X104.28 Y58.35 E458.651
G1 X105.63 Y58.15 E459.39
G1 X106.99 Y57.97 E460.127
G1 X108.34 Y57.83 E460.861
G1 X109.7 Y57.71 E461.599
G1 X111.06 Y57.63 E462.338
G1 X112.43 Y57.58 E463.076
G1 X113.79 Y57.56 E463.811
G1 X115.15 Y57.57 E464.548
G1 E462.548 F1800
G1 Z1.5
G1 X114.95 Y67.18 F9000
G1 X108.57 Y69.04
G1 X98.04 Y75.25
G1 X87.5 Y81.46
G1 X77.02 Y92.38
G1 X71.88 Y102.44
G1 X68.82 Y116.2
G1 X71.36 Y118.13
; TYPE:WALL-OUTER
G1 Z1
G1 E464.548 F1800
G1 X74.57 E466.287 F720
G1 Y191.63 E506.013
G1 X74.54 Y191.86 E506.142
G1 X74.47 Y192.01 E506.23
G1 X74.35 Y192.17 E506.337
G1 X74.29 Y192.21 E506.377
G1 X74.13 Y192.3 E506.478
G1 X74.02 Y192.33 E506.538
G1 X73.86 Y192.35 E506.622
G1 X58.88 E514.719
G1 X58.73 Y192.33 E514.8
G1 X58.62 Y192.3 E514.865
G1 X58.5 Y192.24 E514.938
G1 X58.39 Y192.16 E515.01
G1 X58.3 Y192.05 E515.084
G1 X58.23 Y191.9 E515.176
G1 X58.18 Y191.71 E515.285
G1 X58.18 Y118.13 E555.053
G1 X61.38 E556.783
G1 X61.39 Y116.47 E557.676
G1 X61.43 Y115.26 E558.332
G1 X61.5 Y114.08 E558.971
G1 X61.59 Y112.88 E559.618
G1 X61.71 Y111.68 E560.274
G1 X61.85 Y110.5 E560.913
G1 X62.02 Y109.32 E561.561
G1 X62.22 Y108.14 E562.208
G1 X62.45 Y106.96 E562.855
G1 X62.7 Y105.79 E563.503
G1 X62.98 Y104.63 E564.15
G1 X63.29 Y103.45 E564.806
G1 X63.62 Y102.32 E565.445
G1 X63.97 Y101.17 E566.093
G1 X64.36 Y100.04 E566.74
G1 X64.77 Y98.9 E567.395
G1 X65.2 Y97.8 E568.034
G1 X65.67 Y96.68 E568.69
G1 X66.15 Y95.6 E569.329
G1 X66.66 Y94.51 E569.976
G1 X67.2 Y93.44 E570.624
G1 X67.76 Y92.37 E571.279
G1 X68.34 Y91.32 E571.926
G1 X68.94 Y90.3 E572.566
G1 X69.57 Y89.29 E573.213
G1 X70.23 Y88.28 E573.86
G1 X70.91 Y87.28 E574.516
G1 X71.6 Y86.32 E575.155
G1 X72.32 Y85.36 E575.803
G1 X73.07 Y84.41 E576.458
G1 X73.84 Y83.49 E577.105
G1 X74.61 Y82.59 E577.745
G1 X75.42 Y81.7 E578.392
G1 X76.25 Y80.82 E579.048
G1 X77.08 Y79.99 E579.687
G1 X77.95 Y79.16 E580.334
G1 X78.84 Y78.34 E580.989
G1 X79.73 Y77.55 E581.629
G1 X80.64 Y76.78 E582.276
G1 X81.59 Y76.03 E582.931
G1 X82.53 Y75.31 E583.57
G1 X83.5 Y74.6 E584.218
G1 X84.5 Y73.91 E584.873
G1 X85.48 Y73.26 E585.513
G1 X86.5 Y72.62 E586.16
G1 X87.53 Y72.01 E586.808
G1 X88.57 Y71.42 E587.455
G1 X89.63 Y70.84 E588.11
G1 X90.69 Y70.31 E588.75
G1 X91.77 Y69.79 E589.397
G1 X92.86 Y69.29 E590.044
G1 X93.96 Y68.83 E590.692
G1 X95.09 Y68.38 E591.347
G1 X96.21 Y67.96 E591.995
G1 X97.33 Y67.57 E592.634
G1 X98.48 Y67.2 E593.289
G1 X99.63 Y66.86 E593.936
G1 X100.77 Y66.55 E594.576
G1 X101.95 Y66.26 E595.231
G1 X103.12 Y66 E595.879
G1 X104.28 Y65.77 E596.518
G1 X105.46 Y65.56 E597.165
G1 X106.65 Y65.38 E597.819
G1 X107.84 Y65.22 E598.467
G1 X109.02 Y65.1 E599.108
G1 X110.23 Y65 E599.763
G1 X111.41 Y64.92 E600.402
G1 X112.62 Y64.88 E601.058
G1 X113.82 Y64.86 E601.702
G1 X115 Y64.87 E602.344
G1 X116.22 Y64.91 E603
G1 X117.41 Y64.97 E603.645
G1 X118.59 Y65.06 E604.286
G1 X119.8 Y65.18 E604.942
G1 X120.97 Y65.32 E605.58
G1 X122.16 Y65.5 E606.229
G1 X123.35 Y65.7 E606.884
G1 X124.53 Y65.92 E607.531
G1 X125.69 Y66.17 E608.171
G1 X126.85 Y66.45 E608.818
G1 X128.02 Y66.76 E609.473
G1 X129.17 Y67.1 E610.12
G1 X130.3 Y67.45 E610.76
G1 X131.44 Y67.83 E611.407
G1 X132.58 Y68.25 E612.062
G1 X133.68 Y68.68 E612.702
G1 X134.8 Y69.15 E613.357
G1 X135.88 Y69.62 E613.996
G1 X136.96 Y70.14 E614.644
G1 X138.03 Y70.67 E615.291
G1 X139.09 Y71.23 E615.938
G1 X140.15 Y71.82 E616.594
G1 X141.18 Y72.43 E617.242
G1 X142.19 Y73.05 E617.88
G1 X143.19 Y73.7 E618.528
G1 X144.19 Y74.39 E619.183
G1 X145.17 Y75.09 E619.831
G1 X146.11 Y75.8 E620.471
G1 X147.07 Y76.55 E621.126
G1 X147.99 Y77.31 E621.773
G1 X148.88 Y78.09 E622.413
G1 X149.77 Y78.89 E623.06
G1 X150.65 Y79.72 E623.715
G1 X151.49 Y80.56 E624.354
G1 X152.32 Y81.42 E625.001
G1 X153.14 Y82.31 E625.657
G1 X153.92 Y83.2 E626.296
G1 X154.69 Y84.12 E626.943
G1 X155.45 Y85.07 E627.599
G1 X156.17 Y86.01 E628.238
G1 X156.87 Y86.97 E628.886
G1 X157.56 Y87.97 E629.541
G1 X158.22 Y88.96 E630.181
G1 X158.85 Y89.97 E630.827
G1 X159.47 Y91 E631.476
G1 X160.06 Y92.04 E632.123
G1 X160.63 Y93.11 E632.778
G1 X161.17 Y94.16 E633.418
G1 X161.69 Y95.24 E634.065
G1 X162.18 Y96.34 E634.712
G1 X162.65 Y97.44 E635.359
G1 X163.1 Y98.56 E636.015
G1 X163.51 Y99.67 E636.654
G1 X163.9 Y100.8 E637.302
G1 X164.27 Y101.96 E637.957
G1 X164.61 Y103.09 E638.596
G1 X164.92 Y104.25 E639.244
G1 X165.21 Y105.41 E639.891
G1 X165.47 Y106.58 E640.538
G1 X165.71 Y107.75 E641.186
G1 X165.92 Y108.93 E641.833
G1 X166.1 Y110.12 E642.48
G1 X166.25 Y111.32 E643.135
G1 X166.38 Y112.5 E643.775
G1 X166.48 Y113.69 E644.422
G1 X166.55 Y114.89 E645.07
G1 X166.6 Y116.1 E645.725
G1 X166.61 Y117.29 E646.368
G1 X166.62 Y127.1 E651.673
G1 X166.61 Y127.36 E651.814
G1 X166.58 Y127.59 E651.937
G1 X166.49 Y127.93 E652.129
G1 X166.34 Y128.31 E652.346
G1 X166.12 Y128.68 E652.582
G1 X165.98 Y128.85 E652.703
G1 X165.71 Y129.11 E652.903
G1 X165.47 Y129.26 E653.056
G1 X165.18 Y129.4 E653.228
G1 X164.87 Y129.48 E653.401
G1 X164.63 Y129.5 E653.533
G1 X158.65 E656.767
G1 X158.36 Y129.48 E656.92
G1 X158.12 Y129.42 E657.057
G1 X157.82 Y129.29 E657.231
G1 X157.63 Y129.16 E657.356
G1 X157.34 Y128.92 E657.561
G1 X157.14 Y128.69 E657.723
G1 X156.92 Y128.33 E657.952
G1 X156.84 Y128.15 E658.059
G1 X156.7 Y127.74 E658.295
G1 X156.64 Y127.33 E658.518
G1 X156.63 Y125.61 E659.448
G1 X156.62 Y116.61 E664.311
G1 X156.59 Y115.58 E664.869
G1 X156.53 Y114.55 E665.426
G1 X156.45 Y113.52 E665.983
G1 X156.34 Y112.5 E666.539
G1 X156.21 Y111.48 E667.096
G1 X156.05 Y110.46 E667.653
G1 X155.87 Y109.45 E668.209
G1 X155.66 Y108.44 E668.766
G1 X155.43 Y107.43 E669.323
G1 X155.18 Y106.43 E669.88
G1 X154.9 Y105.44 E670.437
G1 X154.6 Y104.46 E670.994
G1 X154.27 Y103.48 E671.55
G1 X153.92 Y102.51 E672.107
G1 X153.55 Y101.55 E672.664
G1 X153.15 Y100.6 E673.221
G1 X152.73 Y99.66 E673.778
G1 X152.29 Y98.73 E674.334
G1 X151.82 Y97.81 E674.891
G1 X151.34 Y96.9 E675.448
G1 X150.83 Y96 E676.005
G1 X150.13 Y94.84 E676.74
G1 X149.18 Y93.39 E677.674
G1 X148.59 Y92.55 E678.232
G1 X147.97 Y91.72 E678.789
G1 X147.34 Y90.91 E679.345
G1 X146.69 Y90.11 E679.902
G1 X146.02 Y89.33 E680.459
G1 X145.33 Y88.56 E681.016
G1 X144.62 Y87.81 E681.573
G1 X143.9 Y87.08 E682.13
G1 X143.15 Y86.37 E682.687
G1 X142.39 Y85.67 E683.243
G1 X141.62 Y85 E683.8
G1 X140.82 Y84.34 E684.357
G1 X140.01 Y83.7 E684.913
G1 X139.19 Y83.08 E685.471
G1 X138.35 Y82.48 E686.028
G1 X137.5 Y81.91 E686.584
G1 X136.63 Y81.35 E687.141
G1 X135.75 Y80.81 E687.698
G1 X134.86 Y80.3 E688.255
G1 X133.96 Y79.8 E688.811
G1 X133.04 Y79.33 E689.369
G1 X132.11 Y78.88 E689.925
G1 X131.18 Y78.46 E690.482
G1 X130.23 Y78.05 E691.039
G1 X129.27 Y77.67 E691.595
G1 X128.3 Y77.31 E692.152
G1 X127.33 Y76.98 E692.709
G1 X126.35 Y76.67 E693.266
G1 X125.36 Y76.38 E693.823
G1 X124.36 Y76.12 E694.379
G1 X123.36 Y75.88 E694.936
G1 X122.35 Y75.67 E695.493
G1 X121.34 Y75.48 E696.05
G1 X120.32 Y75.31 E696.607
G1 X119.3 Y75.17 E697.164
G1 X118.28 Y75.06 E697.721
G1 X117.25 Y74.97 E698.277
G1 X116.22 Y74.9 E698.834
G1 X115.19 Y74.86 E699.391
G1 X114.16 Y74.84 E699.948
G1 X113.13 Y74.85 E700.504
G1 X112.1 Y74.89 E701.061
G1 X111.07 Y74.94 E701.618
G1 X110.05 Y75.03 E702.175
G1 X109.02 Y75.13 E702.732
G1 X108 Y75.27 E703.289
G1 X106.98 Y75.42 E703.846
G1 X105.97 Y75.61 E704.402
G1 X104.96 Y75.81 E704.959
G1 X103.96 Y76.04 E705.516
G1 X102.96 Y76.3 E706.072
G1 X101.97 Y76.58 E706.63
G1 X100.98 Y76.88 E707.187
G1 X100 Y77.21 E707.743
G1 X99.04 Y77.56 E708.3
G1 X98.08 Y77.93 E708.856
G1 X97.12 Y78.33 E709.413
G1 X96.18 Y78.74 E709.971
G1 X95.25 Y79.19 E710.527
G1 X94.33 Y79.65 E711.084
G1 X93.42 Y80.14 E711.641
G1 X92.53 Y80.64 E712.197
G1 X91.64 Y81.18 E712.755
G1 X90.77 Y81.73 E713.311
G1 X89.92 Y82.3 E713.868
G1 X89.07 Y82.89 E714.425
G1 X88.24 Y83.5 E714.982
G1 X87.43 Y84.13 E715.538
G1 X86.63 Y84.79 E716.095
G1 X85.85 Y85.46 E716.652
G1 X85.09 Y86.15 E717.209
G1 X84.34 Y86.85 E717.766
G1 X83.61 Y87.58 E718.323
G1 X82.89 Y88.32 E718.879
G1 X82.2 Y89.08 E719.436
G1 X81.52 Y89.86 E719.993
G1 X80.86 Y90.65 E720.55
G1 X80.23 Y91.46 E721.106
G1 X79.61 Y92.28 E721.663
G1 X79.01 Y93.12 E722.22
G1 X78.43 Y93.98 E722.777
G1 X77.87 Y94.84 E723.333
G1 X77.34 Y95.72 E723.89
G1 X76.82 Y96.61 E724.448
G1 X76.33 Y97.52 E725.004
G1 X75.86 Y98.44 E725.562
G1 X75.41 Y99.36 E726.118
G1 X74.98 Y100.3 E726.675
G1 X74.58 Y101.25 E727.232
G1 X74.2 Y102.2 E727.788
G1 X73.84 Y103.17 E728.345
G1 X73.51 Y104.15 E728.902
G1 X73.2 Y105.13 E729.459
G1 X72.91 Y106.12 E730.016
G1 X72.65 Y107.11 E730.572
G1 X72.41 Y108.12 E731.129
G1 X72.19 Y109.12 E731.686
G1 X72 Y110.14 E732.243
G1 X71.84 Y111.15 E732.8
G1 X71.7 Y112.17 E733.357
G1 X71.58 Y113.2 E733.914
G1 X71.49 Y114.22 E734.47
G1 X71.43 Y115.25 E735.027
G1 X71.38 Y116.28 E735.584
G1 X71.36 Y118 E736.511
G1 X71.36 Y118.13
G1 X74.36
G1 X70.04 Y119.43 F9000
; TYPE:WALL-INNER
G1 X73.27 E738.26 F720
G1 Y191.05 E776.971
G1 X59.48 E784.424
G1 X59.48 Y119.43 E823.135
G1 X62.66 E824.857
G1 X62.69 Y116.47 E826.452
G1 X62.73 Y115.3 E827.086
G1 X62.79 Y114.13 E827.718
G1 X62.88 Y112.97 E828.35
G1 X63 Y111.85 E828.958
G1 X63.14 Y110.69 E829.588
G1 X63.31 Y109.49 E830.244
G1 X63.51 Y108.34 E830.875
G1 X63.73 Y107.19 E831.507
G1 X63.96 Y106.09 E832.114
G1 X64.24 Y104.96 E832.746
G1 X64.55 Y103.78 E833.401
G1 X64.86 Y102.7 E834.009
G1 X65.21 Y101.57 E834.652
G1 X65.58 Y100.48 E835.271
G1 X65.99 Y99.34 E835.926
G1 X66.4 Y98.3 E836.533
G1 X66.87 Y97.18 E837.188
G1 X67.34 Y96.11 E837.82
G1 X67.82 Y95.09 E838.427
G1 X68.37 Y94.01 E839.083
G1 X68.91 Y92.98 E839.714
G1 X69.46 Y92 E840.321
G1 X70.06 Y90.97 E840.966
G1 X70.66 Y90 E841.584
G1 X71.33 Y88.98 E842.239
G1 X71.96 Y88.05 E842.848
G1 X72.65 Y87.08 E843.491
G1 X73.34 Y86.17 E844.111
G1 X74.09 Y85.21 E844.766
G1 X74.83 Y84.33 E845.385
G1 X75.57 Y83.47 E846.004
G1 X76.39 Y82.57 E846.66
G1 X77.16 Y81.75 E847.267
G1 X78.02 Y80.89 E847.922
G1 X78.84 Y80.1 E848.541
G1 X79.69 Y79.32 E849.161
G1 X80.6 Y78.52 E849.816
G1 X81.46 Y77.8 E850.423
G1 X82.37 Y77.07 E851.055
G1 X83.33 Y76.33 E851.711
G1 X84.26 Y75.65 E852.333
G1 X85.21 Y75 E852.956
G1 X86.19 Y74.35 E853.589
G1 X87.2 Y73.71 E854.235
G1 X88.17 Y73.14 E854.843
G1 X89.18 Y72.56 E855.474
G1 X90.25 Y71.99 E856.13
G1 X91.28 Y71.46 E856.755
G1 X92.3 Y70.97 E857.368
G1 X93.39 Y70.48 E858.014
G1 X94.48 Y70.02 E858.65
G1 X95.53 Y69.6 E859.262
G1 X96.65 Y69.18 E859.907
G1 X97.77 Y68.8 E860.549
G1 X98.86 Y68.44 E861.168
G1 X99.97 Y68.11 E861.795
G1 X101.1 Y67.81 E862.428
G1 X102.24 Y67.53 E863.06
G1 X103.4 Y67.27 E863.706
G1 X104.52 Y67.04 E864.323
G1 X105.65 Y66.84 E864.944
G1 X106.85 Y66.66 E865.596
G1 X107.99 Y66.51 E866.22
G1 X109.15 Y66.39 E866.851
G1 X110.33 Y66.29 E867.492
G1 X111.46 Y66.22 E868.102
G1 X112.66 Y66.18 E868.75
G1 X113.82 Y66.16 E869.38
G1 X114.99 Y66.17 E870.01
G1 X116.16 Y66.21 E870.642
G1 X117.33 Y66.27 E871.275
G1 X118.49 Y66.36 E871.903
G1 X119.63 Y66.47 E872.522
G1 X120.8 Y66.61 E873.161
G1 X121.97 Y66.78 E873.797
G1 X123.12 Y66.98 E874.432
G1 X124.27 Y67.2 E875.064
G1 X125.39 Y67.44 E875.684
G1 X126.52 Y67.71 E876.313
G1 X127.69 Y68.02 E876.965
G1 X128.79 Y68.34 E877.583
G1 X129.91 Y68.69 E878.216
G1 X131.01 Y69.06 E878.845
G1 X132.13 Y69.47 E879.49
G1 X133.18 Y69.88 E880.097
G1 X134.28 Y70.34 E880.746
G1 X135.35 Y70.81 E881.378
G1 X136.38 Y71.3 E881.991
G1 X137.47 Y71.84 E882.647
G1 X138.47 Y72.37 E883.262
G1 X139.49 Y72.94 E883.894
G1 X140.53 Y73.55 E884.542
G1 X141.48 Y74.14 E885.148
G1 X142.5 Y74.8 E885.803
G1 X143.44 Y75.44 E886.42
G1 X144.39 Y76.13 E887.055
G1 X145.31 Y76.82 E887.675
G1 X146.26 Y77.57 E888.33
G1 X147.14 Y78.3 E888.949
G1 X148.01 Y79.05 E889.568
G1 X148.91 Y79.86 E890.224
G1 X149.72 Y80.64 E890.831
G1 X150.58 Y81.49 E891.486
G1 X151.38 Y82.32 E892.105
G1 X152.15 Y83.16 E892.725
G1 X152.95 Y84.07 E893.38
G1 X153.68 Y84.93 E893.987
G1 X154.41 Y85.85 E894.619
G1 X155.14 Y86.81 E895.275
G1 X155.83 Y87.75 E895.904
G1 X156.47 Y88.67 E896.513
G1 X157.12 Y89.65 E897.144
G1 X157.76 Y90.68 E897.799
G1 X158.34 Y91.64 E898.407
G1 X158.91 Y92.66 E899.038
G1 X159.49 Y93.72 E899.694
G1 X160.02 Y94.77 E900.326
G1 X160.5 Y95.78 E900.932
G1 X161 Y96.88 E901.587
G1 X161.46 Y97.96 E902.22
G1 X161.87 Y99 E902.826
G1 X162.3 Y100.14 E903.482
G1 X162.68 Y101.24 E904.113
G1 X163.03 Y102.33 E904.732
G1 X163.36 Y103.43 E905.351
G1 X163.66 Y104.56 E905.983
G1 X163.94 Y105.69 E906.615
G1 X164.21 Y106.88 E907.27
G1 X164.43 Y107.98 E907.878
G1 X164.63 Y109.13 E908.508
G1 X164.81 Y110.33 E909.164
G1 X164.96 Y111.49 E909.794
G1 X165.08 Y112.61 E910.404
G1 X165.18 Y113.82 E911.059
G1 X165.25 Y114.94 E911.666
G1 X165.3 Y116.15 E912.321
G1 X165.31 Y117.29 E912.938
G1 X165.32 Y127.08 E918.229
G1 X165.31 Y127.26 E918.326
G1 X165.3 Y127.34 E918.371
G1 X165.25 Y127.54 E918.483
G1 X165.18 Y127.72 E918.589
G1 X165.05 Y127.93 E918.718
G1 X165.03 Y127.96 E918.739
G1 X164.89 Y128.08 E918.839
G1 X164.83 Y128.13 E918.88
G1 X164.73 Y128.17 E918.941
G1 X164.65 Y128.19 E918.984
G1 X164.57 Y128.2 E919.03
G1 X158.7 E922.202
G1 X158.58 Y128.19 E922.267
G1 X158.53 Y128.18 E922.291
G1 X158.43 Y128.14 E922.351
G1 X158.39 Y128.11 E922.377
G1 X158.26 Y127.99 E922.475
G1 X158.19 Y127.92 E922.529
G1 X158.07 Y127.72 E922.655
G1 X158.05 Y127.69 E922.674
G1 X157.97 Y127.44 E922.816
G1 X157.94 Y127.23 E922.93
G1 X157.93 Y125.6 E923.809
G1 X157.92 Y116.59 E928.68
G1 X157.89 Y115.52 E929.258
G1 X157.83 Y114.46 E929.832
G1 X157.74 Y113.4 E930.406
G1 X157.63 Y112.35 E930.98
G1 X157.5 Y111.29 E931.554
G1 X157.33 Y110.24 E932.127
G1 X157.15 Y109.2 E932.701
G1 X156.93 Y108.16 E933.274
G1 X156.7 Y107.13 E933.848
G1 X156.43 Y106.1 E934.422
G1 X156.15 Y105.07 E934.996
G1 X155.83 Y104.06 E935.57
G1 X155.5 Y103.05 E936.144
G1 X155.14 Y102.05 E936.717
G1 X154.75 Y101.06 E937.291
G1 X154.34 Y100.08 E937.865
G1 X153.91 Y99.11 E938.439
G1 X153.46 Y98.16 E939.012
G1 X152.98 Y97.21 E939.587
G1 X152.48 Y96.27 E940.16
G1 X151.95 Y95.35 E940.736
G1 X151.23 Y94.15 E941.493
G1 X150.26 Y92.66 E942.451
G1 X149.64 Y91.79 E943.029
G1 X149.01 Y90.93 E943.603
G1 X148.36 Y90.1 E944.176
G1 X147.69 Y89.27 E944.751
G1 X147 Y88.47 E945.324
G1 X146.28 Y87.68 E945.898
G1 X145.56 Y86.91 E946.472
G1 X144.81 Y86.15 E947.046
G1 X144.04 Y85.42 E947.62
G1 X143.26 Y84.7 E948.194
G1 X142.46 Y84.01 E948.767
G1 X141.64 Y83.33 E949.341
G1 X140.81 Y82.67 E949.915
G1 X139.96 Y82.03 E950.489
G1 X139.09 Y81.42 E951.063
G1 X138.22 Y80.82 E951.636
G1 X137.32 Y80.25 E952.209
G1 X136.42 Y79.69 E952.783
G1 X135.5 Y79.16 E953.357
G1 X134.57 Y78.65 E953.931
G1 X133.62 Y78.17 E954.505
G1 X132.67 Y77.71 E955.078
G1 X131.7 Y77.27 E955.653
G1 X130.72 Y76.85 E956.227
G1 X129.74 Y76.46 E956.8
G1 X128.74 Y76.09 E957.374
G1 X127.74 Y75.75 E957.948
G1 X126.72 Y75.43 E958.522
G1 X125.7 Y75.13 E959.095
G1 X124.68 Y74.86 E959.669
G1 X123.64 Y74.61 E960.243
G1 X122.61 Y74.39 E960.816
G1 X121.56 Y74.2 E961.39
G1 X120.51 Y74.03 E961.964
G1 X119.46 Y73.88 E962.539
G1 X118.41 Y73.76 E963.112
G1 X117.35 Y73.67 E963.686
G1 X116.29 Y73.6 E964.26
G1 X115.23 Y73.56 E964.834
G1 X114.17 Y73.54 E965.408
G1 X113.11 Y73.55 E965.981
G1 X112.05 Y73.59 E966.554
G1 X110.99 Y73.65 E967.129
G1 X109.93 Y73.73 E967.703
G1 X108.87 Y73.84 E968.276
G1 X107.82 Y73.98 E968.85
G1 X106.77 Y74.14 E969.424
G1 X105.73 Y74.33 E969.997
G1 X104.69 Y74.54 E970.571
G1 X103.65 Y74.78 E971.145
G1 X102.62 Y75.04 E971.719
G1 X101.6 Y75.33 E972.293
G1 X100.58 Y75.64 E972.867
G1 X99.58 Y75.98 E973.44
G1 X98.58 Y76.34 E974.014
G1 X97.59 Y76.72 E974.588
G1 X96.61 Y77.13 E975.162
G1 X95.64 Y77.56 E975.736
G1 X94.68 Y78.02 E976.309
G1 X93.73 Y78.5 E976.883
G1 X92.8 Y79 E977.457
G1 X91.87 Y79.52 E978.03
G1 X90.96 Y80.07 E978.605
G1 X90.07 Y80.63 E979.178
G1 X89.18 Y81.22 E979.752
G1 X88.31 Y81.83 E980.326
G1 X87.46 Y82.47 E980.9
G1 X86.62 Y83.12 E981.473
G1 X85.8 Y83.79 E982.047
G1 X84.99 Y84.48 E982.621
G1 X84.2 Y85.19 E983.195
G1 X83.43 Y85.92 E983.768
G1 X82.68 Y86.67 E984.342
G1 X81.94 Y87.43 E984.916
G1 X81.23 Y88.22 E985.49
G1 X80.53 Y89.02 E986.063
G1 X79.85 Y89.83 E986.638
G1 X79.2 Y90.67 E987.211
G1 X78.56 Y91.52 E987.785
G1 X77.94 Y92.38 E988.359
G1 X77.35 Y93.26 E988.933
G1 X76.77 Y94.15 E989.506
G1 X76.22 Y95.06 E990.08
G1 X75.69 Y95.98 E990.654
G1 X75.18 Y96.91 E991.228
G1 X74.69 Y97.85 E991.802
G1 X74.23 Y98.81 E992.375
G1 X73.79 Y99.78 E992.95
G1 X73.38 Y100.75 E993.523
G1 X72.98 Y101.74 E994.096
G1 X72.61 Y102.73 E994.67
G1 X72.27 Y103.74 E995.244
G1 X71.95 Y104.75 E995.819
G1 X71.66 Y105.77 E996.392
G1 X71.38 Y106.8 E996.966
G1 X71.14 Y107.83 E997.54
G1 X70.92 Y108.87 E998.113
G1 X70.72 Y109.91 E998.687
G1 X70.55 Y110.96 E999.261
G1 X70.41 Y112.01 E999.835
G1 X70.29 Y113.07 E1000.409
G1 X70.2 Y114.12 E1000.982
G1 X70.13 Y115.18 E1001.556
G1 X70.09 Y116.25 E1002.131
G1 X70.04 Y119.3 E1003.779
G1 X70.04 Y119.43
G1 E1001.779 F1800
G1 Z1.5
G1 X61.63 Y120.37 F9000
; TYPE:BOTTOM-FILL
G1 Z1
G1 E1003.779 F1800
G1 X60.43 Y121.58 E1004.703 F720
G1 Y123.42 F9000
G1 X63.47 Y120.37 E1007.033 F720
G1 E1005.033 F1800
G1 Z1.5
G1 X71.81 Y89.98 F9000
G1 Z1
G1 E1007.033 F1800
G1 X86.51 Y75.28 E1018.272 F720
G1 E1016.272 F1800
G1 Z1.5
G1 X90.91 Y72.72 F9000
G1 Z1
G1 E1018.272 F1800
G1 X69.24 Y94.38 E1034.832 F720
G1 X67.62 Y97.84 F9000
G1 X94.36 Y71.1 E1055.271 F720
G1 X97.36 Y69.94 F9000
G1 X66.46 Y100.84 E1078.889 F720
G1 E1076.889 F1800
G1 Z1.5
G1 X88.81 Y80.33 F9000
G1 Z1
G1 E1078.889 F1800
G1 X100.06 Y69.08 E1087.492 F720
G1 X102.55 Y68.43 F9000
G1 X93.36 Y77.62 E1094.518 F720
G1 X96.79 Y76.03 F9000
G1 X104.87 Y67.95 E1100.694 F720
G1 X107.07 Y67.59 F9000
G1 X99.73 Y74.93 E1106.3 F720
G1 X102.37 Y74.13 F9000
G1 X109.15 Y67.35 E1111.482 F720
G1 X111.14 Y67.19 F9000
G1 X104.78 Y73.55 E1116.341 F720
G1 X107.03 Y73.14 F9000
G1 X113.05 Y67.12 E1120.94 F720
G1 X114.89 Y67.12 F9000
G1 X109.15 Y72.86 E1125.327 F720
G1 X111.16 Y72.68 F9000
G1 X116.66 Y67.18 E1129.531 F720
G1 X118.39 Y67.3 F9000
G1 X113.08 Y72.6 E1133.582 F720
G1 X114.92 Y72.61 F9000
G1 X120.05 Y67.48 E1137.501 F720
G1 X121.67 Y67.7 F9000
G1 X116.69 Y72.68 E1141.306 F720
G1 X118.39 Y72.81 F9000
G1 X123.23 Y67.97 E1145.006 F720
G1 X124.76 Y68.28 F9000
G1 X120.04 Y73 E1148.618 F720
G1 X121.63 Y73.25 F9000
G1 X126.25 Y68.63 E1152.149 F720
G1 X127.7 Y69.01 F9000
G1 X123.17 Y73.54 E1155.612 F720
G1 X124.67 Y73.88 F9000
G1 X129.12 Y69.44 E1159.01 F720
G1 X130.5 Y69.89 F9000
G1 X126.13 Y74.26 E1162.353 F720
G1 X127.54 Y74.69 F9000
G1 X131.85 Y70.38 E1165.646 F720
G1 X133.17 Y70.9 F9000
G1 X128.92 Y75.15 E1168.89 F720
G1 X130.26 Y75.64 F9000
G1 X134.45 Y71.45 E1172.092 F720
G1 X135.71 Y72.03 F9000
G1 X131.57 Y76.18 E1175.26 F720
G1 X132.84 Y76.74 F9000
G1 X136.94 Y72.64 E1178.395 F720
G1 X138.15 Y73.28 F9000
G1 X134.09 Y77.34 E1181.499 F720
G1 X135.29 Y77.97 F9000
G1 X139.32 Y73.94 E1184.576 F720
G1 X140.47 Y74.63 F9000
G1 X136.47 Y78.63 E1187.632 F720
G1 X137.62 Y79.32 F9000
G1 X141.59 Y75.35 E1190.667 F720
G1 X142.69 Y76.09 F9000
G1 X138.75 Y80.03 E1193.683 F720
G1 X139.84 Y80.78 F9000
G1 X143.77 Y76.85 E1196.687 F720
G1 X144.82 Y77.64 F9000
G1 X140.9 Y81.55 E1199.678 F720
G1 X141.94 Y82.35 F9000
G1 X145.84 Y78.45 E1202.659 F720
G1 X146.84 Y79.29 F9000
G1 X142.95 Y83.18 E1205.63 F720
G1 X143.94 Y84.04 F9000
G1 X147.82 Y80.16 E1208.596 F720
G1 X148.77 Y81.04 F9000
G1 X144.89 Y84.92 E1211.561 F720
G1 X145.82 Y85.83 F9000
G1 X149.7 Y81.95 E1214.524 F720
G1 X150.6 Y82.88 F9000
G1 X146.72 Y86.76 E1217.49 F720
G1 X147.6 Y87.72 F9000
G1 X151.48 Y83.84 E1220.458 F720
G1 X152.34 Y84.82 F9000
G1 X148.45 Y88.71 E1223.432 F720
G1 X149.27 Y89.73 F9000
G1 X153.17 Y85.83 E1226.413 F720
G1 X153.98 Y86.86 F9000
G1 X150.07 Y90.77 E1229.405 F720
G1 X150.84 Y91.84 F9000
G1 X154.77 Y87.91 E1232.409 F720
G1 X155.53 Y88.99 F9000
G1 X151.57 Y92.94 E1235.433 F720
G1 X152.29 Y94.07 F9000
G1 X156.27 Y90.09 E1238.475 F720
G1 X156.98 Y91.22 F9000
G1 X152.97 Y95.22 E1241.535 F720
G1 X153.63 Y96.41 F9000
G1 X157.66 Y92.37 E1244.618 F720
G1 X158.32 Y93.56 F9000
G1 X154.25 Y97.62 E1247.726 F720
G1 X154.84 Y98.87 F9000
G1 X158.95 Y94.76 E1250.866 F720
G1 X159.55 Y96 F9000
G1 X155.4 Y100.15 E1254.041 F720
G1 X155.92 Y101.46 F9000
G1 X160.13 Y97.26 E1257.253 F720
G1 X160.67 Y98.55 F9000
G1 X156.42 Y102.81 E1260.506 F720
G1 X156.87 Y104.2 F9000
G1 X161.19 Y99.88 E1263.807 F720
G1 X161.67 Y101.23 F9000
G1 X157.28 Y105.62 E1267.159 F720
G1 X157.66 Y107.08 F9000
G1 X162.12 Y102.62 E1270.571 F720
G1 X162.54 Y104.04 F9000
G1 X157.99 Y108.59 E1274.047 F720
G1 X158.28 Y110.14 F9000
G1 X162.92 Y105.5 E1277.592 F720
G1 X163.26 Y107 F9000
G1 X158.51 Y111.75 E1281.223 F720
G1 X158.69 Y113.4 F9000
G1 X163.56 Y108.53 E1284.942 F720
G1 X163.82 Y110.11 F9000
G1 X158.82 Y115.12 E1288.766 F720
G1 X158.87 Y116.9 F9000
G1 X164.03 Y111.74 E1292.712 F720
G1 X164.2 Y113.41 F9000
G1 X158.87 Y118.74 E1296.779 F720
G1 X158.88 Y120.57 F9000
G1 X164.31 Y115.14 E1300.931 F720
G1 X164.36 Y116.93 F9000
G1 X158.88 Y122.41 E1305.118 F720
G1 X158.88 Y124.25 F9000
G1 X164.36 Y118.76 E1309.309 F720
G1 X164.36 Y120.6 F9000
G1 X158.88 Y126.08 E1313.497 F720
G1 X159.55 Y127.25 F9000
G1 X164.36 Y122.44 E1317.175 F720
G1 Y124.28 F9000
G1 X161.39 Y127.25 E1319.448 F720
G1 X163.23 F9000
G1 X164.36 Y126.11 E1320.317 F720
G1 E1318.317 F1800
G1 Z1.5
G1 X163.88 F9000
G1 X157.39 Y107.43
G1 X148.79 Y89.36
G1 X134.7 Y77.96
G1 X118.21 Y72.78
G1 X99.24 Y74.89
G1 X85.7 Y82.73
G1 X76.86 Y92.28
G1 Z1
G1 E1320.317 F1800
G1 X65.61 Y103.53 E1328.921 F720
G1 X64.96 Y106.02 F9000
G1 X74.15 Y96.83 E1335.949 F720
G1 X72.55 Y100.27 F9000
G1 X64.47 Y108.35 E1342.123 F720
G1 X64.12 Y110.54 F9000
G1 X71.45 Y103.21 E1347.725 F720
G1 X70.65 Y105.84 F9000
G1 X63.87 Y112.62 E1352.909 F720
G1 X63.72 Y114.61 F9000
G1 X70.08 Y108.26 E1357.769 F720
G1 X69.66 Y110.51 F9000
G1 X63.64 Y116.53 E1362.369 F720
G1 X63.62 Y118.39 F9000
G1 X69.38 Y112.63 E1366.771 F720
G1 X69.21 Y114.64 F9000
G1 X63.6 Y120.24 E1371.056 F720
G1 E1369.056 F1800
G1 Z1.5
G1 X60.43 Y125.26 F9000
G1 Z1
G1 E1371.056 F1800
G1 X69.13 Y116.56 E1377.709 F720
G1 X69.1 Y118.42 F9000
G1 X60.43 Y127.1 E1384.34 F720
G1 Y128.94 F9000
G1 X69.07 Y120.29 E1390.948 F720
G1 X70.83 Y120.37 F9000
G1 X60.43 Y130.78 E1398.898 F720
G1 X60.43 Y132.61 F9000
G1 X72.32 Y120.72 E1407.991 F720
G1 Y122.56 F9000
G1 X60.43 Y134.45 E1417.084 F720
G1 Y136.29 F9000
G1 X72.32 Y124.39 E1426.176 F720
G1 Y126.23 F9000
G1 X60.43 Y138.13 E1435.269 F720
G1 Y139.97 F9000
G1 X72.32 Y128.07 E1444.362 F720
G1 Y129.91 F9000
G1 X60.43 Y141.8 E1453.455 F720
G1 Y143.64 F9000
G1 X72.32 Y131.75 E1462.547 F720
G1 Y133.59 F9000
G1 X60.43 Y145.48 E1471.639 F720
G1 Y147.32 F9000
G1 X72.32 Y135.42 E1480.731 F720
G1 Y137.26 F9000
G1 X60.43 Y149.16 E1489.823 F720
G1 Y151 F9000
G1 X72.32 Y139.1 E1498.915 F720
G1 Y140.94 F9000
G1 X60.43 Y152.83 E1508.007 F720
G1 Y154.67 F9000
G1 X72.32 Y142.78 E1517.098 F720
G1 Y144.62 F9000
G1 X60.43 Y156.51 E1526.189 F720
G1 Y158.35 F9000
G1 X72.32 Y146.46 E1535.28 F720
G1 Y148.29 F9000
G1 X60.43 Y160.19 E1544.371 F720
G1 Y162.03 F9000
G1 X72.32 Y150.13 E1553.462 F720
G1 Y151.97 F9000
G1 X60.43 Y163.86 E1562.553 F720
G1 Y165.7 F9000
G1 X72.32 Y153.81 E1571.643 F720
G1 X72.32 Y155.65 F9000
G1 X60.43 Y167.54 E1580.732 F720
G1 Y169.38 F9000
G1 X72.32 Y157.49 E1589.822 F720
G1 Y159.33 F9000
G1 X60.43 Y171.22 E1598.911 F720
G1 X60.43 Y173.06 F9000
G1 X72.32 Y161.16 E1608.001 F720
G1 Y163 F9000
G1 X60.43 Y174.89 E1617.09 F720
G1 Y176.73 F9000
G1 X72.32 Y164.84 E1626.179 F720
G1 Y166.68 F9000
G1 X60.43 Y178.57 E1635.268 F720
G1 X60.43 Y180.41 F9000
G1 X72.32 Y168.52 E1644.356 F720
G1 Y170.36 F9000
G1 X60.43 Y182.25 E1653.444 F720
G1 Y184.09 F9000
G1 X72.32 Y172.19 E1662.533 F720
G1 Y174.03 F9000
G1 X60.43 Y185.92 E1671.621 F720
G1 Y187.76 F9000
G1 X72.32 Y175.87 E1680.709 F720
G1 Y177.71 F9000
G1 X60.43 Y189.6 E1689.797 F720
G1 X61.77 Y190.1 F9000
G1 X72.32 Y179.55 E1697.86 F720
G1 Y181.39 F9000
G1 X63.61 Y190.1 E1704.518 F720
G1 X65.45 F9000
G1 X72.32 Y183.23 E1709.771 F720
G1 Y185.06 F9000
G1 X67.29 Y190.1 E1713.618 F720
G1 X69.13 F9000
G1 X72.32 Y186.9 E1716.06 F720
G1 Y188.74 F9000
G1 X70.97 Y190.1 E1717.096 F720
; Layer Change GCode
; LAYER:1
; LAYER_HEIGHT:0.75
; TYPE:FILL
G1 E1715.096 F1800
G1 Z1.5
G1 Z2.25 F9000
G1 X71.08 Y182.19
G1 X71.19 Y174.29
G1 X71.3 Y166.39
G1 X71.41 Y158.49
G1 X71.52 Y150.58
G1 X71.63 Y142.68
G1 X71.74 Y134.78
G1 X71.86 Y126.88
G1 X71.97 Y118.98
; TYPE:WALL-INNER
G1 Z1.75
G1 E1717.096 F1800
G1 X74.3 Y118.98 E1717.823 F3600
G1 Y123.82 E1719.333
G1 Y128.66 E1720.842
G1 Y133.5 E1722.352
G1 Y138.34 E1723.862
G1 Y143.19 E1725.372
G1 Y148.03 E1726.882
G1 Y152.87 E1728.392
G1 Y157.71 E1729.902
G1 Y162.56 E1731.412
G1 Y167.4 E1732.922
G1 Y172.24 E1734.431
G1 Y177.08 E1735.941
G1 Y181.92 E1737.451
G1 Y186.77 E1738.961
G1 Y191.61 E1740.471
G1 X74.28 Y191.73 E1740.509
G1 X74.25 Y191.85 E1740.546
G1 X74.22 Y191.9 E1740.566
G1 X74.15 Y191.98 E1740.599
G1 X74.06 Y192.03 E1740.632
G1 X73.99 Y192.05 E1740.652
G1 X73.9 Y192.07 E1740.683
G1 X68.9 Y192.07 E1742.24
G1 X63.91 E1743.797
G1 X58.92 E1745.353
G1 X58.77 Y192.06 E1745.402
G1 X58.7 Y192.04 E1745.423
G1 X58.6 Y191.98 E1745.458
G1 X58.53 Y191.9 E1745.491
G1 X58.5 Y191.85 E1745.511
G1 X58.46 Y191.72 E1745.551
G1 X58.45 Y191.65 E1745.572
G1 X58.45 Y186.81 E1747.083
G1 X58.46 Y181.96 E1748.594
G1 Y177.12 E1750.105
G1 Y172.27 E1751.616
G1 Y167.43 E1753.127
G1 Y162.58 E1754.637
G1 Y157.74 E1756.148
G1 Y152.89 E1757.659
G1 Y148.05 E1759.17
G1 Y143.2 E1760.681
G1 Y138.36 E1762.192
G1 Y133.51 E1763.702
G1 Y128.67 E1765.213
G1 Y123.82 E1766.724
G1 Y118.98 E1768.235
G1 X60.74 Y118.98 E1768.945
G1 X60.77 Y116.48 E1769.724
G1 X60.8 Y115.29 E1770.093
G1 X60.87 Y114.08 E1770.471
G1 X60.96 Y112.88 E1770.849
G1 X61.08 Y111.63 E1771.238
G1 X61.23 Y110.43 E1771.615
G1 X61.4 Y109.27 E1771.983
G1 X61.6 Y108.07 E1772.361
G1 X61.82 Y106.88 E1772.739
G1 X62.08 Y105.7 E1773.116
G1 X62.37 Y104.48 E1773.505
G1 X62.68 Y103.31 E1773.884
G1 X63 Y102.18 E1774.251
G1 X63.36 Y101.02 E1774.628
G1 X63.76 Y99.84 E1775.016
G1 X64.17 Y98.74 E1775.384
G1 X64.62 Y97.57 E1775.773
G1 X65.08 Y96.46 E1776.15
G1 X65.56 Y95.38 E1776.518
G1 X66.09 Y94.25 E1776.907
G1 X66.63 Y93.17 E1777.284
G1 X67.18 Y92.12 E1777.652
G1 X67.77 Y91.06 E1778.03
G1 X68.38 Y90.02 E1778.407
G1 X69.04 Y88.96 E1778.796
G1 X69.7 Y87.94 E1779.174
G1 X70.36 Y86.97 E1779.541
G1 X71.09 Y85.96 E1779.93
G1 X71.8 Y85.02 E1780.297
G1 X72.55 Y84.06 E1780.675
G1 X73.34 Y83.1 E1781.064
G1 X74.11 Y82.21 E1781.431
G1 X74.92 Y81.31 E1781.809
G1 X75.76 Y80.43 E1782.187
G1 X76.61 Y79.57 E1782.565
G1 X77.51 Y78.71 E1782.953
G1 X78.38 Y77.91 E1783.321
G1 X79.28 Y77.11 E1783.698
G1 X80.24 Y76.31 E1784.087
G1 X81.19 Y75.55 E1784.465
G1 X82.12 Y74.83 E1784.832
G1 X83.11 Y74.11 E1785.215
G1 X84.11 Y73.42 E1785.593
G1 X85.12 Y72.75 E1785.972
G1 X86.16 Y72.09 E1786.355
G1 X87.17 Y71.49 E1786.722
G1 X88.25 Y70.87 E1787.111
G1 X89.29 Y70.32 E1787.477
G1 X90.38 Y69.76 E1787.859
G1 X91.49 Y69.23 E1788.244
G1 X92.58 Y68.73 E1788.617
G1 X93.68 Y68.26 E1788.989
G1 X94.81 Y67.81 E1789.369
G1 X95.97 Y67.38 E1789.756
G1 X97.09 Y66.99 E1790.123
G1 X98.27 Y66.61 E1790.509
G1 X99.44 Y66.27 E1790.889
G1 X100.57 Y65.96 E1791.257
G1 X101.77 Y65.66 E1791.641
G1 X102.96 Y65.39 E1792.021
G1 X104.14 Y65.15 E1792.399
G1 X105.31 Y64.95 E1792.769
G1 X106.54 Y64.76 E1793.157
G1 X107.73 Y64.6 E1793.53
G1 X108.92 Y64.48 E1793.902
G1 X110.16 Y64.37 E1794.29
G1 X111.33 Y64.3 E1794.658
G1 X112.56 Y64.25 E1795.041
G1 X113.78 Y64.23 E1795.421
G1 X115 Y64.24 E1795.801
G1 X116.18 Y64.28 E1796.17
G1 X117.4 Y64.34 E1796.55
G1 X118.62 Y64.44 E1796.931
G1 X119.83 Y64.55 E1797.31
G1 X121.04 Y64.7 E1797.691
G1 X122.22 Y64.87 E1798.064
G1 X123.42 Y65.07 E1798.441
G1 X124.59 Y65.3 E1798.815
G1 X125.8 Y65.56 E1799.199
G1 X126.97 Y65.84 E1799.576
G1 X128.16 Y66.15 E1799.96
G1 X129.3 Y66.48 E1800.327
G1 X130.45 Y66.84 E1800.704
G1 X131.63 Y67.24 E1801.093
G1 X132.74 Y67.64 E1801.46
G1 X133.9 Y68.09 E1801.849
G1 X135.02 Y68.56 E1802.227
G1 X136.1 Y69.04 E1802.595
G1 X137.21 Y69.56 E1802.978
G1 X138.3 Y70.1 E1803.357
G1 X139.35 Y70.66 E1803.728
G1 X140.42 Y71.25 E1804.11
G1 X141.47 Y71.87 E1804.488
G1 X142.51 Y72.51 E1804.872
G1 X143.5 Y73.16 E1805.239
G1 X144.53 Y73.86 E1805.628
G1 X145.52 Y74.57 E1806.006
G1 X146.46 Y75.27 E1806.373
G1 X147.43 Y76.03 E1806.757
G1 X148.37 Y76.82 E1807.14
G1 X149.26 Y77.59 E1807.507
G1 X150.16 Y78.4 E1807.885
G1 X151.04 Y79.23 E1808.263
G1 X151.9 Y80.09 E1808.641
G1 X152.77 Y80.98 E1809.03
G1 X153.57 Y81.85 E1809.397
G1 X154.37 Y82.76 E1809.775
G1 X155.17 Y83.71 E1810.163
G1 X155.93 Y84.66 E1810.542
G1 X156.64 Y85.6 E1810.909
G1 X157.36 Y86.57 E1811.286
G1 X158.05 Y87.57 E1811.664
G1 X158.74 Y88.61 E1812.053
G1 X159.38 Y89.63 E1812.431
G1 X159.99 Y90.65 E1812.799
G1 X160.6 Y91.73 E1813.187
G1 X161.16 Y92.77 E1813.554
G1 X161.71 Y93.85 E1813.932
G1 X162.25 Y94.97 E1814.321
G1 X162.75 Y96.07 E1814.698
G1 X163.21 Y97.16 E1815.066
G1 X163.66 Y98.28 E1815.443
G1 X164.1 Y99.45 E1815.832
G1 X164.48 Y100.56 E1816.199
G1 X164.85 Y101.72 E1816.577
G1 X165.21 Y102.91 E1816.966
G1 X165.52 Y104.05 E1817.333
G1 X165.81 Y105.22 E1817.711
G1 X166.08 Y106.44 E1818.1
G1 X166.32 Y107.63 E1818.477
G1 X166.53 Y108.79 E1818.845
G1 X166.72 Y110.02 E1819.233
G1 X166.87 Y111.19 E1819.6
G1 X167 Y112.39 E1819.978
G1 X167.1 Y113.63 E1820.367
G1 X167.17 Y114.81 E1820.734
G1 X167.22 Y116.02 E1821.113
G1 X167.24 Y117.24 E1821.494
G1 Y120.61 E1822.544
G1 Y123.98 E1823.595
G1 Y127.35 E1824.646
G1 X167.23 Y127.46 E1824.679
G1 X167.17 Y127.85 E1824.801
G1 X167.07 Y128.27 E1824.937
G1 X166.95 Y128.59 E1825.043
G1 X166.77 Y128.95 E1825.17
G1 X166.56 Y129.28 E1825.292
G1 X166.36 Y129.52 E1825.389
G1 X166 Y129.87 E1825.545
G1 X165.69 Y130.1 E1825.667
G1 X165.41 Y130.26 E1825.767
G1 X165.14 Y130.37 E1825.857
G1 X164.87 Y130.45 E1825.946
G1 X164.44 Y130.52 E1826.082
G1 X158.93 Y130.52 E1827.798
G1 X158.67 Y130.5 E1827.879
G1 X158.33 Y130.44 E1827.989
G1 X157.98 Y130.32 E1828.102
G1 X157.64 Y130.15 E1828.223
G1 X157.28 Y129.9 E1828.357
G1 X156.93 Y129.57 E1828.509
G1 X156.84 Y129.47 E1828.552
G1 X156.59 Y129.13 E1828.682
G1 X156.4 Y128.79 E1828.804
G1 X156.26 Y128.49 E1828.907
G1 X156.13 Y128.07 E1829.044
G1 X156.05 Y127.72 E1829.156
G1 X156.01 Y127.32 E1829.282
G1 Y123.76 E1830.39
G1 X156 Y120.21 E1831.499
G1 Y116.66 E1832.607
G1 X155.97 Y115.64 E1832.924
G1 X155.91 Y114.62 E1833.241
G1 X155.83 Y113.61 E1833.558
G1 X155.72 Y112.6 E1833.874
G1 X155.59 Y111.6 E1834.191
G1 X155.44 Y110.59 E1834.507
G1 X155.22 Y109.4 E1834.885
G1 X154.83 Y107.61 E1835.455
G1 X154.58 Y106.62 E1835.774
G1 X154.31 Y105.65 E1836.09
G1 X153.95 Y104.49 E1836.468
G1 X153.35 Y102.76 E1837.038
G1 X152.98 Y101.81 E1837.356
G1 X152.59 Y100.87 E1837.673
G1 X152.17 Y99.95 E1837.989
G1 X151.74 Y99.03 E1838.306
G1 X151.19 Y97.95 E1838.683
G1 X150.31 Y96.35 E1839.253
G1 X149.68 Y95.31 E1839.631
G1 X149.14 Y94.45 E1839.948
G1 X148.57 Y93.6 E1840.267
G1 X147.5 Y92.13 E1840.836
G1 X146.87 Y91.32 E1841.154
G1 X146.23 Y90.53 E1841.471
G1 X145.57 Y89.76 E1841.787
G1 X144.89 Y89.01 E1842.104
G1 X144.19 Y88.27 E1842.42
G1 X143.48 Y87.55 E1842.737
G1 X142.75 Y86.85 E1843.053
G1 X142 Y86.16 E1843.37
G1 X141.23 Y85.49 E1843.686
G1 X140.45 Y84.84 E1844.003
G1 X139.66 Y84.21 E1844.319
G1 X138.85 Y83.61 E1844.635
G1 X138.02 Y83.01 E1844.952
G1 X137.18 Y82.44 E1845.269
G1 X136.33 Y81.89 E1845.586
G1 X135.29 Y81.26 E1845.963
G1 X133.69 Y80.37 E1846.533
G1 X132.79 Y79.91 E1846.851
G1 X131.87 Y79.46 E1847.168
G1 X130.95 Y79.04 E1847.485
G1 X130.02 Y78.64 E1847.801
G1 X129.07 Y78.27 E1848.117
G1 X128.12 Y77.91 E1848.434
G1 X127.16 Y77.58 E1848.75
G1 X126.2 Y77.28 E1849.067
G1 X125.22 Y76.99 E1849.384
G1 X124.05 Y76.69 E1849.761
G1 X122.26 Y76.29 E1850.331
G1 X121.26 Y76.1 E1850.65
G1 X120.26 Y75.94 E1850.966
G1 X119.25 Y75.8 E1851.283
G1 X118.24 Y75.69 E1851.599
G1 X117.23 Y75.59 E1851.916
G1 X116.22 Y75.53 E1852.233
G1 X115.21 Y75.49 E1852.549
G1 X114.19 Y75.47 E1852.866
G1 X113.18 Y75.48 E1853.182
G1 X112.16 Y75.51 E1853.498
G1 X111.15 Y75.57 E1853.815
G1 X110.13 Y75.65 E1854.132
G1 X109.13 Y75.75 E1854.448
G1 X108.12 Y75.88 E1854.764
G1 X107.12 Y76.04 E1855.081
G1 X105.92 Y76.25 E1855.459
G1 X104.14 Y76.64 E1856.028
G1 X103.15 Y76.9 E1856.347
G1 X102.17 Y77.17 E1856.664
G1 X101.01 Y77.53 E1857.041
G1 X99.29 Y78.13 E1857.611
G1 X98.34 Y78.5 E1857.93
G1 X97.4 Y78.89 E1858.246
G1 X96.47 Y79.3 E1858.563
G1 X95.55 Y79.74 E1858.879
G1 X94.47 Y80.28 E1859.257
G1 X92.88 Y81.17 E1859.827
G1 X92 Y81.69 E1860.145
G1 X91.14 Y82.23 E1860.462
G1 X90.13 Y82.91 E1860.84
G1 X88.65 Y83.98 E1861.409
G1 X87.85 Y84.6 E1861.728
G1 X87.06 Y85.25 E1862.044
G1 X86.29 Y85.91 E1862.361
G1 X85.53 Y86.59 E1862.678
G1 X84.8 Y87.28 E1862.994
G1 X84.07 Y88 E1863.31
G1 X83.37 Y88.73 E1863.627
G1 X82.69 Y89.48 E1863.943
G1 X82.02 Y90.24 E1864.26
G1 X81.37 Y91.02 E1864.576
G1 X80.74 Y91.82 E1864.893
G1 X80.13 Y92.63 E1865.209
G1 X79.54 Y93.46 E1865.526
G1 X78.97 Y94.3 E1865.843
G1 X78.42 Y95.15 E1866.158
G1 X77.79 Y96.18 E1866.537
G1 X76.9 Y97.78 E1867.107
G1 X76.43 Y98.69 E1867.425
G1 X75.99 Y99.6 E1867.741
G1 X75.57 Y100.52 E1868.058
G1 X75.17 Y101.46 E1868.375
G1 X74.79 Y102.4 E1868.691
G1 X74.44 Y103.35 E1869.008
G1 X74.11 Y104.31 E1869.324
G1 X73.8 Y105.28 E1869.64
G1 X73.52 Y106.26 E1869.957
G1 X73.21 Y107.43 E1870.335
G1 X72.81 Y109.21 E1870.905
G1 X72.63 Y110.22 E1871.224
G1 X72.46 Y111.22 E1871.54
G1 X72.32 Y112.22 E1871.856
G1 X72.21 Y113.23 E1872.173
G1 X72.12 Y114.24 E1872.489
G1 X72.05 Y115.26 E1872.806
G1 X72.01 Y116.27 E1873.122
G1 X71.97 Y118.88 E1873.936
G1 X71.97 Y118.98
G1 X72.98 Y117.98 F9000
; TYPE:WALL-OUTER
G1 X75.3 E1874.656 F3000
G1 Y122.89 E1876.188
G1 Y127.8 E1877.719
G1 Y132.71 E1879.251
G1 Y137.62 E1880.782
G1 Y142.53 E1882.314
G1 Y147.44 E1883.845
G1 Y152.36 E1885.377
G1 Y157.27 E1886.908
G1 Y162.18 E1888.44
G1 Y167.09 E1889.971
G1 Y172 E1891.503
G1 Y176.91 E1893.034
G1 Y181.82 E1894.566
G1 Y186.74 E1896.097
G1 Y191.65 E1897.629
G1 X75.27 Y191.94 E1897.72
G1 X75.17 Y192.24 E1897.82
G1 X75.03 Y192.49 E1897.907
G1 X74.84 Y192.71 E1898
G1 X74.69 Y192.83 E1898.058
G1 X74.45 Y192.95 E1898.142
G1 X74.24 Y193.02 E1898.211
G1 X73.98 Y193.07 E1898.293
G1 X70.21 Y193.07 E1899.471
G1 X66.43 E1900.649
G1 X62.65 E1901.827
G1 X58.87 E1903.005
G1 X58.58 Y193.05 E1903.096
G1 X58.5 Y193.02 E1903.122
G1 X58.3 Y192.96 E1903.188
G1 X58.06 Y192.83 E1903.273
G1 X57.91 Y192.71 E1903.331
G1 X57.72 Y192.49 E1903.424
G1 X57.58 Y192.24 E1903.511
G1 X57.48 Y191.93 E1903.613
G1 X57.45 Y191.71 E1903.684
G1 X57.45 Y186.79 E1905.217
G1 X57.46 Y181.88 E1906.749
G1 Y176.96 E1908.282
G1 Y172.05 E1909.815
G1 Y167.13 E1911.347
G1 Y162.21 E1912.88
G1 Y157.3 E1914.413
G1 Y152.38 E1915.946
G1 Y147.47 E1917.478
G1 Y142.55 E1919.011
G1 Y137.64 E1920.544
G1 Y132.72 E1922.076
G1 Y127.81 E1923.609
G1 Y122.89 E1925.142
G1 Y117.98 E1926.675
G1 X59.75 Y117.98 E1927.388
G1 X59.77 Y116.48 E1927.856
G1 X59.81 Y115.23 E1928.244
G1 X59.87 Y114.01 E1928.626
G1 X59.96 Y112.78 E1929.011
G1 X60.09 Y111.54 E1929.4
G1 X60.23 Y110.32 E1929.781
G1 X60.41 Y109.1 E1930.166
G1 X60.61 Y107.88 E1930.551
G1 X60.85 Y106.67 E1930.936
G1 X61.11 Y105.46 E1931.321
G1 X61.39 Y104.26 E1931.706
G1 X61.71 Y103.06 E1932.095
G1 X62.05 Y101.88 E1932.476
G1 X62.42 Y100.7 E1932.861
G1 X62.82 Y99.52 E1933.25
G1 X63.23 Y98.37 E1933.631
G1 X63.68 Y97.22 E1934.016
G1 X64.16 Y96.08 E1934.401
G1 X64.66 Y94.95 E1934.786
G1 X65.19 Y93.82 E1935.175
G1 X65.73 Y92.73 E1935.556
G1 X66.31 Y91.64 E1935.941
G1 X66.91 Y90.56 E1936.326
G1 X67.53 Y89.49 E1936.711
G1 X68.18 Y88.44 E1937.096
G1 X68.86 Y87.41 E1937.481
G1 X69.55 Y86.39 E1937.866
G1 X70.27 Y85.38 E1938.252
G1 X71.01 Y84.4 E1938.636
G1 X71.78 Y83.42 E1939.025
G1 X72.57 Y82.47 E1939.41
G1 X73.37 Y81.54 E1939.792
G1 X74.2 Y80.63 E1940.176
G1 X75.05 Y79.73 E1940.562
G1 X75.92 Y78.85 E1940.947
G1 X76.81 Y77.99 E1941.335
G1 X77.71 Y77.16 E1941.717
G1 X78.64 Y76.34 E1942.102
G1 X79.6 Y75.54 E1942.49
G1 X80.56 Y74.77 E1942.875
G1 X81.53 Y74.03 E1943.257
G1 X82.53 Y73.3 E1943.641
G1 X83.54 Y72.59 E1944.027
G1 X84.57 Y71.91 E1944.412
G1 X85.62 Y71.25 E1944.797
G1 X86.68 Y70.62 E1945.182
G1 X87.76 Y70 E1945.57
G1 X88.84 Y69.42 E1945.952
G1 X89.94 Y68.86 E1946.337
G1 X91.06 Y68.32 E1946.726
G1 X92.17 Y67.82 E1947.107
G1 X93.32 Y67.33 E1947.495
G1 X94.46 Y66.88 E1947.877
G1 X95.63 Y66.44 E1948.266
G1 X96.78 Y66.04 E1948.647
G1 X97.97 Y65.66 E1949.035
G1 X99.15 Y65.31 E1949.421
G1 X100.33 Y64.99 E1949.802
G1 X101.53 Y64.69 E1950.187
G1 X102.75 Y64.41 E1950.576
G1 X103.96 Y64.17 E1950.961
G1 X105.16 Y63.96 E1951.342
G1 X106.38 Y63.77 E1951.727
G1 X107.62 Y63.61 E1952.116
G1 X108.84 Y63.48 E1952.5
G1 X110.06 Y63.38 E1952.882
G1 X111.3 Y63.3 E1953.267
G1 X112.54 Y63.25 E1953.656
G1 X113.77 Y63.23 E1954.039
G1 X115 Y63.24 E1954.422
G1 X116.24 Y63.28 E1954.811
G1 X117.47 Y63.34 E1955.192
G1 X118.7 Y63.44 E1955.579
G1 X119.94 Y63.56 E1955.966
G1 X121.15 Y63.71 E1956.347
G1 X122.38 Y63.89 E1956.736
G1 X123.6 Y64.09 E1957.12
G1 X124.8 Y64.32 E1957.502
G1 X126.02 Y64.58 E1957.891
G1 X127.21 Y64.87 E1958.273
G1 X128.42 Y65.19 E1958.661
G1 X129.59 Y65.52 E1959.043
G1 X130.77 Y65.89 E1959.427
G1 X131.95 Y66.29 E1959.816
G1 X133.1 Y66.71 E1960.197
G1 X134.25 Y67.16 E1960.583
G1 X135.4 Y67.64 E1960.971
G1 X136.52 Y68.13 E1961.353
G1 X137.65 Y68.66 E1961.741
G1 X138.74 Y69.21 E1962.122
G1 X139.84 Y69.78 E1962.508
G1 X140.93 Y70.39 E1962.896
G1 X141.98 Y71.01 E1963.278
G1 X143.04 Y71.66 E1963.666
G1 X144.07 Y72.33 E1964.048
G1 X145.1 Y73.03 E1964.436
G1 X146.09 Y73.75 E1964.818
G1 X147.08 Y74.49 E1965.203
G1 X148.06 Y75.26 E1965.591
G1 X149.01 Y76.05 E1965.977
G1 X149.93 Y76.85 E1966.358
G1 X150.85 Y77.67 E1966.743
G1 X151.75 Y78.52 E1967.128
G1 X152.62 Y79.39 E1967.513
G1 X153.49 Y80.29 E1967.902
G1 X154.32 Y81.19 E1968.283
G1 X155.13 Y82.12 E1968.668
G1 X155.93 Y83.07 E1969.057
G1 X156.71 Y84.03 E1969.442
G1 X157.45 Y85.01 E1969.823
G1 X158.18 Y86 E1970.208
G1 X158.88 Y87.02 E1970.593
G1 X159.56 Y88.05 E1970.978
G1 X160.22 Y89.09 E1971.363
G1 X160.86 Y90.15 E1971.748
G1 X161.47 Y91.23 E1972.137
G1 X162.05 Y92.31 E1972.518
G1 X162.61 Y93.41 E1972.903
G1 X163.15 Y94.54 E1973.292
G1 X163.66 Y95.65 E1973.673
G1 X164.14 Y96.79 E1974.058
G1 X164.6 Y97.93 E1974.443
G1 X165.03 Y99.1 E1974.832
G1 X165.43 Y100.26 E1975.213
G1 X165.81 Y101.43 E1975.598
G1 X166.17 Y102.63 E1975.987
G1 X166.49 Y103.81 E1976.368
G1 X166.79 Y105 E1976.753
G1 X167.06 Y106.21 E1977.138
G1 X167.3 Y107.42 E1977.523
G1 X167.52 Y108.64 E1977.909
G1 X167.7 Y109.86 E1978.293
G1 X167.86 Y111.09 E1978.682
G1 X167.99 Y112.31 E1979.063
G1 X168.1 Y113.54 E1979.448
G1 X168.17 Y114.77 E1979.833
G1 X168.22 Y116.01 E1980.219
G1 X168.24 Y117.24 E1980.605
G1 Y120.63 E1981.66
G1 Y124.01 E1982.715
G1 Y127.39 E1983.77
G1 X168.23 Y127.56 E1983.822
G1 X168.15 Y128.04 E1983.974
G1 X168.02 Y128.57 E1984.143
G1 X167.87 Y128.97 E1984.278
G1 X167.64 Y129.45 E1984.443
G1 X167.37 Y129.87 E1984.6
G1 X167.1 Y130.2 E1984.73
G1 X166.65 Y130.64 E1984.927
G1 X166.23 Y130.95 E1985.091
G1 X165.85 Y131.16 E1985.225
G1 X165.47 Y131.32 E1985.353
G1 X165.09 Y131.43 E1985.478
G1 X164.51 Y131.52 E1985.661
G1 X161.71 Y131.52 E1986.534
G1 X158.91 E1987.407
G1 X158.55 Y131.5 E1987.519
G1 X158.07 Y131.41 E1987.67
G1 X157.59 Y131.25 E1987.828
G1 X157.13 Y131.01 E1987.991
G1 X156.66 Y130.68 E1988.17
G1 X156.21 Y130.27 E1988.362
G1 X156.06 Y130.09 E1988.433
G1 X155.75 Y129.68 E1988.594
G1 X155.51 Y129.25 E1988.748
G1 X155.33 Y128.84 E1988.886
G1 X155.16 Y128.32 E1989.056
G1 X155.07 Y127.88 E1989.197
G1 X155.01 Y127.37 E1989.358
G1 Y123.8 E1990.47
G1 X155 Y120.24 E1991.582
G1 Y116.67 E1992.693
G1 X154.97 Y115.68 E1993.003
G1 X154.91 Y114.69 E1993.312
G1 X154.83 Y113.7 E1993.621
G1 X154.73 Y112.72 E1993.93
G1 X154.6 Y111.73 E1994.239
G1 X154.45 Y110.76 E1994.548
G1 X154.24 Y109.59 E1994.916
G1 X153.86 Y107.85 E1995.474
G1 X153.61 Y106.88 E1995.784
G1 X153.35 Y105.93 E1996.093
G1 X153 Y104.8 E1996.46
G1 X152.41 Y103.11 E1997.019
G1 X152.05 Y102.19 E1997.329
G1 X151.67 Y101.27 E1997.638
G1 X151.26 Y100.36 E1997.947
G1 X150.84 Y99.47 E1998.256
G1 X150.31 Y98.42 E1998.623
G1 X149.44 Y96.85 E1999.182
G1 X148.83 Y95.84 E1999.551
G1 X148.3 Y95 E1999.859
G1 X147.75 Y94.18 E2000.169
G1 X146.7 Y92.73 E2000.727
G1 X146.09 Y91.94 E2001.036
G1 X145.46 Y91.18 E2001.345
G1 X144.82 Y90.42 E2001.654
G1 X144.15 Y89.69 E2001.963
G1 X143.47 Y88.97 E2002.273
G1 X142.78 Y88.26 E2002.581
G1 X142.06 Y87.58 E2002.89
G1 X141.33 Y86.91 E2003.199
G1 X140.58 Y86.25 E2003.508
G1 X139.82 Y85.62 E2003.817
G1 X139.04 Y85.01 E2004.126
G1 X138.25 Y84.41 E2004.435
G1 X137.45 Y83.83 E2004.744
G1 X136.63 Y83.28 E2005.053
G1 X135.79 Y82.74 E2005.362
G1 X134.79 Y82.13 E2005.73
G1 X133.22 Y81.25 E2006.289
G1 X132.34 Y80.8 E2006.598
G1 X131.45 Y80.37 E2006.907
G1 X130.55 Y79.96 E2007.216
G1 X129.64 Y79.57 E2007.525
G1 X128.72 Y79.2 E2007.834
G1 X127.79 Y78.86 E2008.143
G1 X126.85 Y78.53 E2008.452
G1 X125.9 Y78.24 E2008.761
G1 X124.95 Y77.96 E2009.07
G1 X123.81 Y77.66 E2009.438
G1 X122.06 Y77.27 E2009.996
G1 X121.09 Y77.09 E2010.306
G1 X120.11 Y76.93 E2010.615
G1 X119.13 Y76.79 E2010.924
G1 X118.14 Y76.68 E2011.233
G1 X117.16 Y76.59 E2011.542
G1 X116.17 Y76.53 E2011.851
G1 X115.18 Y76.49 E2012.16
G1 X114.19 Y76.47 E2012.469
G1 X113.2 Y76.48 E2012.778
G1 X112.21 Y76.51 E2013.087
G1 X111.22 Y76.56 E2013.396
G1 X110.23 Y76.64 E2013.705
G1 X109.24 Y76.75 E2014.014
G1 X108.26 Y76.87 E2014.323
G1 X107.28 Y77.02 E2014.632
G1 X106.12 Y77.23 E2014.999
G1 X104.37 Y77.62 E2015.558
G1 X103.41 Y77.86 E2015.868
G1 X102.45 Y78.13 E2016.177
G1 X101.33 Y78.48 E2016.544
G1 X99.64 Y79.07 E2017.103
G1 X98.71 Y79.43 E2017.412
G1 X97.79 Y79.81 E2017.722
G1 X96.89 Y80.21 E2018.03
G1 X95.99 Y80.63 E2018.34
G1 X94.94 Y81.17 E2018.707
G1 X93.37 Y82.03 E2019.266
G1 X92.52 Y82.54 E2019.575
G1 X91.68 Y83.07 E2019.884
G1 X90.7 Y83.73 E2020.252
G1 X89.25 Y84.78 E2020.81
G1 X88.47 Y85.39 E2021.12
G1 X87.7 Y86.01 E2021.429
G1 X86.95 Y86.66 E2021.738
G1 X86.21 Y87.32 E2022.047
G1 X85.49 Y88 E2022.356
G1 X84.79 Y88.7 E2022.665
G1 X84.1 Y89.41 E2022.974
G1 X83.43 Y90.14 E2023.283
G1 X82.78 Y90.89 E2023.592
G1 X82.15 Y91.65 E2023.901
G1 X81.53 Y92.43 E2024.21
G1 X80.94 Y93.22 E2024.519
G1 X80.36 Y94.03 E2024.828
G1 X79.8 Y94.85 E2025.137
G1 X79.27 Y95.68 E2025.445
G1 X78.65 Y96.69 E2025.814
G1 X77.78 Y98.25 E2026.373
G1 X77.33 Y99.13 E2026.682
G1 X76.89 Y100.03 E2026.991
G1 X76.48 Y100.93 E2027.3
G1 X76.09 Y101.84 E2027.609
G1 X75.73 Y102.76 E2027.918
G1 X75.38 Y103.69 E2028.227
G1 X75.06 Y104.63 E2028.535
G1 X74.76 Y105.57 E2028.844
G1 X74.48 Y106.52 E2029.154
G1 X74.18 Y107.66 E2029.521
G1 X73.79 Y109.41 E2030.08
G1 X73.61 Y110.39 E2030.39
G1 X73.45 Y111.37 E2030.699
G1 X73.32 Y112.35 E2031.008
G1 X73.21 Y113.33 E2031.316
G1 X73.12 Y114.32 E2031.625
G1 X73.05 Y115.31 E2031.935
G1 X73.01 Y116.3 E2032.243
G1 X72.99 Y117.88 E2032.736
G1 X72.98 Y117.98
G1 X75.3
G1 Y118.66
G1 X71.97 Y118.98 F9000
G1 E2030.736 F1800
G1 Z2.25
G1 X70.54 Y126.94 F9000
G1 X69.11 Y134.9
G1 X67.68 Y142.86
G1 X66.25 Y150.82
G1 X64.82 Y158.78
G1 X63.39 Y166.74
G1 X61.96 Y174.7
G1 X60.53 Y182.66
G1 X59.1 Y190.63
; TYPE:FILL
G1 Z1.75
G1 E2032.736 F1800
G1 X59.9 Y191.42 E2033.086 F2400
G1 X61.31 F9000
G1 X59.1 Y189.21 E2034.061 F2400
G1 X59.1 Y187.8 F9000
G1 X60.92 Y189.61 E2034.859 F2400
G1 X62.73 Y191.42 E2035.658
G1 X64.14 Y191.42 F9000
G1 X61.62 Y188.9 E2036.768 F2400
G1 X59.1 Y186.38 E2037.879
G1 X59.1 Y184.97 F9000
G1 X62.33 Y188.19 E2039.301 F2400
G1 X65.55 Y191.42 E2040.723
G1 X66.97 Y191.42 F9000
G1 X64.35 Y188.8 E2041.879 F2400
G1 X61.73 Y186.18 E2043.035
G1 X59.1 Y183.56 E2044.191
G1 X59.1 Y182.14 F9000
G1 X62.2 Y185.23 E2045.555 F2400
G1 X65.29 Y188.33 E2046.918
G1 X68.38 Y191.42 E2048.282
G1 X69.8 Y191.42 F9000
G1 X67.12 Y188.75 E2049.461 F2400
G1 X64.45 Y186.07 E2050.64
G1 X61.78 Y183.4 E2051.818
G1 X59.1 Y180.73 E2052.997
G1 X59.1 Y179.31 F9000
G1 X62.13 Y182.34 E2054.332 F2400
G1 X65.16 Y185.37 E2055.666
G1 X68.18 Y188.39 E2057.001
G1 X71.21 Y191.42 E2058.335
G1 X72.62 Y191.42 F9000
G1 X69.24 Y188.04 E2059.826 F2400
G1 X65.86 Y184.66 E2061.316
G1 X62.48 Y181.28 E2062.807
G1 X59.1 Y177.9 E2064.297
G1 X59.11 Y176.49 F9000
G1 X62.01 Y179.39 E2065.58 F2400
G1 X64.92 Y182.3 E2066.862
G1 X67.83 Y185.21 E2068.144
G1 X70.74 Y188.12 E2069.427
G1 X73.65 Y191.03 E2070.709
G1 X73.65 Y189.61 F9000
G1 X70.74 Y186.7 E2071.991 F2400
G1 X67.83 Y183.8 E2073.274
G1 X64.92 Y180.89 E2074.556
G1 X62.01 Y177.98 E2075.838
G1 X59.11 Y175.07 E2077.121
G1 X59.11 Y173.66 F9000
G1 X62.01 Y176.56 E2078.403 F2400
G1 X64.92 Y179.47 E2079.686
G1 X67.83 Y182.38 E2080.968
G1 X70.74 Y185.29 E2082.25
G1 X73.65 Y188.2 E2083.533
G1 X73.65 Y186.78 F9000
G1 X70.74 Y183.87 E2084.815 F2400
G1 X67.83 Y180.97 E2086.097
G1 X64.92 Y178.06 E2087.38
G1 X62.01 Y175.15 E2088.662
G1 X59.11 Y172.24 E2089.944
G1 X59.11 Y170.83 F9000
G1 X62.01 Y173.74 E2091.227 F2400
G1 X64.92 Y176.64 E2092.509
G1 X67.83 Y179.55 E2093.791
G1 X70.74 Y182.46 E2095.073
G1 X73.65 Y185.37 E2096.356
G1 X73.65 Y183.95 F9000
G1 X70.74 Y181.05 E2097.638 F2400
G1 X67.83 Y178.14 E2098.92
G1 X64.92 Y175.23 E2100.202
G1 X62.01 Y172.32 E2101.485
G1 X59.11 Y169.42 E2102.767
G1 X59.11 Y168 F9000
G1 X62.01 Y170.91 E2104.049 F2400
G1 X64.92 Y173.82 E2105.332
G1 X67.83 Y176.72 E2106.614
G1 X70.74 Y179.63 E2107.896
G1 X73.65 Y182.54 E2109.178
G1 X73.65 Y181.13 F9000
G1 X70.74 Y178.22 E2110.461 F2400
G1 X67.83 Y175.31 E2111.743
G1 X64.92 Y172.4 E2113.025
G1 X62.01 Y169.49 E2114.308
G1 X59.11 Y166.59 E2115.59
G1 X59.11 Y165.17 F9000
G1 X62.01 Y168.08 E2116.872 F2400
G1 X64.92 Y170.99 E2118.154
G1 X67.83 Y173.9 E2119.436
G1 X70.74 Y176.8 E2120.719
G1 X73.65 Y179.71 E2122.001
G1 X73.65 Y178.3 F9000
G1 X70.74 Y175.39 E2123.283 F2400
G1 X67.83 Y172.48 E2124.565
G1 X64.92 Y169.57 E2125.847
G1 X62.01 Y166.67 E2127.13
G1 X59.11 Y163.76 E2128.412
G1 X59.11 Y162.34 F9000
G1 X62.01 Y165.25 E2129.694 F2400
G1 X64.92 Y168.16 E2130.976
G1 X67.83 Y171.07 E2132.258
G1 X70.74 Y173.98 E2133.541
G1 X73.65 Y176.88 E2134.823
G1 X73.65 Y175.47 F9000
G1 X70.74 Y172.56 E2136.105 F2400
G1 X67.83 Y169.65 E2137.387
G1 X64.92 Y166.75 E2138.669
G1 X62.01 Y163.84 E2139.952
G1 X59.11 Y160.93 E2141.234
G1 X59.11 Y159.52 F9000
G1 X62.01 Y162.42 E2142.516 F2400
G1 X64.92 Y165.33 E2143.798
G1 X67.83 Y168.24 E2145.08
G1 X70.74 Y171.15 E2146.363
G1 X73.65 Y174.06 E2147.645
G1 X73.65 Y172.64 F9000
G1 X70.74 Y169.73 E2148.927 F2400
G1 X67.83 Y166.82 E2150.209
G1 X64.92 Y163.92 E2151.491
G1 X62.01 Y161.01 E2152.773
G1 X59.11 Y158.1 E2154.056
G1 X59.11 Y156.69 F9000
G1 X62.01 Y159.6 E2155.338 F2400
G1 X64.92 Y162.5 E2156.62
G1 X67.83 Y165.41 E2157.902
G1 X70.74 Y168.32 E2159.184
G1 X73.65 Y171.23 E2160.467
G1 X73.65 Y169.81 F9000
G1 X70.74 Y166.9 E2161.749 F2400
G1 X67.83 Y164 E2163.031
G1 X64.92 Y161.09 E2164.313
G1 X62.02 Y158.18 E2165.595
G1 X59.11 Y155.27 E2166.877
G1 X59.11 Y153.86 F9000
G1 X62.02 Y156.77 E2168.159 F2400
G1 X64.92 Y159.68 E2169.441
G1 X67.83 Y162.58 E2170.723
G1 X70.74 Y165.49 E2172.006
G1 X73.65 Y168.4 E2173.288
G1 X73.65 Y166.98 F9000
G1 X70.74 Y164.08 E2174.57 F2400
G1 X67.83 Y161.17 E2175.852
G1 X64.92 Y158.26 E2177.134
G1 X62.02 Y155.35 E2178.416
G1 X59.11 Y152.45 E2179.698
G1 X59.11 Y151.03 F9000
G1 X62.02 Y153.94 E2180.98 F2400
G1 X64.92 Y156.85 E2182.262
G1 X67.83 Y159.75 E2183.544
G1 X70.74 Y162.66 E2184.826
G1 X73.65 Y165.57 E2186.109
G1 X73.65 Y164.16 F9000
G1 X70.74 Y161.25 E2187.391 F2400
G1 X67.83 Y158.34 E2188.673
G1 X64.92 Y155.43 E2189.955
G1 X62.02 Y152.53 E2191.237
G1 X59.11 Y149.62 E2192.519
G1 X59.11 Y148.2 F9000
G1 X62.02 Y151.11 E2193.801 F2400
G1 X64.92 Y154.02 E2195.083
G1 X67.83 Y156.93 E2196.365
G1 X70.74 Y159.83 E2197.647
G1 X73.65 Y162.74 E2198.929
G1 X73.65 Y161.33 F9000
G1 X70.74 Y158.42 E2200.211 F2400
G1 X67.83 Y155.51 E2201.493
G1 X64.92 Y152.6 E2202.775
G1 X62.02 Y149.7 E2204.057
G1 X59.11 Y146.79 E2205.339
G1 X59.11 Y145.38 F9000
G1 X62.02 Y148.28 E2206.621 F2400
G1 X64.92 Y151.19 E2207.903
G1 X67.83 Y154.1 E2209.185
G1 X70.74 Y157 E2210.467
G1 X73.65 Y159.91 E2211.749
G1 X73.65 Y158.5 F9000
G1 X70.74 Y155.59 E2213.031 F2400
G1 X67.83 Y152.68 E2214.313
G1 X64.92 Y149.78 E2215.595
G1 X62.02 Y146.87 E2216.877
G1 X59.11 Y143.96 E2218.159
G1 X59.11 Y142.55 F9000
G1 X62.02 Y145.46 E2219.441 F2400
G1 X64.92 Y148.36 E2220.723
G1 X67.83 Y151.27 E2222.005
G1 X70.74 Y154.18 E2223.287
G1 X73.65 Y157.08 E2224.569
G1 X73.65 Y155.67 F9000
G1 X70.74 Y152.76 E2225.851 F2400
G1 X67.83 Y149.86 E2227.133
G1 X64.92 Y146.95 E2228.415
G1 X62.02 Y144.04 E2229.697
G1 X59.11 Y141.13 E2230.979
G1 X59.11 Y139.72 F9000
G1 X62.02 Y142.63 E2232.261 F2400
G1 X64.92 Y145.53 E2233.543
G1 X67.83 Y148.44 E2234.825
G1 X70.74 Y151.35 E2236.107
G1 X73.65 Y154.26 E2237.389
G1 X73.65 Y152.84 F9000
G1 X70.74 Y149.93 E2238.671 F2400
G1 X67.83 Y147.03 E2239.953
G1 X64.92 Y144.12 E2241.235
G1 X62.02 Y141.21 E2242.516
G1 X59.11 Y138.31 E2243.798
G1 Y136.89 F9000
G1 X62.02 Y139.8 E2245.08 F2400
G1 X64.92 Y142.71 E2246.362
G1 X67.83 Y145.61 E2247.644
G1 X70.74 Y148.52 E2248.926
G1 X73.65 Y151.43 E2250.208
G1 X73.65 Y150.01 F9000
G1 X70.74 Y147.11 E2251.49 F2400
G1 X67.83 Y144.2 E2252.772
G1 X64.92 Y141.29 E2254.054
G1 X62.02 Y138.39 E2255.336
G1 X59.11 Y135.48 E2256.617
G1 Y134.06 F9000
G1 X62.02 Y136.97 E2257.899 F2400
G1 X64.92 Y139.88 E2259.181
G1 X67.83 Y142.78 E2260.463
G1 X70.74 Y145.69 E2261.745
G1 X73.65 Y148.6 E2263.027
G1 X73.65 Y147.18 F9000
G1 X70.74 Y144.28 E2264.309 F2400
G1 X67.83 Y141.37 E2265.591
G1 X64.92 Y138.46 E2266.873
G1 X62.02 Y135.56 E2268.154
G1 X59.11 Y132.65 E2269.436
G1 X59.11 Y131.24 F9000
G1 X62.02 Y134.14 E2270.718 F2400
G1 X64.92 Y137.05 E2272
G1 X67.83 Y139.96 E2273.282
G1 X70.74 Y142.86 E2274.563
G1 X73.65 Y145.77 E2275.845
G1 X73.65 Y144.36 F9000
G1 X70.74 Y141.45 E2277.127 F2400
G1 X67.83 Y138.54 E2278.409
G1 X64.92 Y135.64 E2279.691
G1 X62.02 Y132.73 E2280.973
G1 X59.11 Y129.82 E2282.255
G1 X59.11 Y128.41 F9000
G1 X62.02 Y131.31 E2283.536 F2400
G1 X64.92 Y134.22 E2284.818
G1 X67.83 Y137.13 E2286.1
G1 X70.74 Y140.04 E2287.382
G1 X73.65 Y142.94 E2288.664
G1 X73.65 Y141.53 F9000
G1 X70.74 Y138.62 E2289.946 F2400
G1 X67.83 Y135.71 E2291.227
G1 X64.93 Y132.81 E2292.509
G1 X62.02 Y129.9 E2293.791
G1 X59.11 Y126.99 E2295.073
G1 X59.11 Y125.58 F9000
G1 X62.02 Y128.49 E2296.354 F2400
G1 X64.93 Y131.39 E2297.636
G1 X67.83 Y134.3 E2298.918
G1 X70.74 Y137.21 E2300.2
G1 X73.65 Y140.11 E2301.481
G1 X73.65 Y138.7 F9000
G1 X70.74 Y135.79 E2302.763 F2400
G1 X67.83 Y132.89 E2304.045
G1 X64.93 Y129.98 E2305.327
G1 X62.02 Y127.07 E2306.608
G1 X59.11 Y124.17 E2307.89
G1 X59.11 Y122.75 F9000
G1 X62.02 Y125.66 E2309.172 F2400
G1 X64.93 Y128.56 E2310.454
G1 X67.83 Y131.47 E2311.736
G1 X70.74 Y134.38 E2313.017
G1 X73.65 Y137.29 E2314.299
G1 X73.65 Y135.87 F9000
G1 X70.74 Y132.96 E2315.581 F2400
G1 X67.83 Y130.06 E2316.863
G1 X64.93 Y127.15 E2318.144
G1 X62.02 Y124.24 E2319.426
G1 X59.11 Y121.34 E2320.708
G1 X59.11 Y119.92 F9000
G1 X62.02 Y122.83 E2321.99 F2400
G1 X64.93 Y125.74 E2323.271
G1 X67.83 Y128.64 E2324.553
G1 X70.74 Y131.55 E2325.835
G1 X73.65 Y134.46 E2327.117
G1 X73.65 Y133.04 F9000
G1 X70.29 Y129.69 E2328.596 F2400
G1 X66.94 Y126.33 E2330.075
G1 X63.58 Y122.98 E2331.554
G1 X60.23 Y119.62 E2333.034
G1 X61.39 Y119.37 F9000
G1 X64.45 Y122.43 E2334.385 F2400
G1 X67.52 Y125.5 E2335.736
G1 X70.58 Y128.56 E2337.088
G1 X73.65 Y131.63 E2338.439
G1 X73.65 Y130.21 F9000
G1 X70.58 Y127.15 E2339.789 F2400
G1 X67.52 Y124.09 E2341.139
G1 X64.46 Y121.03 E2342.489
G1 X61.4 Y117.97 E2343.839
G1 X61.42 Y116.57 F9000
G1 X64.47 Y119.63 E2345.187 F2400
G1 X67.53 Y122.69 E2346.535
G1 X70.59 Y125.74 E2347.883
G1 X73.65 Y128.8 E2349.231
G1 X73.65 Y127.39 F9000
G1 X70.6 Y124.34 E2350.574 F2400
G1 X67.55 Y121.29 E2351.918
G1 X64.51 Y118.25 E2353.261
G1 X61.46 Y115.2 E2354.604
G1 X61.54 Y113.86 F9000
G1 X64.56 Y116.89 E2355.939 F2400
G1 X67.59 Y119.92 E2357.274
G1 X70.62 Y122.94 E2358.609
G1 X73.65 Y125.97 E2359.944
G1 X73.65 Y124.56 F9000
G1 X70.64 Y121.56 E2361.268 F2400
G1 X67.64 Y118.56 E2362.591
G1 X64.64 Y115.55 E2363.914
G1 X61.64 Y112.55 E2365.237
G1 X61.78 Y111.28 F9000
G1 X64.75 Y114.24 E2366.546 F2400
G1 X67.71 Y117.21 E2367.854
G1 X70.68 Y120.18 E2369.162
G1 X73.65 Y123.14 E2370.47
G1 X73.65 Y121.73 F9000
G1 X71.54 Y119.62 E2371.398 F2400
G1 X71.31 Y119.39 F9000
G1 X68.19 Y116.27 E2372.775 F2400
G1 X65.07 Y113.15 E2374.152
G1 X61.94 Y110.03 E2375.529
G1 X62.13 Y108.8 F9000
G1 X65.2 Y111.87 E2376.881 F2400
G1 X68.27 Y114.93 E2378.233
G1 X71.33 Y118 E2379.586
G1 X71.36 Y116.61 F9000
G1 X68.35 Y113.61 E2380.91 F2400
G1 X65.35 Y110.6 E2382.234
G1 X62.35 Y107.6 E2383.558
G1 X62.59 Y106.43 F9000
G1 X65.52 Y109.36 E2384.854 F2400
G1 X68.46 Y112.3 E2386.15
G1 X71.4 Y115.24 E2387.446
G1 X71.49 Y113.92 F9000
G1 X68.61 Y111.04 E2388.717 F2400
G1 X65.73 Y108.16 E2389.988
G1 X62.85 Y105.27 E2391.259
G1 X63.13 Y104.14 F9000
G1 X65.96 Y106.97 E2392.508 F2400
G1 X68.79 Y109.8 E2393.756
G1 X71.62 Y112.64 E2395.004
G1 X71.78 Y111.38 F9000
G1 X69 Y108.6 E2396.232 F2400
G1 X66.22 Y105.81 E2397.459
G1 X63.43 Y103.03 E2398.687
G1 X63.76 Y101.94 F9000
G1 X66.5 Y104.68 E2399.895 F2400
G1 X69.24 Y107.42 E2401.103
G1 X71.98 Y110.16 E2402.311
G1 X72.2 Y108.97 F9000
G1 X69.5 Y106.27 E2403.501 F2400
G1 X66.8 Y103.57 E2404.692
G1 X64.1 Y100.87 E2405.882
G1 X64.46 Y99.82 F9000
G1 X67.13 Y102.48 E2407.057 F2400
G1 X69.79 Y105.15 E2408.232
G1 X72.46 Y107.81 E2409.408
G1 X72.74 Y106.68 F9000
G1 X70.1 Y104.05 E2410.568 F2400
G1 X67.47 Y101.41 E2411.728
G1 X64.84 Y98.78 E2412.888
G1 X65.24 Y97.77 F9000
G1 X67.84 Y100.37 E2414.034 F2400
G1 X70.44 Y102.97 E2415.181
G1 X73.04 Y105.57 E2416.327
G1 X73.37 Y104.48 F9000
G1 X70.8 Y101.91 E2417.461 F2400
G1 X68.23 Y99.34 E2418.596
G1 X65.66 Y96.77 E2419.73
G1 X66.09 Y95.79 F9000
G1 X68.64 Y98.33 E2420.852 F2400
G1 X71.18 Y100.88 E2421.975
G1 X73.73 Y103.42 E2423.097
G1 X74.1 Y102.39 F9000
G1 X71.58 Y99.87 E2424.209 F2400
G1 X69.06 Y97.34 E2425.321
G1 X66.54 Y94.82 E2426.433
G1 X67 Y93.87 F9000
G1 X69.5 Y96.37 E2427.535 F2400
G1 X72 Y98.87 E2428.637
G1 X74.5 Y101.37 E2429.739
G1 X74.92 Y100.38 F9000
G1 X72.44 Y97.9 E2430.832 F2400
G1 X69.96 Y95.42 E2431.925
G1 X67.49 Y92.94 E2433.018
G1 X67.98 Y92.02 F9000
G1 X70.44 Y94.48 E2434.103 F2400
G1 X72.9 Y96.94 E2435.188
G1 X75.36 Y99.4 E2436.272
G1 X75.82 Y98.45 F9000
G1 X73.38 Y96.01 E2437.35 F2400
G1 X70.93 Y93.56 E2438.427
G1 X68.49 Y91.12 E2439.505
G1 X69.02 Y90.23 F9000
G1 X71.45 Y92.66 E2440.576 F2400
G1 X73.87 Y95.09 E2441.646
G1 X76.3 Y97.51 E2442.717
G1 X76.81 Y96.61 F9000
G1 X74.39 Y94.19 E2443.783 F2400
G1 X71.97 Y91.77 E2444.848
G1 X69.56 Y89.36 E2445.914
G1 X70.11 Y88.5 F9000
G1 X72.51 Y90.9 E2446.973 F2400
G1 X74.92 Y93.3 E2448.032
G1 X77.32 Y95.7 E2449.091
G1 X77.85 Y94.82 F9000
G1 X75.46 Y92.43 E2450.145 F2400
G1 X73.07 Y90.04 E2451.199
G1 X70.68 Y87.65 E2452.253
G1 X71.27 Y86.82 F9000
G1 X73.65 Y89.2 E2453.303 F2400
G1 X76.03 Y91.58 E2454.352
G1 X78.41 Y93.96 E2455.402
G1 X78.98 Y93.12 F9000
G1 X76.61 Y90.75 E2456.447 F2400
G1 X74.24 Y88.38 E2457.493
G1 X71.87 Y86.01 E2458.539
G1 X72.48 Y85.2 F9000
G1 X74.84 Y87.57 E2459.581 F2400
G1 X77.2 Y89.93 E2460.624
G1 X79.57 Y92.3 E2461.666
G1 X80.17 Y91.49 F9000
G1 X77.82 Y89.13 E2462.706 F2400
G1 X75.46 Y86.77 E2463.746
G1 X73.1 Y84.41 E2464.786
G1 X73.74 Y83.64 F9000
G1 X77.27 Y87.17 E2466.342 F2400
G1 X80.8 Y90.7 E2467.898
G1 X81.44 Y89.92 F9000
G1 X77.92 Y86.4 E2469.451 F2400
G1 X74.39 Y82.88 E2471.004
G1 X75.06 Y82.13 F9000
G1 X78.58 Y85.65 E2472.555 F2400
G1 X82.09 Y89.17 E2474.106
G1 X82.77 Y88.42 F9000
G1 X79.25 Y84.91 E2475.656 F2400
G1 X75.74 Y81.4 E2477.206
G1 X76.43 Y80.67 F9000
G1 X79.94 Y84.19 E2478.755 F2400
G1 X83.46 Y87.7 E2480.304
G1 X84.16 Y86.99 F9000
G1 X80.65 Y83.48 E2481.853 F2400
G1 X77.14 Y79.97 E2483.403
G1 X77.86 Y79.27 F9000
G1 X81.37 Y82.79 E2484.952 F2400
G1 X84.89 Y86.3 E2486.502
G1 X85.63 Y85.63 F9000
G1 X82.11 Y82.11 E2488.053 F2400
G1 X78.59 Y78.59 E2489.604
G1 X79.34 Y77.93 F9000
G1 X82.86 Y81.45 E2491.157 F2400
G1 X86.38 Y84.97 E2492.71
G1 X87.16 Y84.33 F9000
G1 X83.63 Y80.8 E2494.266 F2400
G1 X80.1 Y77.27 E2495.821
G1 X80.87 Y76.63 F9000
G1 X83.23 Y78.99 E2496.861 F2400
G1 X85.59 Y81.35 E2497.9
G1 X87.95 Y83.7 E2498.94
G1 X88.76 Y83.1 F9000
G1 X86.39 Y80.73 E2499.983 F2400
G1 X84.02 Y78.37 E2501.026
G1 X81.66 Y76 E2502.069
G1 X82.46 Y75.39 F9000
G1 X84.83 Y77.76 E2503.115 F2400
G1 X87.2 Y80.13 E2504.16
G1 X89.58 Y82.5 E2505.206
G1 X90.42 Y81.93 F9000
G1 X88.04 Y79.55 E2506.256 F2400
G1 X85.66 Y77.17 E2507.305
G1 X83.28 Y74.79 E2508.355
G1 X84.11 Y74.21 F9000
G1 X86.5 Y76.6 E2509.409 F2400
G1 X88.89 Y78.99 E2510.462
G1 X91.28 Y81.38 E2511.516
G1 X92.15 Y80.84 F9000
G1 X89.75 Y78.44 E2512.575 F2400
G1 X87.35 Y76.04 E2513.634
G1 X84.95 Y73.64 E2514.692
G1 X85.81 Y73.08 F9000
G1 X88.22 Y75.49 E2515.757 F2400
G1 X90.64 Y77.91 E2516.822
G1 X93.05 Y80.32 E2517.887
G1 X93.96 Y79.82 F9000
G1 X91.53 Y77.39 E2518.957 F2400
G1 X89.11 Y74.97 E2520.027
G1 X86.68 Y72.54 E2521.098
G1 X87.57 Y72.01 F9000
G1 X90.01 Y74.45 E2522.175 F2400
G1 X92.45 Y76.9 E2523.252
G1 X94.9 Y79.34 E2524.33
G1 X95.85 Y78.88 F9000
G1 X93.39 Y76.42 E2525.414 F2400
G1 X90.93 Y73.96 E2526.499
G1 X88.47 Y71.5 E2527.584
G1 X89.39 Y71 F9000
G1 X91.86 Y73.48 E2528.676 F2400
G1 X94.34 Y75.96 E2529.769
G1 X96.82 Y78.43 E2530.861
G1 X97.81 Y78.01 F9000
G1 X95.31 Y75.51 E2531.963 F2400
G1 X92.82 Y73.02 E2533.064
G1 X90.32 Y70.52 E2534.166
G1 X91.27 Y70.05 F9000
G1 X93.79 Y72.57 E2535.276 F2400
G1 X96.31 Y75.09 E2536.387
G1 X98.82 Y77.61 E2537.498
G1 X99.87 Y77.24 F9000
G1 X97.32 Y74.69 E2538.62 F2400
G1 X94.78 Y72.15 E2539.742
G1 X92.23 Y69.6 E2540.864
G1 X93.21 Y69.17 F9000
G1 X95.78 Y71.74 E2541.997 F2400
G1 X98.35 Y74.31 E2543.129
G1 X100.92 Y76.88 E2544.262
G1 X102 Y76.54 F9000
G1 X99.4 Y73.95 E2545.407 F2400
G1 X96.8 Y71.35 E2546.552
G1 X94.21 Y68.75 E2547.698
G1 X95.22 Y68.35 F9000
G1 X97.85 Y70.98 E2548.856 F2400
G1 X100.48 Y73.61 E2550.015
G1 X103.1 Y76.23 E2551.174
G1 X104.24 Y75.95 F9000
G1 X101.58 Y73.29 E2552.347 F2400
G1 X98.92 Y70.63 E2553.521
G1 X96.25 Y67.97 E2554.695
G1 X97.3 Y67.61 F9000
G1 X100 Y70.3 E2555.885 F2400
G1 X102.7 Y73 E2557.075
G1 X105.4 Y75.7 E2558.264
G1 X106.58 Y75.47 F9000
G1 X103.85 Y72.73 E2559.471 F2400
G1 X101.11 Y70 E2560.678
G1 X98.37 Y67.26 E2561.885
G1 X99.46 Y66.94 F9000
G1 X102.24 Y69.71 E2563.11 F2400
G1 X105.02 Y72.49 E2564.336
G1 X107.8 Y75.27 E2565.562
G1 X109.05 Y75.11 F9000
G1 X106.22 Y72.28 E2566.808 F2400
G1 X103.4 Y69.46 E2568.054
G1 X100.57 Y66.63 E2569.301
G1 X101.7 Y66.35 F9000
G1 X104.58 Y69.22 E2570.57 F2400
G1 X107.46 Y72.1 E2571.839
G1 X110.33 Y74.98 E2573.108
G1 X111.66 Y74.89 F9000
G1 X108.72 Y71.95 E2574.402 F2400
G1 X105.79 Y69.02 E2575.696
G1 X102.85 Y66.08 E2576.99
G1 X104.02 Y65.84 F9000
G1 X107.02 Y68.84 E2578.311 F2400
G1 X110.02 Y71.83 E2579.633
G1 X113.02 Y74.83 E2580.955
G1 X114.42 Y74.82 F9000
G1 X111.35 Y71.76 E2582.307 F2400
G1 X108.29 Y68.69 E2583.659
G1 X105.22 Y65.62 E2585.012
G1 X106.44 Y65.43 F9000
G1 X109.59 Y68.58 E2586.398 F2400
G1 X112.73 Y71.72 E2587.784
G1 X115.88 Y74.86 E2589.171
G1 X117.38 Y74.95 F9000
G1 X114.15 Y71.72 E2590.595 F2400
G1 X110.92 Y68.49 E2592.02
G1 X107.69 Y65.26 E2593.444
G1 X108.97 Y65.13 F9000
G1 X112.29 Y68.45 E2594.912 F2400
G1 X115.62 Y71.78 E2596.38
G1 X118.95 Y75.11 E2597.848
G1 X120.59 Y75.33 F9000
G1 X117.15 Y71.89 E2599.364 F2400
G1 X113.71 Y68.46 E2600.88
G1 X110.27 Y65.02 E2602.396
G1 X111.61 Y64.94 F9000
G1 X114.28 Y67.61 E2603.576 F2400
G1 X116.96 Y70.29 E2604.755
G1 X119.63 Y72.96 E2605.934
G1 X122.3 Y75.64 E2607.113
G1 X124.12 Y76.04 F9000
G1 X121.33 Y73.25 E2608.341 F2400
G1 X118.55 Y70.47 E2609.569
G1 X115.76 Y67.68 E2610.797
G1 X112.98 Y64.9 E2612.025
G1 X114.39 Y64.89 F9000
G1 X117.3 Y67.81 E2613.312 F2400
G1 X120.22 Y70.73 E2614.599
G1 X123.14 Y73.64 E2615.886
G1 X126.06 Y76.56 E2617.173
G1 X128.15 Y77.24 F9000
G1 X125.07 Y74.16 E2618.531 F2400
G1 X121.99 Y71.08 E2619.888
G1 X118.91 Y68 E2621.246
G1 X115.83 Y64.92 E2622.604
G1 X117.32 Y64.99 F9000
G1 X120.6 Y68.27 E2624.052 F2400
G1 X123.88 Y71.55 E2625.499
G1 X127.16 Y74.84 E2626.947
G1 X130.45 Y78.12 E2628.394
G1 X133.05 Y79.31 F9000
G1 X130.21 Y76.47 E2629.646 F2400
G1 X127.37 Y73.63 E2630.899
G1 X124.53 Y70.79 E2632.151
G1 X121.69 Y67.95 E2633.403
G1 X118.85 Y65.11 E2634.655
G1 X120.44 Y65.28 F9000
G1 X123.59 Y68.44 E2636.048 F2400
G1 X126.75 Y71.6 E2637.44
G1 X129.91 Y74.76 E2638.833
G1 X133.07 Y77.91 E2640.225
G1 X136.23 Y81.07 E2641.618
G1 E2639.618 F1800
G1 Z2.25
G1 X141.14 Y84.57 F9000
G1 Z1.75
G1 E2641.618 F1800
G1 X137.96 Y81.39 E2643.019 F2400
G1 X134.79 Y78.22 E2644.42
G1 X131.61 Y75.04 E2645.821
G1 X128.43 Y71.86 E2647.221
G1 X125.26 Y68.69 E2648.622
G1 X122.08 Y65.51 E2650.023
G1 E2648.023 F1800
G1 Z2.25
G1 X127.37 Y71.22 F9000
G1 X132.67 Y76.93
G1 X137.96 Y82.65
G1 X148.84 Y92.96
G1 X152.11 Y99.99
G1 X155.38 Y107.01
G1 X156.36 Y118.04
G1 X157.34 Y129.06
G1 Z1.75
G1 E2650.023 F1800
G1 X157.41 Y129.13 E2650.054 F2400
G1 X159.56 Y129.86 F9000
G1 X156.66 Y126.96 E2651.332 F2400
G1 X156.66 Y125.54 F9000
G1 X158.82 Y127.7 E2652.284 F2400
G1 X160.97 Y129.86 E2653.236
G1 X162.39 Y129.86 F9000
G1 X159.52 Y127 E2654.501 F2400
G1 X156.66 Y124.13 E2655.766
G1 X156.65 Y122.71 F9000
G1 X159.04 Y125.1 E2656.817 F2400
G1 X161.42 Y127.48 E2657.869
G1 X163.81 Y129.87 E2658.92
G1 X165.05 Y129.7 F9000
G1 X162.25 Y126.9 E2660.156 F2400
G1 X159.45 Y124.1 E2661.391
G1 X156.65 Y121.3 E2662.626
G1 Y119.88 F9000
G1 X159.72 Y122.95 E2663.981 F2400
G1 X162.79 Y126.02 E2665.335
G1 X165.87 Y129.1 E2666.69
G1 X166.39 Y128.21 F9000
G1 X163.14 Y124.96 E2668.122 F2400
G1 X159.9 Y121.71 E2669.555
G1 X156.65 Y118.46 E2670.987
G1 X156.65 Y117.05 F9000
G1 X159.96 Y120.36 E2672.448 F2400
G1 X163.27 Y123.67 E2673.909
G1 X166.59 Y126.99 E2675.37
G1 X166.59 Y125.57 F9000
G1 X163.26 Y122.25 E2676.836 F2400
G1 X159.94 Y118.93 E2678.301
G1 X156.61 Y115.6 E2679.767
G1 X156.52 Y114.09 F9000
G1 X159.87 Y117.45 E2681.247 F2400
G1 X163.23 Y120.8 E2682.727
G1 X166.59 Y124.16 E2684.207
G1 X166.59 Y122.75 F9000
G1 X163.18 Y119.34 E2685.71 F2400
G1 X159.77 Y115.93 E2687.212
G1 X156.37 Y112.52 E2688.715
G1 X156.14 Y110.89 F9000
G1 X159.62 Y114.37 E2690.25 F2400
G1 X163.1 Y117.85 E2691.786
G1 X166.59 Y121.33 E2693.322
G1 X166.59 Y119.92 F9000
G1 X163.9 Y117.23 E2694.507 F2400
G1 X161.21 Y114.54 E2695.692
G1 X158.52 Y111.86 E2696.877
G1 X155.84 Y109.17 E2698.062
G1 X155.44 Y107.35 F9000
G1 X158.22 Y110.14 E2699.292 F2400
G1 X161.01 Y112.93 E2700.521
G1 X163.8 Y115.72 E2701.751
G1 X166.59 Y118.51 E2702.98
G1 X166.59 Y117.09 F9000
G1 X163.67 Y114.17 E2704.267 F2400
G1 X160.75 Y111.25 E2705.554
G1 X157.83 Y108.33 E2706.842
G1 X154.91 Y105.42 E2708.129
G1 X154.23 Y103.31 F9000
G1 X157.31 Y106.4 E2709.488 F2400
G1 X160.39 Y109.48 E2710.847
G1 X163.47 Y112.56 E2712.206
G1 X166.55 Y115.64 E2713.565
G1 X166.48 Y114.16 F9000
G1 X163.2 Y110.87 E2715.012 F2400
G1 X159.92 Y107.59 E2716.46
G1 X156.63 Y104.31 E2717.907
G1 X153.35 Y101.03 E2719.355
G1 X152.16 Y98.42 F9000
G1 X155 Y101.26 E2720.607 F2400
G1 X157.84 Y104.1 E2721.86
G1 X160.68 Y106.94 E2723.113
G1 X163.52 Y109.78 E2724.366
G1 X166.36 Y112.62 E2725.619
G1 X166.19 Y111.04 F9000
G1 X163.03 Y107.88 E2727.011 F2400
G1 X159.88 Y104.72 E2728.403
G1 X156.72 Y101.57 E2729.796
G1 X153.56 Y98.41 E2731.188
G1 X150.41 Y95.25 E2732.58
G1 E2730.58 F1800
G1 Z2.25
G1 X146.91 Y90.34 F9000
G1 Z1.75
G1 E2732.58 F1800
G1 X150.08 Y93.51 E2733.98 F2400
G1 X153.26 Y96.69 E2735.381
G1 X156.43 Y99.86 E2736.781
G1 X159.61 Y103.04 E2738.182
G1 X162.78 Y106.22 E2739.582
G1 X165.96 Y109.39 E2740.983
G1 X165.67 Y107.69 F9000
G1 X162.18 Y104.2 E2742.522 F2400
G1 X158.69 Y100.71 E2744.061
G1 X155.2 Y97.22 E2745.6
G1 X151.71 Y93.73 E2747.139
G1 X148.22 Y90.24 E2748.678
G1 X144.73 Y86.75 E2750.217
G1 X141.24 Y83.26 E2751.756
G1 X137.75 Y79.77 E2753.295
G1 X134.26 Y76.28 E2754.834
G1 X130.77 Y72.79 E2756.373
G1 X127.28 Y69.3 E2757.912
G1 X123.79 Y65.81 E2759.451
G1 X125.57 Y66.18 F9000
G1 X128.88 Y69.49 E2760.91 F2400
G1 X132.19 Y72.8 E2762.37
G1 X135.5 Y76.11 E2763.83
G1 X138.81 Y79.42 E2765.29
G1 X142.12 Y82.73 E2766.749
G1 X145.43 Y86.04 E2768.209
G1 X148.74 Y89.35 E2769.669
G1 X152.05 Y92.66 E2771.129
G1 X155.36 Y95.97 E2772.588
G1 X158.67 Y99.28 E2774.048
G1 X161.98 Y102.59 E2775.508
G1 X165.3 Y105.9 E2776.967
G1 X164.84 Y104.03 F9000
G1 X161.44 Y100.63 E2778.466 F2400
G1 X158.04 Y97.23 E2779.965
G1 X154.64 Y93.83 E2781.464
G1 X151.24 Y90.43 E2782.963
G1 X147.84 Y87.03 E2784.462
G1 X144.44 Y83.63 E2785.961
G1 X141.04 Y80.23 E2787.46
G1 X137.65 Y76.83 E2788.959
G1 X134.25 Y73.44 E2790.458
G1 X130.85 Y70.04 E2791.957
G1 X127.45 Y66.64 E2793.456
G1 X129.43 Y67.2 F9000
G1 X132.91 Y70.69 E2794.992 F2400
G1 X136.4 Y74.17 E2796.529
G1 X139.88 Y77.66 E2798.066
G1 X143.36 Y81.14 E2799.602
G1 X146.85 Y84.62 E2801.139
G1 X150.33 Y88.11 E2802.676
G1 X153.82 Y91.59 E2804.212
G1 X157.3 Y95.08 E2805.749
G1 X160.79 Y98.56 E2807.286
G1 X164.27 Y102.05 E2808.822
G1 X163.58 Y99.94 F9000
G1 X160.37 Y96.73 E2810.235 F2400
G1 X157.17 Y93.53 E2811.648
G1 X153.96 Y90.32 E2813.061
G1 X150.76 Y87.12 E2814.474
G1 X147.56 Y83.92 E2815.886
G1 X144.35 Y80.71 E2817.299
G1 X141.15 Y77.51 E2818.712
G1 X137.94 Y74.3 E2820.125
G1 X134.74 Y71.1 E2821.538
G1 X131.54 Y67.9 E2822.951
G1 X133.82 Y68.76 F9000
G1 X137.03 Y71.97 E2824.366 F2400
G1 X140.24 Y75.18 E2825.782
G1 X143.45 Y78.39 E2827.198
G1 X146.66 Y81.6 E2828.613
G1 X149.87 Y84.81 E2830.029
G1 X153.08 Y88.03 E2831.445
G1 X156.29 Y91.24 E2832.86
G1 X159.5 Y94.45 E2834.276
G1 X162.71 Y97.66 E2835.692
G1 X161.61 Y95.14 F9000
G1 X158.45 Y91.98 E2837.085 F2400
G1 X155.29 Y88.82 E2838.478
G1 X152.13 Y85.66 E2839.871
G1 X148.97 Y82.5 E2841.264
G1 X145.81 Y79.34 E2842.657
G1 X142.65 Y76.19 E2844.05
G1 X139.49 Y73.03 E2845.444
G1 X136.34 Y69.87 E2846.837
G1 X139.2 Y71.32 F9000
G1 X142.69 Y74.81 E2848.377 F2400
G1 X146.18 Y78.3 E2849.917
G1 X149.68 Y81.79 E2851.457
G1 X153.17 Y85.29 E2852.998
G1 X156.66 Y88.78 E2854.538
G1 X160.15 Y92.27 E2856.078
G1 E2854.078 F1800
G1 Z2.25
G1 X158.05 Y88.76 F9000
G1 Z1.75
G1 E2856.078 F1800
G1 X154.99 Y85.69 E2857.43 F2400
G1 X151.92 Y82.62 E2858.782
G1 X148.85 Y79.56 E2860.134
G1 X145.79 Y76.49 E2861.487
G1 X142.72 Y73.43 E2862.839
G1 E2860.839 F1800
G1 Z2.25
G1 X148.48 Y77.77 F9000
G1 Z1.75
G1 E2862.839 F1800
G1 X151.09 Y80.38 E2863.99 F2400
G1 X153.7 Y82.99 E2865.141
G1 E2863.141 F1800
G1 Z2.25
G1 X146.03 Y81.43 F9000
G1 X138.35 Y79.87
G1 X130.67 Y78.31
G1 X118.09 Y74.93
G1 X103.54 Y76.09
G1 X93.68 Y80.11
G1 X85.05 Y86.19
G1 X75.9 Y97.48
G1 X73.67 Y105.43
G1 X71.45 Y113.38
G1 X72.37 Y118.6
G1 X73.65 Y120.31
G1 Z1.75
G1 E2865.141 F1800
G1 X72.96 Y119.62 E2865.445 F2400
; Layer Change GCode
; LAYER:2
; LAYER_HEIGHT:0.75
; TYPE:FILL
G1 X74.4 Y118.98 Z2.5 F9000
; TYPE:WALL-INNER
G1 Y123.79 E2866.948 F3600
G1 Y128.61 E2868.451
G1 Y133.43 E2869.954
G1 Y138.25 E2871.457
G1 Y143.07 E2872.959
G1 Y147.89 E2874.462
G1 Y152.71 E2875.965
G1 Y157.53 E2877.468
G1 Y162.35 E2878.97
G1 Y167.17 E2880.473
G1 Y171.99 E2881.976
G1 Y176.81 E2883.479
G1 Y181.63 E2884.982
G1 Y186.45 E2886.484
G1 Y191.27 E2887.987
G1 X74.39 Y191.76 E2888.142
G1 X74.38 Y191.8 E2888.154
G1 X74.37 Y191.85 E2888.169
G1 X74.34 Y191.91 E2888.19
G1 X74.31 Y191.96 E2888.208
G1 X74.27 Y192.01 E2888.227
G1 X74.23 Y192.05 E2888.245
G1 X74.18 Y192.08 E2888.263
G1 X74.13 Y192.12 E2888.284
G1 X74.08 Y192.14 E2888.3
G1 X74.01 Y192.16 E2888.323
G1 X73.96 Y192.17 E2888.339
G1 X73.86 Y192.17 E2888.368
G1 X68.9 E2889.915
G1 X63.94 E2891.462
G1 X58.98 E2893.009
G1 X58.77 Y192.17 E2893.074
G1 X58.72 Y192.16 E2893.09
G1 X58.68 Y192.14 E2893.105
G1 X58.62 Y192.11 E2893.126
G1 X58.57 Y192.08 E2893.144
G1 X58.52 Y192.04 E2893.164
G1 X58.48 Y192 E2893.181
G1 X58.44 Y191.96 E2893.199
G1 X58.41 Y191.9 E2893.22
G1 X58.39 Y191.85 E2893.236
G1 X58.37 Y191.78 E2893.259
G1 X58.36 Y191.73 E2893.275
G1 X58.35 Y191.63 E2893.308
G1 Y186.79 E2894.818
G1 Y181.94 E2896.328
G1 Y177.1 E2897.838
G1 Y172.25 E2899.349
G1 Y167.41 E2900.859
G1 Y162.57 E2902.369
G1 Y157.72 E2903.88
G1 Y152.88 E2905.39
G1 Y148.04 E2906.9
G1 Y143.19 E2908.411
G1 Y138.35 E2909.921
G1 Y133.51 E2911.431
G1 Y128.66 E2912.941
G1 Y123.82 E2914.452
G1 Y118.98 E2915.962
G1 X59.95 Y118.98 E2916.46
G1 X59.98 Y116.23 E2917.317
G1 X60.02 Y115.03 E2917.69
G1 X60.09 Y113.77 E2918.084
G1 X60.19 Y112.58 E2918.457
G1 X60.31 Y111.32 E2918.851
G1 X60.46 Y110.13 E2919.224
G1 X60.65 Y108.88 E2919.618
G1 X60.85 Y107.7 E2919.991
G1 X61.09 Y106.5 E2920.374
G1 X61.36 Y105.26 E2920.769
G1 X61.64 Y104.1 E2921.142
G1 X61.96 Y102.91 E2921.525
G1 X62.31 Y101.73 E2921.909
G1 X62.69 Y100.53 E2922.303
G1 X63.08 Y99.4 E2922.676
G1 X63.5 Y98.24 E2923.06
G1 X63.97 Y97.06 E2923.454
G1 X64.43 Y95.96 E2923.827
G1 X64.93 Y94.84 E2924.211
G1 X65.48 Y93.7 E2924.605
G1 X66.01 Y92.63 E2924.977
G1 X66.61 Y91.51 E2925.372
G1 X67.21 Y90.44 E2925.755
G1 X67.82 Y89.41 E2926.128
G1 X68.49 Y88.34 E2926.522
G1 X69.17 Y87.31 E2926.906
G1 X69.84 Y86.33 E2927.279
G1 X70.59 Y85.3 E2927.673
G1 X71.31 Y84.35 E2928.046
G1 X72.09 Y83.36 E2928.44
G1 X72.86 Y82.44 E2928.813
G1 X73.67 Y81.51 E2929.197
G1 X74.5 Y80.6 E2929.58
G1 X75.35 Y79.72 E2929.964
G1 X76.24 Y78.82 E2930.358
G1 X77.13 Y77.97 E2930.742
G1 X78.04 Y77.14 E2931.125
G1 X78.97 Y76.33 E2931.509
G1 X79.89 Y75.57 E2931.882
G1 X80.87 Y74.78 E2932.276
G1 X81.83 Y74.06 E2932.649
G1 X82.85 Y73.32 E2933.043
G1 X83.84 Y72.64 E2933.416
G1 X84.87 Y71.97 E2933.8
G1 X85.94 Y71.3 E2934.194
G1 X86.97 Y70.69 E2934.567
G1 X88.05 Y70.08 E2934.954
G1 X89.16 Y69.49 E2935.345
G1 X90.22 Y68.95 E2935.717
G1 X91.36 Y68.41 E2936.112
G1 X92.47 Y67.91 E2936.491
G1 X93.59 Y67.44 E2936.868
G1 X94.76 Y66.98 E2937.259
G1 X95.91 Y66.56 E2937.641
G1 X97.06 Y66.16 E2938.023
G1 X98.24 Y65.79 E2938.409
G1 X99.43 Y65.44 E2938.794
G1 X100.63 Y65.12 E2939.18
G1 X101.79 Y64.84 E2939.553
G1 X103.02 Y64.57 E2939.946
G1 X104.22 Y64.33 E2940.327
G1 X105.41 Y64.13 E2940.704
G1 X106.66 Y63.94 E2941.098
G1 X107.86 Y63.79 E2941.475
G1 X109.09 Y63.66 E2941.86
G1 X110.3 Y63.57 E2942.238
G1 X111.56 Y63.49 E2942.632
G1 X112.76 Y63.45 E2943.007
G1 X114 Y63.44 E2943.394
G1 X115.24 Y63.45 E2943.781
G1 X116.44 Y63.49 E2944.156
G1 X117.7 Y63.57 E2944.55
G1 X118.91 Y63.66 E2944.928
G1 X120.14 Y63.79 E2945.314
G1 X121.34 Y63.94 E2945.69
G1 X122.59 Y64.13 E2946.085
G1 X123.78 Y64.33 E2946.462
G1 X124.98 Y64.57 E2946.843
G1 X126.21 Y64.84 E2947.235
G1 X127.37 Y65.12 E2947.608
G1 X128.57 Y65.44 E2947.994
G1 X129.76 Y65.79 E2948.38
G1 X130.94 Y66.16 E2948.765
G1 X132.09 Y66.56 E2949.147
G1 X133.24 Y66.98 E2949.529
G1 X134.41 Y67.44 E2949.92
G1 X135.53 Y67.91 E2950.298
G1 X136.64 Y68.41 E2950.677
G1 X137.78 Y68.95 E2951.071
G1 X138.84 Y69.49 E2951.444
G1 X139.95 Y70.08 E2951.834
G1 X141.03 Y70.69 E2952.222
G1 X142.06 Y71.3 E2952.595
G1 X143.13 Y71.97 E2952.989
G1 X144.16 Y72.64 E2953.372
G1 X145.15 Y73.32 E2953.745
G1 X146.16 Y74.05 E2954.135
G1 X147.15 Y74.8 E2954.523
G1 X148.1 Y75.56 E2954.902
G1 X149.03 Y76.33 E2955.28
G1 X149.96 Y77.14 E2955.663
G1 X150.87 Y77.97 E2956.047
G1 X151.76 Y78.82 E2956.43
G1 X152.65 Y79.72 E2956.825
G1 X153.5 Y80.6 E2957.208
G1 X154.33 Y81.51 E2957.591
G1 X155.14 Y82.44 E2957.975
G1 X155.91 Y83.36 E2958.348
G1 X156.69 Y84.35 E2958.742
G1 X157.41 Y85.3 E2959.115
G1 X158.16 Y86.33 E2959.509
G1 X158.83 Y87.31 E2959.882
G1 X159.51 Y88.34 E2960.266
G1 X160.18 Y89.41 E2960.66
G1 X160.79 Y90.44 E2961.033
G1 X161.39 Y91.51 E2961.417
G1 X161.99 Y92.63 E2961.811
G1 X162.52 Y93.7 E2962.184
G1 X163.07 Y94.84 E2962.578
G1 X163.56 Y95.93 E2962.951
G1 X164.03 Y97.06 E2963.334
G1 X164.5 Y98.24 E2963.728
G1 X164.91 Y99.36 E2964.102
G1 X165.31 Y100.53 E2964.485
G1 X165.68 Y101.7 E2964.869
G1 X166.04 Y102.91 E2965.263
G1 X166.36 Y104.1 E2965.646
G1 X166.64 Y105.26 E2966.02
G1 X166.91 Y106.5 E2966.414
G1 X167.14 Y107.67 E2966.787
G1 X167.35 Y108.88 E2967.17
G1 X167.54 Y110.13 E2967.564
G1 X167.69 Y111.32 E2967.937
G1 X167.81 Y112.54 E2968.321
G1 X167.91 Y113.77 E2968.705
G1 X167.98 Y115.03 E2969.099
G1 X168.03 Y116.64 E2969.6
G1 X168.03 Y120.2 E2970.711
G1 Y123.77 E2971.823
G1 Y127.34 E2972.935
G1 X168.01 Y127.59 E2973.015
G1 X167.93 Y128.16 E2973.195
G1 X167.84 Y128.49 E2973.299
G1 X167.69 Y128.93 E2973.446
G1 X167.48 Y129.38 E2973.6
G1 X167.26 Y129.75 E2973.734
G1 X166.93 Y130.19 E2973.906
G1 X166.7 Y130.43 E2974.008
G1 X166.32 Y130.77 E2974.168
G1 X165.97 Y131.01 E2974.302
G1 X165.59 Y131.22 E2974.436
G1 X165.2 Y131.39 E2974.568
G1 X164.74 Y131.51 E2974.716
G1 X164.24 Y131.57 E2974.874
G1 X159.16 Y131.57 E2976.459
G1 X158.9 Y131.57 E2976.539
G1 X158.52 Y131.51 E2976.659
G1 X158.05 Y131.39 E2976.81
G1 X157.77 Y131.28 E2976.903
G1 X157.36 Y131.06 E2977.048
G1 X156.98 Y130.8 E2977.193
G1 X156.6 Y130.48 E2977.35
G1 X156.34 Y130.2 E2977.467
G1 X156.11 Y129.91 E2977.583
G1 X155.85 Y129.52 E2977.729
G1 X155.67 Y129.18 E2977.85
G1 X155.49 Y128.75 E2977.995
G1 X155.34 Y128.21 E2978.168
G1 X155.25 Y127.74 E2978.317
G1 X155.22 Y127.33 E2978.447
G1 X155.21 Y124.02 E2979.477
G1 Y120.72 E2980.507
G1 X155.2 Y116.48 E2981.829
G1 X155.15 Y115.15 E2982.245
G1 X155.02 Y113.5 E2982.761
G1 X154.87 Y112.17 E2983.177
G1 X154.63 Y110.54 E2983.692
G1 X154.38 Y109.23 E2984.108
G1 X154.02 Y107.61 E2984.624
G1 X153.67 Y106.32 E2985.04
G1 X153.2 Y104.74 E2985.555
G1 X152.76 Y103.48 E2985.971
G1 X152.17 Y101.94 E2986.487
G1 X151.65 Y100.71 E2986.903
G1 X150.95 Y99.21 E2987.418
G1 X150.33 Y98.03 E2987.835
G1 X149.52 Y96.58 E2988.351
G1 X148.65 Y95.17 E2988.869
G1 X147.73 Y93.79 E2989.386
G1 X146.75 Y92.45 E2989.903
G1 X145.92 Y91.41 E2990.319
G1 X144.85 Y90.15 E2990.834
G1 X143.95 Y89.16 E2991.251
G1 X142.79 Y87.98 E2991.766
G1 X141.82 Y87.07 E2992.182
G1 X140.58 Y85.98 E2992.698
G1 X139.54 Y85.13 E2993.114
G1 X138.23 Y84.13 E2993.629
G1 X137.13 Y83.37 E2994.045
G1 X135.75 Y82.47 E2994.561
G1 X134.6 Y81.78 E2994.977
G1 X133.16 Y80.98 E2995.492
G1 X131.96 Y80.38 E2995.909
G1 X130.46 Y79.69 E2996.424
G1 X129.23 Y79.18 E2996.84
G1 X127.68 Y78.6 E2997.356
G1 X126.41 Y78.18 E2997.772
G1 X124.83 Y77.71 E2998.287
G1 X123.53 Y77.38 E2998.704
G1 X121.92 Y77.03 E2999.219
G1 X120.61 Y76.8 E2999.635
G1 X118.97 Y76.56 E3000.15
G1 X117.64 Y76.42 E3000.567
G1 X115.99 Y76.31 E3001.082
G1 X114.66 Y76.27 E3001.498
G1 X113.01 Y76.27 E3002.013
G1 X111.67 Y76.33 E3002.43
G1 X110.02 Y76.45 E3002.945
G1 X108.7 Y76.61 E3003.361
G1 X107.06 Y76.85 E3003.876
G1 X105.75 Y77.1 E3004.293
G1 X104.14 Y77.46 E3004.808
G1 X102.85 Y77.8 E3005.225
G1 X101.27 Y78.28 E3005.74
G1 X100.01 Y78.71 E3006.156
G1 X98.46 Y79.3 E3006.671
G1 X97.23 Y79.83 E3007.088
G1 X95.74 Y80.53 E3007.603
G1 X94.55 Y81.14 E3008.019
G1 X93.11 Y81.95 E3008.535
G1 X91.97 Y82.65 E3008.951
G1 X90.59 Y83.56 E3009.466
G1 X89.51 Y84.33 E3009.882
G1 X88.19 Y85.34 E3010.398
G1 X87.17 Y86.19 E3010.814
G1 X85.93 Y87.29 E3011.329
G1 X84.97 Y88.22 E3011.746
G1 X83.82 Y89.4 E3012.26
G1 X83.15 Y90.15 E3012.574
G1 X82.29 Y91.16 E3012.988
G1 X81.25 Y92.45 E3013.503
G1 X80.46 Y93.53 E3013.92
G1 X79.53 Y94.89 E3014.435
G1 X78.82 Y96.02 E3014.85
G1 X77.98 Y97.44 E3015.366
G1 X77.35 Y98.62 E3015.782
G1 X76.63 Y100.1 E3016.298
G1 X76.09 Y101.33 E3016.714
G1 X75.47 Y102.86 E3017.23
G1 X75.02 Y104.12 E3017.646
G1 X74.51 Y105.69 E3018.161
G1 X74.15 Y106.97 E3018.577
G1 X73.76 Y108.58 E3019.092
G1 X73.49 Y109.89 E3019.509
G1 X73.22 Y111.52 E3020.024
G1 X73.05 Y112.84 E3020.441
G1 X72.9 Y114.49 E3020.956
G1 X72.82 Y115.82 E3021.372
G1 X72.75 Y118.98 E3022.356
G1 X74.3 E3022.838
G1 X74.4
G1 X73.78 Y117.98 F9000
; TYPE:WALL-OUTER
G1 X75.4 E3023.345 F3000
G1 Y122.86 E3024.869
G1 Y127.75 E3026.393
G1 Y132.64 E3027.917
G1 Y137.53 E3029.441
G1 Y142.41 E3030.965
G1 Y147.3 E3032.489
G1 Y152.19 E3034.013
G1 Y157.08 E3035.537
G1 Y161.96 E3037.061
G1 Y166.85 E3038.586
G1 Y171.74 E3040.11
G1 Y176.63 E3041.634
G1 Y181.52 E3043.158
G1 Y186.4 E3044.682
G1 Y191.29 E3046.206
G1 X75.39 Y191.87 E3046.387
G1 X75.35 Y192.04 E3046.44
G1 X75.3 Y192.21 E3046.496
G1 X75.22 Y192.38 E3046.553
G1 X75.13 Y192.53 E3046.608
G1 X75.02 Y192.68 E3046.667
G1 X74.89 Y192.8 E3046.723
G1 X74.75 Y192.91 E3046.777
G1 X74.59 Y193.01 E3046.836
G1 X74.43 Y193.08 E3046.889
G1 X74.24 Y193.13 E3046.951
G1 X74.08 Y193.16 E3047.002
G1 X73.89 Y193.17 E3047.063
G1 X68.91 E3048.614
G1 X63.94 E3050.166
G1 X58.96 E3051.718
G1 X58.65 Y193.16 E3051.813
G1 X58.49 Y193.13 E3051.866
G1 X58.31 Y193.08 E3051.922
G1 X58.15 Y193 E3051.979
G1 X58 Y192.91 E3052.034
G1 X57.85 Y192.79 E3052.093
G1 X57.72 Y192.66 E3052.149
G1 X57.62 Y192.53 E3052.203
G1 X57.52 Y192.36 E3052.263
G1 X57.45 Y192.21 E3052.315
G1 X57.39 Y192.02 E3052.377
G1 X57.36 Y191.86 E3052.428
G1 X57.35 Y191.66 E3052.49
G1 Y186.75 E3054.022
G1 Y181.83 E3055.554
G1 Y176.92 E3057.085
G1 Y172.01 E3058.617
G1 Y167.1 E3060.149
G1 Y162.19 E3061.681
G1 Y157.27 E3063.212
G1 Y152.36 E3064.744
G1 Y147.45 E3066.276
G1 Y142.54 E3067.807
G1 Y137.62 E3069.339
G1 Y132.71 E3070.871
G1 Y127.8 E3072.403
G1 Y122.89 E3073.934
G1 Y117.98 E3075.466
G1 X58.96 Y117.98 E3075.967
G1 X58.98 Y116.23 E3076.512
G1 X59.02 Y114.96 E3076.907
G1 X59.09 Y113.73 E3077.293
G1 X59.19 Y112.48 E3077.684
G1 X59.32 Y111.23 E3078.075
G1 X59.47 Y109.99 E3078.466
G1 X59.66 Y108.75 E3078.856
G1 X59.87 Y107.51 E3079.247
G1 X60.12 Y106.27 E3079.641
G1 X60.38 Y105.06 E3080.029
G1 X60.68 Y103.84 E3080.419
G1 X61 Y102.63 E3080.81
G1 X61.35 Y101.43 E3081.201
G1 X61.74 Y100.22 E3081.595
G1 X62.14 Y99.05 E3081.982
G1 X62.57 Y97.87 E3082.373
G1 X63.03 Y96.71 E3082.763
G1 X63.52 Y95.54 E3083.157
G1 X64.03 Y94.41 E3083.544
G1 X64.57 Y93.28 E3083.935
G1 X65.14 Y92.15 E3084.329
G1 X65.72 Y91.05 E3084.717
G1 X66.33 Y89.96 E3085.107
G1 X66.97 Y88.88 E3085.498
G1 X67.64 Y87.82 E3085.888
G1 X68.32 Y86.77 E3086.279
G1 X69.04 Y85.73 E3086.673
G1 X69.77 Y84.73 E3087.061
G1 X70.53 Y83.72 E3087.455
G1 X71.3 Y82.75 E3087.842
G1 X72.11 Y81.78 E3088.232
G1 X72.93 Y80.84 E3088.623
G1 X73.77 Y79.91 E3089.014
G1 X74.64 Y79.01 E3089.404
G1 X75.53 Y78.11 E3089.799
G1 X76.44 Y77.25 E3090.189
G1 X77.35 Y76.41 E3090.576
G1 X78.3 Y75.59 E3090.967
G1 X79.27 Y74.78 E3091.361
G1 X80.24 Y74.01 E3091.748
G1 X81.25 Y73.24 E3092.142
G1 X82.26 Y72.52 E3092.53
G1 X83.3 Y71.8 E3092.924
G1 X84.34 Y71.12 E3093.311
G1 X85.4 Y70.45 E3093.702
G1 X86.48 Y69.81 E3094.092
G1 X87.58 Y69.2 E3094.487
G1 X88.67 Y68.61 E3094.874
G1 X89.79 Y68.05 E3095.264
G1 X90.94 Y67.51 E3095.659
G1 X92.07 Y67 E3096.046
G1 X93.23 Y66.51 E3096.44
G1 X94.39 Y66.05 E3096.827
G1 X95.56 Y65.62 E3097.218
G1 X96.75 Y65.21 E3097.608
G1 X97.95 Y64.83 E3098.002
G1 X99.16 Y64.48 E3098.393
G1 X100.36 Y64.16 E3098.78
G1 X101.58 Y63.86 E3099.174
G1 X102.8 Y63.59 E3099.562
G1 X104.03 Y63.35 E3099.955
G1 X105.26 Y63.14 E3100.343
G1 X106.51 Y62.95 E3100.737
G1 X107.75 Y62.79 E3101.128
G1 X109 Y62.67 E3101.517
G1 X110.24 Y62.57 E3101.906
G1 X111.49 Y62.5 E3102.297
G1 X112.75 Y62.45 E3102.691
G1 X114 Y62.44 E3103.079
G1 X115.25 Y62.45 E3103.469
G1 X116.51 Y62.5 E3103.863
G1 X117.76 Y62.57 E3104.253
G1 X119 Y62.67 E3104.642
G1 X120.25 Y62.79 E3105.031
G1 X121.49 Y62.95 E3105.422
G1 X122.74 Y63.14 E3105.816
G1 X123.97 Y63.35 E3106.204
G1 X125.2 Y63.59 E3106.597
G1 X126.42 Y63.86 E3106.985
G1 X127.64 Y64.16 E3107.379
G1 X128.84 Y64.48 E3107.766
G1 X130.05 Y64.83 E3108.157
G1 X131.25 Y65.21 E3108.551
G1 X132.44 Y65.62 E3108.941
G1 X133.61 Y66.05 E3109.332
G1 X134.77 Y66.51 E3109.719
G1 X135.93 Y67 E3110.113
G1 X137.06 Y67.5 E3110.5
G1 X138.21 Y68.05 E3110.895
G1 X139.33 Y68.61 E3111.285
G1 X140.42 Y69.2 E3111.673
G1 X141.52 Y69.81 E3112.067
G1 X142.59 Y70.45 E3112.454
G1 X143.66 Y71.12 E3112.848
G1 X144.7 Y71.8 E3113.235
G1 X145.74 Y72.52 E3113.629
G1 X146.75 Y73.24 E3114.017
G1 X147.76 Y74.01 E3114.411
G1 X148.73 Y74.78 E3114.798
G1 X149.69 Y75.58 E3115.189
G1 X150.64 Y76.4 E3115.579
G1 X151.56 Y77.25 E3115.97
G1 X152.47 Y78.11 E3116.36
G1 X153.36 Y79.01 E3116.755
G1 X154.23 Y79.91 E3117.145
G1 X155.06 Y80.83 E3117.532
G1 X155.89 Y81.78 E3117.923
G1 X156.69 Y82.74 E3118.314
G1 X157.47 Y83.72 E3118.705
G1 X158.23 Y84.73 E3119.099
G1 X158.96 Y85.73 E3119.486
G1 X159.68 Y86.77 E3119.88
G1 X160.36 Y87.81 E3120.267
G1 X161.02 Y88.87 E3120.658
G1 X161.66 Y89.95 E3121.049
G1 X162.28 Y91.05 E3121.443
G1 X162.86 Y92.15 E3121.83
G1 X163.43 Y93.27 E3122.22
G1 X163.97 Y94.41 E3122.615
G1 X164.48 Y95.54 E3123.002
G1 X164.97 Y96.71 E3123.396
G1 X165.42 Y97.86 E3123.783
G1 X165.86 Y99.04 E3124.174
G1 X166.26 Y100.22 E3124.564
G1 X166.64 Y101.42 E3124.955
G1 X166.99 Y102.62 E3125.346
G1 X167.32 Y103.83 E3125.736
G1 X167.62 Y105.05 E3126.127
G1 X167.88 Y106.27 E3126.518
G1 X168.13 Y107.5 E3126.909
G1 X168.34 Y108.74 E3127.299
G1 X168.52 Y109.99 E3127.693
G1 X168.68 Y111.22 E3128.081
G1 X168.81 Y112.46 E3128.471
G1 X168.91 Y113.71 E3128.862
G1 X168.98 Y114.96 E3129.252
G1 X169.03 Y116.64 E3129.775
G1 X169.03 Y120.22 E3130.89
G1 Y123.79 E3132.006
G1 Y127.37 E3133.122
G1 X169.01 Y127.71 E3133.228
G1 X168.91 Y128.36 E3133.432
G1 X168.8 Y128.78 E3133.567
G1 X168.61 Y129.31 E3133.743
G1 X168.36 Y129.85 E3133.928
G1 X168.09 Y130.29 E3134.09
G1 X167.7 Y130.83 E3134.298
G1 X167.4 Y131.14 E3134.433
G1 X166.94 Y131.55 E3134.624
G1 X166.5 Y131.86 E3134.793
G1 X166.03 Y132.13 E3134.962
G1 X165.53 Y132.33 E3135.13
G1 X164.94 Y132.49 E3135.321
G1 X164.31 Y132.57 E3135.518
G1 X161.73 Y132.57 E3136.322
G1 X159.16 E3137.125
G1 X158.81 Y132.56 E3137.233
G1 X158.32 Y132.5 E3137.387
G1 X157.75 Y132.34 E3137.573
G1 X157.35 Y132.19 E3137.704
G1 X156.85 Y131.93 E3137.881
G1 X156.37 Y131.6 E3138.062
G1 X155.91 Y131.2 E3138.252
G1 X155.58 Y130.85 E3138.402
G1 X155.29 Y130.49 E3138.545
G1 X154.99 Y130.03 E3138.717
G1 X154.76 Y129.6 E3138.869
G1 X154.55 Y129.08 E3139.044
G1 X154.36 Y128.44 E3139.252
G1 X154.26 Y127.87 E3139.434
G1 X154.22 Y127.38 E3139.588
G1 X154.21 Y124.05 E3140.625
G1 Y120.72 E3141.663
G1 X154.2 Y116.5 E3142.978
G1 X154.15 Y115.21 E3143.383
G1 X154.03 Y113.59 E3143.887
G1 X153.88 Y112.3 E3144.292
G1 X153.64 Y110.71 E3144.796
G1 X153.4 Y109.43 E3145.201
G1 X153.05 Y107.85 E3145.705
G1 X152.71 Y106.6 E3146.11
G1 X152.25 Y105.05 E3146.614
G1 X151.82 Y103.82 E3147.019
G1 X151.25 Y102.31 E3147.523
G1 X150.73 Y101.12 E3147.928
G1 X150.05 Y99.65 E3148.432
G1 X149.45 Y98.5 E3148.837
G1 X148.66 Y97.09 E3149.341
G1 X147.81 Y95.71 E3149.846
G1 X146.91 Y94.37 E3150.352
G1 X145.95 Y93.06 E3150.856
G1 X145.15 Y92.04 E3151.26
G1 X144.1 Y90.81 E3151.765
G1 X143.22 Y89.85 E3152.17
G1 X142.09 Y88.7 E3152.673
G1 X141.14 Y87.81 E3153.079
G1 X139.93 Y86.74 E3153.583
G1 X138.92 Y85.92 E3153.988
G1 X137.64 Y84.94 E3154.492
G1 X136.57 Y84.2 E3154.896
G1 X135.22 Y83.32 E3155.4
G1 X134.1 Y82.65 E3155.806
G1 X132.69 Y81.87 E3156.31
G1 X131.53 Y81.28 E3156.715
G1 X130.06 Y80.61 E3157.218
G1 X128.86 Y80.11 E3157.624
G1 X127.35 Y79.54 E3158.128
G1 X126.11 Y79.13 E3158.533
G1 X124.57 Y78.68 E3159.036
G1 X123.31 Y78.36 E3159.442
G1 X121.73 Y78.01 E3159.946
G1 X120.45 Y77.78 E3160.351
G1 X118.85 Y77.56 E3160.854
G1 X117.56 Y77.42 E3161.26
G1 X115.94 Y77.31 E3161.764
G1 X114.64 Y77.27 E3162.169
G1 X113.03 Y77.27 E3162.672
G1 X111.73 Y77.33 E3163.077
G1 X110.12 Y77.45 E3163.582
G1 X108.83 Y77.6 E3163.986
G1 X107.23 Y77.84 E3164.49
G1 X105.95 Y78.08 E3164.895
G1 X104.38 Y78.43 E3165.399
G1 X103.12 Y78.76 E3165.805
G1 X101.57 Y79.23 E3166.308
G1 X100.35 Y79.65 E3166.713
G1 X98.84 Y80.23 E3167.217
G1 X97.64 Y80.74 E3167.623
G1 X96.18 Y81.43 E3168.126
G1 X95.02 Y82.02 E3168.532
G1 X93.61 Y82.81 E3169.035
G1 X92.51 Y83.49 E3169.44
G1 X91.16 Y84.38 E3169.944
G1 X90.1 Y85.14 E3170.349
G1 X88.82 Y86.12 E3170.853
G1 X87.82 Y86.95 E3171.258
G1 X86.61 Y88.03 E3171.762
G1 X85.68 Y88.93 E3172.167
G1 X84.55 Y90.09 E3172.671
G1 X83.9 Y90.81 E3172.975
G1 X83.06 Y91.8 E3173.379
G1 X82.05 Y93.06 E3173.883
G1 X81.28 Y94.1 E3174.288
G1 X80.36 Y95.44 E3174.792
G1 X79.67 Y96.53 E3175.197
G1 X78.86 Y97.93 E3175.701
G1 X78.24 Y99.08 E3176.106
G1 X77.53 Y100.53 E3176.61
G1 X77.01 Y101.72 E3177.015
G1 X76.4 Y103.21 E3177.519
G1 X75.96 Y104.44 E3177.924
G1 X75.47 Y105.98 E3178.428
G1 X75.12 Y107.23 E3178.833
G1 X74.73 Y108.8 E3179.337
G1 X74.48 Y110.07 E3179.742
G1 X74.21 Y111.66 E3180.246
G1 X74.04 Y112.95 E3180.651
G1 X73.89 Y114.56 E3181.155
G1 X73.82 Y115.86 E3181.56
G1 X73.78 Y117.88 E3182.19
G1 X73.78 Y117.98
G1 X75.4
G1 Y119.35
G1 X74.4 Y118.98 F9000
G1 E3180.19 F1800
G1 Z3
G1 X73.27 F9000
G1 X59.98 Y119.62
; TYPE:FILL
G1 Z2.5
G1 E3182.19 F1800
G1 X59 Y120.61 E3182.623 F2400
G1 E3180.623 F1800
G1 Z3
G1 X61.91 Y112.04 F9000
G1 X64.82 Y103.48
G1 X67.72 Y94.91
G1 X70.63 Y86.34
G1 Z2.5
G1 E3182.623 F1800
G1 X73.69 Y83.29 E3183.972 F2400
G1 X76.75 Y80.23 E3185.321
G1 X79.81 Y77.17 E3186.67
G1 X82.87 Y74.11 E3188.019
G1 E3186.019 F1800
G1 Z3
G1 X86.93 Y71.46 F9000
G1 Z2.5
G1 E3188.019 F1800
G1 X83.77 Y74.62 E3189.411 F2400
G1 X80.61 Y77.78 E3190.803
G1 X77.46 Y80.93 E3192.195
G1 X74.3 Y84.09 E3193.587
G1 X71.14 Y87.25 E3194.979
G1 X67.99 Y90.4 E3196.371
G1 X66.3 Y93.51 F9000
G1 X69.69 Y90.12 E3197.866 F2400
G1 X73.08 Y86.73 E3199.361
G1 X76.47 Y83.34 E3200.856
G1 X79.86 Y79.94 E3202.351
G1 X83.25 Y76.55 E3203.846
G1 X86.64 Y73.16 E3205.341
G1 X90.03 Y69.77 E3206.836
G1 X92.7 Y68.52 F9000
G1 X89.24 Y71.98 E3208.36 F2400
G1 X85.78 Y75.44 E3209.884
G1 X82.33 Y78.89 E3211.408
G1 X78.87 Y82.35 E3212.932
G1 X75.42 Y85.8 E3214.456
G1 X71.96 Y89.26 E3215.98
G1 X68.5 Y92.72 E3217.504
G1 X65.05 Y96.17 E3219.028
G1 X64.08 Y98.56 F9000
G1 X67.52 Y95.11 E3220.547 F2400
G1 X70.97 Y91.67 E3222.066
G1 X74.41 Y88.22 E3223.585
G1 X77.86 Y84.78 E3225.104
G1 X81.3 Y81.33 E3226.623
G1 X84.75 Y77.89 E3228.142
G1 X88.19 Y74.44 E3229.661
G1 X91.64 Y71 E3231.18
G1 X95.08 Y67.55 E3232.699
G1 X97.27 Y66.78 F9000
G1 X93.87 Y70.17 E3234.197 F2400
G1 X90.48 Y73.57 E3235.695
G1 X87.08 Y76.97 E3237.193
G1 X83.68 Y80.36 E3238.692
G1 X80.29 Y83.76 E3240.19
G1 X76.89 Y87.16 E3241.688
G1 X73.49 Y90.56 E3243.186
G1 X70.09 Y93.95 E3244.684
G1 X66.7 Y97.35 E3246.182
G1 X63.3 Y100.75 E3247.68
G1 X62.68 Y102.79 F9000
G1 X66.01 Y99.46 E3249.149 F2400
G1 X69.34 Y96.13 E3250.617
G1 X72.67 Y92.79 E3252.086
G1 X76 Y89.46 E3253.555
G1 X79.33 Y86.13 E3255.024
G1 X82.66 Y82.8 E3256.492
G1 X85.99 Y79.47 E3257.961
G1 X89.32 Y76.14 E3259.43
G1 X92.65 Y72.81 E3260.899
G1 X95.98 Y69.48 E3262.367
G1 X99.31 Y66.15 E3263.836
G1 X101.24 Y65.64 F9000
G1 X97.98 Y68.89 E3265.272 F2400
G1 X94.73 Y72.15 E3266.708
G1 X91.47 Y75.41 E3268.144
G1 X88.21 Y78.66 E3269.58
G1 X84.96 Y81.92 E3271.016
G1 X81.7 Y85.18 E3272.452
G1 X78.44 Y88.43 E3273.888
G1 X75.19 Y91.69 E3275.324
G1 X71.93 Y94.95 E3276.759
G1 X68.68 Y98.2 E3278.195
G1 X65.42 Y101.46 E3279.631
G1 X62.16 Y104.71 E3281.067
G1 X61.74 Y106.55 F9000
G1 X65.19 Y103.1 E3282.586 F2400
G1 X68.63 Y99.66 E3284.105
G1 X72.08 Y96.21 E3285.624
G1 X75.52 Y92.77 E3287.142
G1 X78.96 Y89.33 E3288.661
G1 X82.41 Y85.88 E3290.18
G1 X85.85 Y82.44 E3291.699
G1 X89.3 Y78.99 E3293.217
G1 X92.74 Y75.55 E3294.736
G1 X96.18 Y72.11 E3296.255
G1 X99.63 Y68.66 E3297.774
G1 X103.07 Y65.22 E3299.293
G1 X104.82 Y64.89 F9000
G1 X101.48 Y68.22 E3300.765 F2400
G1 X98.14 Y71.56 E3302.238
G1 X94.8 Y74.9 E3303.71
G1 X91.46 Y78.24 E3305.183
G1 X88.12 Y81.58 E3306.655
G1 X84.78 Y84.92 E3308.128
G1 X81.45 Y88.26 E3309.6
G1 X78.11 Y91.6 E3311.073
G1 X74.77 Y94.94 E3312.545
G1 X71.43 Y98.28 E3314.018
G1 X68.09 Y101.62 E3315.49
G1 X64.75 Y104.96 E3316.963
G1 X61.41 Y108.3 E3318.435
G1 X61.14 Y109.98 F9000
G1 X64.63 Y106.49 E3319.974 F2400
G1 X68.12 Y103 E3321.512
G1 X71.61 Y99.51 E3323.051
G1 X75.1 Y96.02 E3324.59
G1 X78.59 Y92.53 E3326.128
G1 X82.08 Y89.04 E3327.667
G1 X85.57 Y85.55 E3329.205
G1 X89.06 Y82.06 E3330.744
G1 X92.55 Y78.57 E3332.282
G1 X96.03 Y75.08 E3333.821
G1 X99.52 Y71.6 E3335.36
G1 X103.01 Y68.11 E3336.898
G1 X106.5 Y64.62 E3338.437
G1 E3336.437 F1800
G1 Z3
G1 X100.32 Y71.16 F9000
G1 X94.13 Y77.7
G1 X87.94 Y84.23
G1 X81.76 Y90.77
G1 Z2.5
G1 E3338.437 F1800
G1 X78.29 Y94.24 E3339.967 F2400
G1 X74.82 Y97.71 E3341.497
G1 X71.35 Y101.18 E3343.027
G1 X67.88 Y104.65 E3344.558
G1 X64.41 Y108.12 E3346.088
G1 X60.94 Y111.6 E3347.618
G1 X60.79 Y113.16 F9000
G1 X64.28 Y109.67 E3349.158 F2400
G1 X67.77 Y106.17 E3350.697
G1 X71.26 Y102.68 E3352.237
G1 X74.76 Y99.19 E3353.777
G1 X78.25 Y95.7 E3355.316
G1 E3353.316 F1800
G1 Z3
G1 X87.27 Y85.26 F9000
G1 Z2.5
G1 E3355.316 F1800
G1 X90.75 Y81.79 E3356.848 F2400
G1 X94.22 Y78.31 E3358.38
G1 X97.7 Y74.84 E3359.912
G1 X101.17 Y71.36 E3361.445
G1 X104.64 Y67.89 E3362.977
G1 X108.12 Y64.41 E3364.509
G1 X109.68 Y64.27 F9000
G1 X106.19 Y67.76 E3366.049 F2400
G1 X102.7 Y71.25 E3367.59
G1 X99.2 Y74.75 E3369.13
G1 X95.71 Y78.24 E3370.671
G1 X92.22 Y81.73 E3372.211
G1 X95.38 Y79.98 F9000
G1 X98.55 Y76.82 E3373.606 F2400
G1 X101.71 Y73.65 E3375.001
G1 X104.87 Y70.49 E3376.396
G1 X108.03 Y67.33 E3377.791
G1 X111.2 Y64.16 E3379.186
G1 X112.67 Y64.1 F9000
G1 X109.73 Y67.04 E3380.482 F2400
G1 X106.79 Y69.98 E3381.778
G1 X103.85 Y72.92 E3383.075
G1 X100.91 Y75.86 E3384.371
G1 X97.97 Y78.8 E3385.668
G1 X100.25 Y77.94 F9000
G1 X103.71 Y74.48 E3387.195 F2400
G1 X107.18 Y71.01 E3388.722
G1 X110.64 Y67.55 E3390.248
G1 X114.1 Y64.09 E3391.775
G1 X115.49 Y64.11 F9000
G1 X112.2 Y67.4 E3393.227 F2400
G1 X108.91 Y70.7 E3394.679
G1 X105.62 Y73.99 E3396.131
G1 X102.32 Y77.28 E3397.583
G1 X104.25 Y76.77 F9000
G1 X107.4 Y73.62 E3398.972 F2400
G1 X110.55 Y70.47 E3400.361
G1 X113.7 Y67.32 E3401.75
G1 X116.85 Y64.17 E3403.139
G1 X118.18 Y64.25 F9000
G1 X115.15 Y67.29 E3404.476 F2400
G1 X112.12 Y70.32 E3405.812
G1 X109.09 Y73.35 E3407.149
G1 X106.06 Y76.38 E3408.485
G1 X107.76 Y76.09 F9000
G1 X110.69 Y73.16 E3409.777 F2400
G1 X113.62 Y70.23 E3411.068
G1 X116.55 Y67.3 E3412.36
G1 X119.47 Y64.37 E3413.652
G1 X120.74 Y64.52 F9000
G1 X117.9 Y67.36 E3414.903 F2400
G1 X115.07 Y70.2 E3416.155
G1 X112.23 Y73.03 E3417.407
G1 X109.39 Y75.87 E3418.658
G1 X110.94 Y75.73 F9000
G1 X113.7 Y72.97 E3419.876 F2400
G1 X116.46 Y70.21 E3421.093
G1 X119.22 Y67.45 E3422.31
G1 X121.98 Y64.69 E3423.527
G1 X123.2 Y64.89 F9000
G1 X120.51 Y67.58 E3424.713 F2400
G1 X117.82 Y70.27 E3425.899
G1 X115.13 Y72.96 E3427.085
G1 X112.44 Y75.65 E3428.271
G1 X113.88 Y75.62 F9000
G1 X117.39 Y72.12 E3429.815 F2400
G1 X120.89 Y68.61 E3431.36
G1 X124.39 Y65.11 E3432.905
G1 X125.56 Y65.36 F9000
G1 X122.13 Y68.78 E3434.416 F2400
G1 X118.71 Y72.21 E3435.927
G1 X115.28 Y75.64 E3437.437
G1 X116.63 Y75.7 F9000
G1 X119.99 Y72.34 E3438.919 F2400
G1 X123.35 Y68.98 E3440.4
G1 X126.71 Y65.63 E3441.881
G1 X127.83 Y65.91 F9000
G1 X124.54 Y69.21 E3443.335 F2400
G1 X121.24 Y72.51 E3444.788
G1 X117.94 Y75.8 E3446.241
G1 X119.22 Y75.94 F9000
G1 X122.46 Y72.7 E3447.67 F2400
G1 X125.7 Y69.46 E3449.098
G1 X128.94 Y66.22 E3450.526
G1 X130.02 Y66.55 F9000
G1 X126.83 Y69.74 E3451.932 F2400
G1 X123.65 Y72.93 E3453.338
G1 X120.46 Y76.12 E3454.744
G1 X121.67 Y76.32 F9000
G1 X124.81 Y73.18 E3456.129 F2400
G1 X127.95 Y70.04 E3457.514
G1 X131.09 Y66.9 E3458.9
G1 X132.14 Y67.27 F9000
G1 X129.04 Y70.37 E3460.266 F2400
G1 X125.94 Y73.46 E3461.633
G1 X122.84 Y76.56 E3463
G1 X123.99 Y76.83 F9000
G1 X127.05 Y73.77 E3464.349 F2400
G1 X130.11 Y70.71 E3465.698
G1 X133.17 Y67.65 E3467.046
G1 X134.18 Y68.05 F9000
G1 X131.16 Y71.07 E3468.379 F2400
G1 X128.14 Y74.09 E3469.712
G1 X125.12 Y77.12 E3471.044
G1 X126.21 Y77.44 F9000
G1 X129.2 Y74.45 E3472.363 F2400
G1 X132.19 Y71.46 E3473.681
G1 X135.18 Y68.47 E3475
G1 X136.16 Y68.91 F9000
G1 X133.2 Y71.86 E3476.305 F2400
G1 X130.24 Y74.82 E3477.609
G1 X127.28 Y77.78 E3478.914
G1 X128.33 Y78.15 F9000
G1 X131.26 Y75.22 E3480.206 F2400
G1 X134.19 Y72.29 E3481.498
G1 X137.12 Y69.36 E3482.79
G1 X138.07 Y69.82 F9000
G1 X135.16 Y72.73 E3484.071 F2400
G1 X132.26 Y75.63 E3485.351
G1 X129.36 Y78.53 E3486.631
G1 X130.36 Y78.95 F9000
G1 X133.24 Y76.07 E3487.901 F2400
G1 X136.12 Y73.19 E3489.171
G1 X139 Y70.31 E3490.441
G1 X139.91 Y70.8 F9000
G1 X137.05 Y73.66 E3491.702 F2400
G1 X134.2 Y76.52 E3492.962
G1 X131.34 Y79.38 E3494.223
G1 X132.3 Y79.83 F9000
G1 X135.14 Y76.99 E3495.474 F2400
G1 X137.98 Y74.15 E3496.726
G1 X140.82 Y71.31 E3497.977
G1 X141.71 Y71.84 F9000
G1 X138.89 Y74.66 E3499.221 F2400
G1 X136.07 Y77.48 E3500.465
G1 X133.25 Y80.3 E3501.708
G1 X134.16 Y80.8 F9000
G1 X136.97 Y77.99 E3502.945 F2400
G1 X139.77 Y75.19 E3504.182
G1 X142.58 Y72.38 E3505.418
G1 X143.43 Y72.94 F9000
G1 X140.65 Y75.73 E3506.648 F2400
G1 X137.86 Y78.52 E3507.877
G1 X135.07 Y81.31 E3509.107
G1 X135.96 Y81.83 F9000
G1 X138.73 Y79.06 E3510.33 F2400
G1 X141.5 Y76.28 E3511.554
G1 X144.28 Y73.51 E3512.777
G1 X145.11 Y74.09 F9000
G1 X142.34 Y76.86 E3513.996 F2400
