; Generated with MatterSlice 2.22.04
; filamentDiameter = 1.75
; extrusionWidth = 1
; firstLayerExtrusionWidth = 0.5
; layerThickness = 0.3
; firstLayerThickness = 0.75
; automatic settings before start_gcode
G21 ; set units to millimeters
M107 ; fan off
M140 S50 ; start heating the bed
M104 T0 S210 ; start heating T0
M190 S50 ; wait for bed temperature to be reached
T0 ; set the active extruder to 0
; settings from start_gcode
G28 X0 Y0 Z0 ; home all axes
G1 Z5 F5000
M109 S210 ; set the extruder temp and wait
G28 X0 Y0 Z0 ; Home Z again in case there was filament on nozzle
G29 ; probe the bed
; automatic settings after start_gcode
T0 ; set the active extruder to 0
G90 ; use absolute coordinates
G92 E0 ; reset the expected extruder position
M82 ; use absolute distance for extrusion
; Layer count: 85
; RAFT BASE
; Layer Change GCode
; LAYER:-3
; LAYER_HEIGHT:0.75
G1 X115.3 Y60.32 Z1.25 F9000
; TYPE:SUPPORT
G1 Z0.75
G1 F1800
G1 X116.6 Y60.37 E1.219 F1080
G1 X117.9 Y60.44 E2.434
G1 X119.2 Y60.55 E3.652
G1 X120.49 Y60.68 E4.869
G1 X121.78 Y60.84 E6.086
G1 X123.07 Y61.03 E7.305
G1 X124.35 Y61.25 E8.521
G1 X125.63 Y61.5 E9.738
G1 X126.9 Y61.78 E10.957
G1 X128.16 Y62.09 E12.172
G1 X129.42 Y62.43 E13.392
G1 X130.67 Y62.79 E14.608
G1 X131.91 Y63.19 E15.824
G1 X133.14 Y63.61 E17.042
G1 X134.36 Y64.06 E18.26
G1 X135.58 Y64.54 E19.479
G1 X136.77 Y65.04 E20.695
G1 X137.96 Y65.57 E21.911
G1 X139.14 Y66.13 E23.13
G1 X140.3 Y66.72 E24.347
G1 X141.45 Y67.33 E25.564
G1 X142.58 Y67.97 E26.78
G1 X143.7 Y68.63 E27.998
G1 X144.81 Y69.32 E29.217
G1 X145.9 Y70.03 E30.434
G1 X146.97 Y70.77 E31.65
G1 X148.02 Y71.53 E32.868
G1 X149.06 Y72.32 E34.086
G1 X150.08 Y73.13 E35.303
G1 X151.08 Y73.96 E36.519
G1 X152.06 Y74.82 E37.737
G1 X153.02 Y75.7 E38.954
G1 X153.96 Y76.59 E40.17
G1 X154.88 Y77.52 E41.391
G1 X155.78 Y78.46 E42.608
G1 X156.66 Y79.42 E43.825
G1 X157.51 Y80.4 E45.043
G1 X158.34 Y81.4 E46.259
G1 X159.15 Y82.42 E47.476
G1 X159.94 Y83.45 E48.694
G1 X160.7 Y84.51 E49.912
G1 X161.44 Y85.58 E51.128
G1 X162.15 Y86.67 E52.345
G1 X162.84 Y87.77 E53.564
G1 X163.51 Y88.89 E54.782
G1 X164.14 Y90.03 E55.998
G1 X164.76 Y91.17 E57.215
G1 X165.34 Y92.34 E58.432
G1 X165.9 Y93.51 E59.651
G1 X166.43 Y94.7 E60.867
G1 X166.94 Y95.9 E62.083
G1 X167.42 Y97.11 E63.302
G1 X167.87 Y98.33 E64.519
G1 X168.29 Y99.56 E65.738
G1 X168.68 Y100.8 E66.954
G1 X169.05 Y102.05 E68.17
G1 X169.38 Y103.31 E69.39
G1 X169.69 Y104.57 E70.605
G1 X169.97 Y105.84 E71.824
G1 X170.22 Y107.12 E73.041
G1 X170.44 Y108.4 E74.257
G1 X170.63 Y109.69 E75.476
G1 X170.8 Y110.98 E76.693
G1 X170.93 Y112.28 E77.91
G1 X171.03 Y113.57 E79.128
G1 X171.11 Y114.88 E80.353
G1 X171.15 Y116.42 E81.789
G1 X171.17 Y127.26 E91.934
G1 X171.13 Y127.95 E92.58
G1 X170.97 Y128.83 E93.415
G1 X170.66 Y129.77 E94.338
G1 X170.31 Y130.46 E95.065
G1 X169.71 Y131.42 E96.122
G1 X168.74 Y132.37 E97.395
G1 X167.54 Y133.18 E98.748
G1 X166.54 Y133.53 E99.737
G1 X165.55 Y133.78 E100.699
G1 X158.36 Y133.79 E107.423
G1 X157.33 Y133.73 E108.386
G1 X155.92 Y133.27 E109.778
G1 X154.72 Y132.55 E111.082
G1 X153.66 Y131.57 E112.434
G1 X153.01 Y130.6 E113.53
G1 X152.6 Y129.78 E114.383
G1 X152.26 Y128.76 E115.389
G1 X152.08 Y127.6 E116.493
G1 Y119.16 E124.382
G1 X152.07 Y116.55 E126.83
G1 X152.04 Y115.62 E127.7
G1 X151.98 Y114.72 E128.544
G1 X151.91 Y113.78 E129.418
G1 X151.81 Y112.91 E130.242
G1 X151.68 Y111.95 E131.148
G1 X151.55 Y111.09 E131.958
G1 X151.37 Y110.14 E132.866
G1 X151.19 Y109.28 E133.689
G1 X150.97 Y108.33 E134.596
G1 X150.76 Y107.51 E135.396
G1 X150.49 Y106.56 E136.313
G1 X150.22 Y105.72 E137.138
G1 X149.92 Y104.82 E138.03
G1 X149.62 Y103.99 E138.852
G1 X149.27 Y103.11 E139.736
G1 X148.92 Y102.27 E140.595
G1 X148.53 Y101.42 E141.46
G1 X148.14 Y100.6 E142.309
G1 X147.72 Y99.77 E143.19
G1 X147.27 Y98.95 E144.061
G1 X146.84 Y98.2 E144.868
G1 X146.43 Y97.51 E145.615
G1 X145.94 Y96.74 E146.475
G1 X145.33 Y95.83 E147.498
G1 X144.81 Y95.09 E148.344
G1 X144.25 Y94.34 E149.215
G1 X143.7 Y93.64 E150.055
G1 X143.1 Y92.91 E150.934
G1 X142.52 Y92.23 E151.773
G1 X141.9 Y91.56 E152.626
G1 X141.25 Y90.87 E153.509
G1 X140.6 Y90.22 E154.37
G1 X139.92 Y89.57 E155.253
G1 X139.24 Y88.96 E156.106
G1 X138.56 Y88.37 E156.945
G1 X137.84 Y87.77 E157.825
G1 X137.13 Y87.22 E158.664
G1 X136.39 Y86.66 E159.535
G1 X135.64 Y86.14 E160.387
G1 X134.88 Y85.62 E161.249
G1 X134.09 Y85.12 E162.128
G1 X133.29 Y84.64 E162.998
G1 X132.53 Y84.2 E163.818
G1 X131.71 Y83.76 E164.689
G1 X130.87 Y83.33 E165.57
G1 X130.05 Y82.94 E166.419
G1 X129.21 Y82.56 E167.284
G1 X128.36 Y82.2 E168.143
G1 X127.48 Y81.86 E169.027
G1 X126.66 Y81.56 E169.849
G1 X125.75 Y81.25 E170.741
G1 X124.91 Y80.99 E171.566
G1 X123.97 Y80.72 E172.483
G1 X123.14 Y80.5 E173.283
G1 X122.2 Y80.28 E174.19
G1 X121.34 Y80.1 E175.013
G1 X120.38 Y79.93 E175.921
G1 X119.53 Y79.79 E176.731
G1 X118.57 Y79.67 E177.637
G1 X117.69 Y79.57 E178.461
G1 X116.76 Y79.49 E179.335
G1 X115.86 Y79.44 E180.179
G1 X114.92 Y79.4 E181.057
G1 X114 Y79.39 E181.919
G1 X113.08 Y79.4 E182.78
G1 X112.14 Y79.44 E183.659
G1 X111.24 Y79.49 E184.502
G1 X110.31 Y79.57 E185.376
G1 X109.43 Y79.67 E186.201
G1 X108.47 Y79.79 E187.107
G1 X107.62 Y79.93 E187.917
G1 X106.66 Y80.1 E188.825
G1 X105.8 Y80.28 E189.647
G1 X104.86 Y80.5 E190.554
G1 X104.03 Y80.72 E191.354
G1 X103.09 Y80.99 E192.272
G1 X102.25 Y81.25 E193.097
G1 X101.34 Y81.56 E193.988
G1 X100.52 Y81.86 E194.811
G1 X99.64 Y82.2 E195.695
G1 X98.79 Y82.56 E196.553
G1 X97.95 Y82.94 E197.419
G1 X97.13 Y83.33 E198.268
G1 X96.29 Y83.76 E199.149
G1 X95.47 Y84.2 E200.019
G1 X94.71 Y84.64 E200.839
G1 X93.91 Y85.12 E201.71
G1 X93.12 Y85.62 E202.588
G1 X92.36 Y86.14 E203.451
G1 X91.61 Y86.66 E204.303
G1 X90.87 Y87.22 E205.174
G1 X90.16 Y87.77 E206.013
G1 X89.44 Y88.37 E206.892
G1 X88.76 Y88.96 E207.732
G1 X88.08 Y89.57 E208.585
G1 X87.4 Y90.22 E209.468
G1 X86.75 Y90.87 E210.329
G1 X86.1 Y91.56 E211.212
G1 X85.48 Y92.23 E212.064
G1 X84.9 Y92.91 E212.904
G1 X84.3 Y93.64 E213.783
G1 X83.75 Y94.34 E214.623
G1 X83.19 Y95.09 E215.494
G1 X82.66 Y95.83 E216.345
G1 X82.14 Y96.6 E217.216
G1 X81.65 Y97.37 E218.069
G1 X81.16 Y98.19 E218.965
G1 X80.73 Y98.95 E219.777
G1 X80.28 Y99.77 E220.648
G1 X79.86 Y100.6 E221.529
G1 X79.47 Y101.42 E222.378
G1 X79.08 Y102.27 E223.243
G1 X78.73 Y103.11 E224.102
G1 X78.38 Y103.99 E224.985
G1 X78.08 Y104.82 E225.808
G1 X77.78 Y105.72 E226.7
G1 X77.51 Y106.56 E227.525
G1 X77.24 Y107.51 E228.442
G1 X77.03 Y108.33 E229.242
G1 X76.81 Y109.28 E230.149
G1 X76.63 Y110.14 E230.972
G1 X76.45 Y111.09 E231.88
G1 X76.32 Y111.95 E232.69
G1 X76.25 Y112.48 E233.187
G1 X79.66 E236.374
G1 Y192.01 E310.774
G1 X79.47 Y193.36 E312.051
G1 X78.47 Y195.36 E314.139
G1 X76.68 Y196.82 E316.303
G1 X74.72 Y197.43 E318.22
G1 X58.03 E333.833
G1 X56.13 Y196.84 E335.694
G1 X54.41 Y195.5 E337.735
G1 X53.36 Y193.61 E339.754
G1 X53.09 Y192.14 E341.153
G1 X53.09 Y112.48 E415.674
G1 X57.05 E419.378
G1 X57.07 Y112.28 E419.565
G1 X57.2 Y110.98 E420.782
G1 X57.37 Y109.69 E421.999
G1 X57.56 Y108.4 E423.218
G1 X57.78 Y107.12 E424.434
G1 X58.03 Y105.84 E425.651
G1 X58.31 Y104.57 E426.87
G1 X58.62 Y103.31 E428.085
G1 X58.95 Y102.05 E429.305
G1 X59.32 Y100.8 E430.521
G1 X59.71 Y99.56 E431.737
G1 X60.13 Y98.33 E432.955
G1 X60.58 Y97.11 E434.173
G1 X61.06 Y95.9 E435.392
G1 X61.57 Y94.7 E436.608
G1 X62.1 Y93.51 E437.824
G1 X62.66 Y92.34 E439.043
G1 X63.24 Y91.17 E440.26
G1 X63.86 Y90.03 E441.477
G1 X64.49 Y88.89 E442.693
G1 X65.16 Y87.77 E443.911
G1 X65.85 Y86.67 E445.13
G1 X66.56 Y85.58 E446.347
G1 X67.3 Y84.51 E447.563
G1 X68.06 Y83.45 E448.781
G1 X68.85 Y82.42 E449.999
G1 X69.66 Y81.4 E451.216
G1 X70.49 Y80.4 E452.432
G1 X71.34 Y79.42 E453.65
G1 X72.22 Y78.46 E454.867
G1 X73.12 Y77.52 E456.083
G1 X74.04 Y76.59 E457.304
G1 X74.98 Y75.7 E458.52
G1 X75.94 Y74.82 E459.738
G1 X76.92 Y73.96 E460.956
G1 X77.92 Y73.13 E462.172
G1 X78.94 Y72.32 E463.389
G1 X79.98 Y71.53 E464.607
G1 X81.03 Y70.77 E465.825
G1 X82.1 Y70.03 E467.04
G1 X83.19 Y69.32 E468.258
G1 X84.3 Y68.63 E469.477
G1 X85.42 Y67.97 E470.695
G1 X86.55 Y67.33 E471.911
G1 X87.7 Y66.72 E473.128
G1 X88.86 Y66.13 E474.345
G1 X90.04 Y65.57 E475.564
G1 X91.23 Y65.04 E476.78
G1 X92.42 Y64.54 E477.995
G1 X93.64 Y64.06 E479.215
G1 X94.86 Y63.61 E480.432
G1 X96.09 Y63.19 E481.651
G1 X97.33 Y62.79 E482.866
G1 X98.58 Y62.43 E484.083
G1 X99.84 Y62.09 E485.303
G1 X101.1 Y61.78 E486.518
G1 X102.37 Y61.5 E487.737
G1 X103.65 Y61.25 E488.954
G1 X104.93 Y61.03 E490.17
G1 X106.22 Y60.84 E491.389
G1 X107.51 Y60.68 E492.606
G1 X108.8 Y60.55 E493.823
G1 X110.1 Y60.44 E495.041
G1 X111.4 Y60.37 E496.256
G1 X112.7 Y60.32 E497.475
G1 X114 Y60.31 E498.692
G1 X115.3 Y60.32 E499.91
G1 X122.98 Y64 F9000
G1 X105.02 E516.711 F1080
G1 X91.81 Y68 F9000
G1 X136.19 Y68 E558.223 F1080
G1 X143.53 Y72 F9000
G1 X84.47 Y72 E613.475 F1080
G1 X79.07 Y76 F9000
G1 X148.93 Y76 E678.822 F1080
G1 X153.19 Y80 F9000
G1 X130.68 E699.875 F1080
G1 X137.71 Y84 F9000
G1 X156.66 E717.597 F1080
G1 X159.51 Y88 F9000
G1 X142.53 E733.481 F1080
G1 X146.15 Y92 F9000
G1 X161.87 E748.179 F1080
G1 X163.79 Y96 F9000
G1 X148.95 E762.06 F1080
G1 X151.11 Y100 F9000
G1 X165.33 E775.36 F1080
G1 X166.53 Y104 F9000
G1 X152.75 E788.249 F1080
G1 X153.91 Y108 F9000
G1 X167.39 E800.856 F1080
G1 X167.95 Y112 F9000
G1 X154.66 E813.288 F1080
G1 X154.99 Y116 F9000
G1 X168.2 E825.643 F1080
G1 X168.22 Y120 F9000
G1 X155.02 E837.985 F1080
G1 Y124 F9000
G1 X168.22 E850.331 F1080
G1 X168.13 Y128 F9000
G1 X155.12 E862.503 F1080
G1 E859.503 F1800
G1 Z1.25
G1 X97.32 Y80 F9000
G1 Z0.75
G1 E862.503 F1800
G1 X74.81 E883.555 F1080
G1 X71.34 Y84 F9000
G1 X90.29 E901.278 F1080
G1 X85.47 Y88 F9000
G1 X68.49 E917.162 F1080
G1 X66.13 Y92 F9000
G1 X81.85 E931.859 F1080
G1 X79.05 Y96 F9000
G1 X64.21 E945.741 F1080
G1 X62.67 Y100 F9000
G1 X76.89 E959.042 F1080
G1 X75.25 Y104 F9000
G1 X61.47 E971.933 F1080
G1 X60.61 Y108 F9000
G1 X74.09 E984.541 F1080
G1 X73.35 Y112 F9000
G1 X60.05 E996.974 F1080
G1 X56.03 Y116 F9000
G1 X76.72 E1016.321 F1080
G1 Y120 F9000
G1 X56.03 E1035.668 F1080
G1 Y124 F9000
G1 X76.72 E1055.015 F1080
G1 Y128 F9000
G1 X56.03 E1074.362 F1080
G1 Y132 F9000
G1 X76.72 E1093.708 F1080
G1 Y136 F9000
G1 X56.03 E1113.055 F1080
G1 Y140 F9000
G1 X76.72 E1132.402 F1080
G1 Y144 F9000
G1 X56.03 E1151.749 F1080
G1 Y148 F9000
G1 X76.72 E1171.096 F1080
G1 Y152 F9000
G1 X56.03 E1190.442 F1080
G1 X56.03 Y156 F9000
G1 X76.71 E1209.789 F1080
G1 Y160 F9000
G1 X56.03 E1229.136 F1080
G1 Y164 F9000
G1 X76.71 E1248.483 F1080
G1 Y168 F9000
G1 X56.03 E1267.83 F1080
G1 Y172 F9000
G1 X76.71 E1287.176 F1080
G1 Y176 F9000
G1 X56.03 E1306.523 F1080
G1 Y180 F9000
G1 X76.71 E1325.87 F1080
G1 Y184 F9000
G1 X56.03 E1345.217 F1080
G1 Y188 F9000
G1 X76.71 E1364.564 F1080
G1 X76.69 Y192 F9000
G1 X56.06 E1383.865 F1080
; RAFT MIDDLE
; Layer Change GCode
; LAYER:-2
; LAYER_HEIGHT:0.625
G1 X53.03 Y190.92 Z1.375 F9000
; TYPE:SUPPORT
G1 X56.32 Y194.2 E1384.921 F3600
G1 X59.6 Y197.49 E1385.977
G1 X63.14 Y197.49 F9000
G1 X59.77 Y194.12 E1387.059 F3600
G1 X56.4 Y190.75 E1388.142
G1 X53.03 Y187.38 E1389.225
G1 X53.03 Y183.85 F9000
G1 X56.44 Y187.26 E1390.322 F3600
G1 X59.85 Y190.67 E1391.418
G1 X63.26 Y194.08 E1392.515
G1 X66.67 Y197.49 E1393.611
G1 X70.21 Y197.49 F9000
G1 X66.77 Y194.05 E1394.715 F3600
G1 X63.34 Y190.62 E1395.82
G1 X59.9 Y187.18 E1396.924
G1 X56.47 Y183.75 E1398.029
G1 X53.03 Y180.31 E1399.133
G1 X53.03 Y176.78 F9000
G1 X56.48 Y180.23 E1400.243 F3600
G1 X59.94 Y183.68 E1401.353
G1 X63.39 Y187.13 E1402.463
G1 X66.84 Y190.58 E1403.573
G1 X70.29 Y194.04 E1404.683
G1 X73.74 Y197.49 E1405.793
G1 X76.68 Y196.88 F9000
G1 X73.3 Y193.51 E1406.879 F3600
G1 X69.92 Y190.13 E1407.965
G1 X66.54 Y186.75 E1409.051
G1 X63.17 Y183.37 E1410.137
G1 X59.79 Y180 E1411.223
G1 X56.41 Y176.62 E1412.309
G1 X53.03 Y173.24 E1413.395
G1 X53.03 Y169.71 F9000
G1 X56.23 Y172.9 E1414.422 F3600
G1 X59.42 Y176.09 E1415.449
G1 X62.61 Y179.29 E1416.475
G1 X65.81 Y182.48 E1417.502
G1 X69 Y185.67 E1418.529
G1 X72.19 Y188.87 E1419.556
G1 X75.39 Y192.06 E1420.583
G1 X78.58 Y195.26 E1421.61
G1 X79.61 Y192.75 F9000
G1 X76.29 Y189.43 E1422.678 F3600
G1 X72.97 Y186.11 E1423.747
G1 X69.65 Y182.78 E1424.815
G1 X66.32 Y179.46 E1425.883
G1 X63 Y176.14 E1426.952
G1 X59.68 Y172.82 E1428.02
G1 X56.36 Y169.49 E1429.088
G1 X53.03 Y166.17 E1430.157
G1 X53.03 Y162.64 F9000
G1 X56.37 Y165.97 E1431.229 F3600
G1 X59.7 Y169.31 E1432.301
G1 X63.04 Y172.64 E1433.374
G1 X66.37 Y175.98 E1434.446
G1 X69.71 Y179.31 E1435.519
G1 X73.04 Y182.65 E1436.591
G1 X76.38 Y185.98 E1437.663
G1 X79.71 Y189.32 E1438.736
G1 X79.71 Y185.78 F9000
G1 X76.38 Y182.44 E1439.808 F3600
G1 X73.04 Y179.11 E1440.881
G1 X69.71 Y175.77 E1441.953
G1 X66.37 Y172.44 E1443.025
G1 X63.04 Y169.1 E1444.098
G1 X59.7 Y165.77 E1445.17
G1 X56.37 Y162.43 E1446.242
G1 X53.03 Y159.1 E1447.315
G1 X53.03 Y155.56 F9000
G1 X56.37 Y158.9 E1448.387 F3600
G1 X59.7 Y162.23 E1449.46
G1 X63.04 Y165.57 E1450.532
G1 X66.37 Y168.9 E1451.604
G1 X69.71 Y172.24 E1452.677
G1 X73.04 Y175.57 E1453.749
G1 X76.38 Y178.91 E1454.821
G1 X79.71 Y182.25 E1455.894
G1 X79.71 Y178.71 F9000
G1 X76.38 Y175.37 E1456.966 F3600
G1 X73.04 Y172.04 E1458.039
G1 X69.71 Y168.7 E1459.111
G1 X66.37 Y165.37 E1460.183
G1 X63.04 Y162.03 E1461.256
G1 X59.7 Y158.7 E1462.328
G1 X56.37 Y155.36 E1463.401
G1 X53.03 Y152.03 E1464.473
G1 X53.03 Y148.49 F9000
G1 X56.37 Y151.83 E1465.545 F3600
G1 X59.7 Y155.16 E1466.618
G1 X63.04 Y158.5 E1467.69
G1 X66.37 Y161.83 E1468.762
G1 X69.71 Y165.17 E1469.835
G1 X73.04 Y168.5 E1470.907
G1 X76.38 Y171.84 E1471.98
G1 X79.71 Y175.17 E1473.052
G1 X79.71 Y171.64 F9000
G1 X76.38 Y168.3 E1474.124 F3600
G1 X73.04 Y164.97 E1475.197
G1 X69.71 Y161.63 E1476.269
G1 X66.37 Y158.3 E1477.341
G1 X63.04 Y154.96 E1478.414
G1 X59.7 Y151.63 E1479.486
G1 X56.37 Y148.29 E1480.559
G1 X53.03 Y144.96 E1481.631
G1 X53.03 Y141.42 F9000
G1 X56.37 Y144.76 E1482.703 F3600
G1 X59.7 Y148.09 E1483.776
G1 X63.04 Y151.43 E1484.848
G1 X66.37 Y154.76 E1485.921
G1 X69.71 Y158.1 E1486.993
G1 X73.04 Y161.43 E1488.065
G1 X76.38 Y164.77 E1489.138
G1 X79.71 Y168.1 E1490.21
G1 X79.71 Y164.57 F9000
G1 X76.38 Y161.23 E1491.282 F3600
G1 X73.04 Y157.9 E1492.355
G1 X69.71 Y154.56 E1493.427
G1 X66.37 Y151.23 E1494.5
G1 X63.04 Y147.89 E1495.572
G1 X59.7 Y144.56 E1496.644
G1 X56.37 Y141.22 E1497.717
G1 X53.03 Y137.89 E1498.789
G1 X53.03 Y134.35 F9000
G1 X56.37 Y137.69 E1499.862 F3600
G1 X59.7 Y141.02 E1500.934
G1 X63.04 Y144.36 E1502.006
G1 X66.37 Y147.69 E1503.079
G1 X69.71 Y151.03 E1504.151
G1 X73.04 Y154.36 E1505.224
G1 X76.38 Y157.7 E1506.296
G1 X79.71 Y161.03 E1507.368
G1 X79.71 Y157.5 F9000
G1 X76.38 Y154.16 E1508.441 F3600
G1 X73.04 Y150.83 E1509.513
G1 X69.71 Y147.49 E1510.585
G1 X66.37 Y144.16 E1511.658
G1 X63.04 Y140.82 E1512.73
G1 X59.7 Y137.49 E1513.802
G1 X56.37 Y134.15 E1514.875
G1 X53.03 Y130.82 E1515.947
G1 X53.03 Y127.28 F9000
G1 X56.37 Y130.62 E1517.019 F3600
G1 X59.7 Y133.95 E1518.092
G1 X63.04 Y137.29 E1519.164
G1 X66.37 Y140.62 E1520.236
G1 X69.71 Y143.96 E1521.309
G1 X73.04 Y147.29 E1522.381
G1 X76.38 Y150.63 E1523.454
G1 X79.71 Y153.96 E1524.526
G1 X79.71 Y150.43 F9000
G1 X76.38 Y147.09 E1525.598 F3600
G1 X73.04 Y143.76 E1526.671
G1 X69.71 Y140.42 E1527.743
G1 X66.37 Y137.09 E1528.815
G1 X63.04 Y133.75 E1529.888
G1 X59.7 Y130.42 E1530.96
G1 X56.37 Y127.08 E1532.032
G1 X53.03 Y123.75 E1533.105
G1 X53.03 Y120.21 F9000
G1 X56.37 Y123.54 E1534.177 F3600
G1 X59.7 Y126.88 E1535.249
G1 X63.04 Y130.21 E1536.322
G1 X66.37 Y133.55 E1537.394
G1 X69.71 Y136.88 E1538.466
G1 X73.04 Y140.22 E1539.539
G1 X76.38 Y143.55 E1540.611
G1 X79.71 Y146.89 E1541.684
G1 X79.71 Y143.35 F9000
G1 X76.38 Y140.02 E1542.756 F3600
G1 X73.04 Y136.68 E1543.828
G1 X69.71 Y133.35 E1544.901
G1 X66.37 Y130.01 E1545.973
G1 X63.04 Y126.68 E1547.045
G1 X59.7 Y123.34 E1548.118
G1 X56.37 Y120.01 E1549.19
G1 X53.03 Y116.67 E1550.262
G1 X53.03 Y113.14 F9000
G1 X56.37 Y116.47 E1551.335 F3600
G1 X59.7 Y119.81 E1552.407
G1 X63.04 Y123.14 E1553.479
G1 X66.37 Y126.48 E1554.552
G1 X69.71 Y129.81 E1555.624
G1 X73.04 Y133.15 E1556.696
G1 X76.38 Y136.48 E1557.769
G1 X79.71 Y139.82 E1558.841
G1 X79.71 Y136.28 F9000
G1 X76.3 Y132.87 E1559.938 F3600
G1 X72.89 Y129.46 E1561.034
G1 X69.48 Y126.05 E1562.13
G1 X66.07 Y122.64 E1563.227
G1 X62.66 Y119.23 E1564.323
G1 X59.25 Y115.82 E1565.42
G1 X55.85 Y112.41 E1566.516
G1 X57.23 Y110.27 F9000
G1 X60.44 Y113.48 E1567.549 F3600
G1 X63.66 Y116.69 E1568.581
G1 X66.87 Y119.9 E1569.614
G1 X70.08 Y123.11 E1570.647
G1 X73.29 Y126.32 E1571.679
G1 X76.5 Y129.54 E1572.712
G1 X79.71 Y132.75 E1573.745
G1 X79.71 Y129.21 F9000
G1 X76.57 Y126.07 E1574.756 F3600
G1 X73.43 Y122.92 E1575.767
G1 X70.28 Y119.78 E1576.778
G1 X67.14 Y116.63 E1577.789
G1 X63.99 Y113.49 E1578.8
G1 X60.85 Y110.35 E1579.811
G1 X57.7 Y107.2 E1580.822
G1 X58.32 Y104.28 F9000
G1 X61.37 Y107.34 E1581.805 F3600
G1 X64.43 Y110.39 E1582.788
G1 X67.49 Y113.45 E1583.77
G1 X70.54 Y116.51 E1584.753
G1 X73.6 Y119.56 E1585.736
G1 X76.66 Y122.62 E1586.719
G1 X79.71 Y125.68 E1587.702
G1 X79.71 Y122.14 F9000
G1 X76.27 Y118.7 E1588.809 F3600
G1 X72.83 Y115.25 E1589.916
G1 X69.39 Y111.81 E1591.023
G1 X65.94 Y108.37 E1592.13
G1 X62.5 Y104.93 E1593.237
G1 X59.06 Y101.48 E1594.344
G1 X59.91 Y98.8 F9000
G1 X63.21 Y102.1 E1595.406 F3600
G1 X66.51 Y105.4 E1596.467
G1 X69.81 Y108.7 E1597.528
G1 X73.11 Y112 E1598.59
G1 X76.41 Y115.3 E1599.651
G1 X79.71 Y118.61 E1600.712
G1 X79.71 Y115.07 F9000
G1 X77.06 Y112.41 E1601.566 F3600
G1 X76.41 Y111.76 F9000
G1 X73.3 Y108.66 E1602.566 F3600
G1 X70.19 Y105.55 E1603.565
G1 X67.08 Y102.44 E1604.565
G1 X63.98 Y99.33 E1605.564
G1 X60.87 Y96.22 E1606.563
G1 X61.93 Y93.75 F9000
G1 X64.94 Y96.76 E1607.531 F3600
G1 X67.95 Y99.77 E1608.499
G1 X70.96 Y102.78 E1609.467
G1 X73.97 Y105.79 E1610.435
G1 X76.98 Y108.8 E1611.403
G1 X77.74 Y106.03 F9000
G1 X74.81 Y103.09 E1612.346 F3600
G1 X71.88 Y100.16 E1613.289
G1 X68.94 Y97.23 E1614.232
G1 X66.01 Y94.3 E1615.175
G1 X63.08 Y91.36 E1616.118
G1 X64.32 Y89.07 F9000
G1 X67.19 Y91.94 E1617.041 F3600
G1 X70.06 Y94.81 E1617.963
G1 X72.93 Y97.68 E1618.886
G1 X75.8 Y100.55 E1619.809
G1 X78.67 Y103.42 E1620.732
G1 X79.75 Y100.96 F9000
G1 X76.23 Y97.44 E1621.865 F3600
G1 X72.7 Y93.91 E1622.999
G1 X69.18 Y90.39 E1624.132
G1 X65.65 Y86.86 E1625.265
G1 X67.06 Y84.74 F9000
G1 X70.54 Y88.22 E1626.383 F3600
G1 X74.01 Y91.69 E1627.501
G1 X77.49 Y95.17 E1628.618
G1 X80.97 Y98.64 E1629.736
G1 X82.32 Y96.46 F9000
G1 X78.88 Y93.02 E1630.842 F3600
G1 X75.44 Y89.58 E1631.948
G1 X72 Y86.14 E1633.054
G1 X68.56 Y82.7 E1634.16
G1 X70.13 Y80.74 F9000
G1 X73.54 Y84.15 E1635.258 F3600
G1 X76.96 Y87.56 E1636.355
G1 X80.37 Y90.98 E1637.453
G1 X83.78 Y94.39 E1638.551
G1 X85.38 Y92.45 F9000
G1 X81.98 Y89.05 E1639.644 F3600
G1 X78.58 Y85.65 E1640.737
G1 X75.18 Y82.25 E1641.83
G1 X71.78 Y78.85 E1642.923
G1 X73.51 Y77.04 F9000
G1 X76.9 Y80.44 E1644.014 F3600
G1 X80.29 Y83.83 E1645.105
G1 X83.69 Y87.22 E1646.197
G1 X87.08 Y90.62 E1647.288
G1 X88.91 Y88.91 F9000
G1 X85.51 Y85.51 E1648.381 F3600
G1 X82.11 Y82.11 E1649.474
G1 X78.71 Y78.71 E1650.567
G1 X75.31 Y75.31 E1651.66
G1 X77.19 Y73.66 F9000
G1 X80.61 Y77.07 E1652.757 F3600
G1 X84.02 Y80.49 E1653.855
G1 X87.43 Y83.9 E1654.952
G1 X90.85 Y87.31 E1656.05
G1 X92.91 Y85.84 F9000
G1 X89.47 Y82.4 E1657.155 F3600
G1 X86.03 Y78.96 E1658.261
G1 X82.59 Y75.52 E1659.367
G1 X79.15 Y72.08 E1660.473
G1 X81.19 Y70.59 F9000
G1 X84.67 Y74.06 E1661.59 F3600
G1 X88.14 Y77.54 E1662.707
G1 X91.62 Y81.01 E1663.824
G1 X95.09 Y84.49 E1664.941
G1 X97.41 Y83.26 F9000
G1 X93.88 Y79.74 E1666.074 F3600
G1 X90.36 Y76.22 E1667.207
G1 X86.84 Y72.7 E1668.34
G1 X83.31 Y69.17 E1669.473
G1 X85.52 Y67.84 F9000
G1 X88.39 Y70.71 E1670.395 F3600
G1 X91.25 Y73.58 E1671.317
G1 X94.12 Y76.44 E1672.239
G1 X96.99 Y79.31 E1673.161
G1 X99.86 Y82.18 E1674.083
G1 X102.46 Y81.25 F9000
G1 X99.53 Y78.32 E1675.025 F3600
G1 X96.6 Y75.39 E1675.968
G1 X93.67 Y72.46 E1676.91
G1 X90.74 Y69.53 E1677.852
G1 X87.81 Y66.6 E1678.794
G1 X90.19 Y65.44 F9000
G1 X93.2 Y68.45 E1679.761 F3600
G1 X96.2 Y71.45 E1680.728
G1 X99.21 Y74.46 E1681.695
G1 X102.22 Y77.47 E1682.663
G1 X105.23 Y80.48 E1683.63
G1 X108.18 Y79.9 F9000
G1 X105.08 Y76.79 E1684.628 F3600
G1 X101.97 Y73.69 E1685.626
G1 X98.87 Y70.59 E1686.624
G1 X95.77 Y67.48 E1687.622
G1 X92.66 Y64.38 E1688.621
G1 X95.24 Y63.42 F9000
G1 X98.46 Y66.64 E1689.658 F3600
G1 X101.69 Y69.87 E1690.695
G1 X104.91 Y73.09 E1691.732
G1 X108.14 Y76.32 E1692.769
G1 X111.36 Y79.54 E1693.806
G1 X114.82 Y79.46 F9000
G1 X111.44 Y76.08 E1694.893 F3600
G1 X108.05 Y72.7 E1695.98
G1 X104.67 Y69.32 E1697.067
G1 X101.29 Y65.94 E1698.154
G1 X97.91 Y62.56 E1699.241
G1 X100.71 Y61.82 F9000
G1 X103.69 Y64.8 E1700.201 F3600
G1 X106.68 Y67.79 E1701.161
G1 X109.67 Y70.77 E1702.122
G1 X112.65 Y73.76 E1703.082
G1 X115.64 Y76.75 E1704.042
G1 X118.62 Y79.73 E1705.002
G1 X122.95 Y80.52 F9000
G1 X119.73 Y77.3 E1706.037 F3600
G1 X116.51 Y74.08 E1707.073
G1 X113.28 Y70.86 E1708.108
G1 X110.06 Y67.64 E1709.144
G1 X106.84 Y64.42 E1710.179
G1 X103.62 Y61.2 E1711.215
G1 X106.68 Y60.72 F9000
G1 X109.75 Y63.79 E1712.2 F3600
G1 X112.82 Y66.85 E1713.186
G1 X115.88 Y69.92 E1714.172
G1 X118.95 Y72.98 E1715.158
G1 X122.01 Y76.05 E1716.143
G1 X125.08 Y79.12 E1717.129
G1 X128.14 Y82.18 E1718.115
G1 X135.87 Y86.38 F9000
G1 X132.63 Y83.13 E1719.159 F3600
G1 X129.38 Y79.88 E1720.203
G1 X126.13 Y76.63 E1721.247
G1 X122.88 Y73.39 E1722.291
G1 X119.64 Y70.14 E1723.335
G1 X116.39 Y66.89 E1724.379
G1 X113.14 Y63.64 E1725.424
G1 X109.9 Y60.4 E1726.468
G1 X113.29 Y60.26 F9000
G1 X116.7 Y63.66 E1727.563 F3600
G1 X120.1 Y67.07 E1728.659
G1 X123.51 Y70.48 E1729.754
G1 X126.92 Y73.89 E1730.85
G1 X130.33 Y77.29 E1731.946
G1 X133.73 Y80.7 E1733.041
G1 X137.14 Y84.11 E1734.137
G1 X140.55 Y87.51 E1735.233
G1 X143.96 Y90.92 E1736.328
G1 X147.36 Y94.33 E1737.424
G1 X150.77 Y97.74 E1738.519
G1 X154.18 Y101.14 E1739.615
G1 X157.58 Y104.55 E1740.711
G1 X160.99 Y107.96 E1741.806
G1 X164.4 Y111.37 E1742.902
G1 X167.81 Y114.77 E1743.997
G1 X171.21 Y118.18 E1745.093
G1 X171.22 Y121.72 F9000
G1 X167.95 Y118.46 E1746.143 F3600
G1 X164.69 Y115.19 E1747.193
G1 X161.42 Y111.93 E1748.242
G1 X158.16 Y108.66 E1749.292
G1 X154.89 Y105.4 E1750.342
G1 X151.63 Y102.13 E1751.392
G1 X148.36 Y98.87 E1752.442
G1 X145.1 Y95.6 E1753.491
G1 X149.29 Y103.33 F9000
G1 X152.42 Y106.46 E1754.499 F3600
G1 X155.56 Y109.59 E1755.506
G1 X158.69 Y112.73 E1756.513
G1 X161.82 Y115.86 E1757.521
G1 X164.96 Y118.99 E1758.528
G1 X168.09 Y122.13 E1759.535
G1 X171.22 Y125.26 E1760.543
G1 X171.06 Y128.64 F9000
G1 X167.71 Y125.28 E1761.62 F3600
G1 X164.36 Y121.93 E1762.698
G1 X161.01 Y118.58 E1763.776
G1 X157.66 Y115.23 E1764.853
G1 X154.3 Y111.88 E1765.931
G1 X150.95 Y108.53 E1767.009
G1 X151.74 Y112.85 F9000
G1 X154.78 Y115.89 E1767.986 F3600
G1 X157.82 Y118.93 E1768.964
G1 X160.86 Y121.97 E1769.942
G1 X163.9 Y125.01 E1770.919
G1 X166.94 Y128.05 E1771.897
G1 X169.98 Y131.09 E1772.874
G1 X168.18 Y132.82 F9000
G1 X164.95 Y129.59 E1773.914 F3600
G1 X161.71 Y126.36 E1774.954
G1 X158.48 Y123.12 E1775.994
G1 X155.24 Y119.89 E1777.034
G1 X152.01 Y116.66 E1778.073
G1 X152.02 Y120.2 F9000
G1 X155.43 Y123.61 E1779.168 F3600
G1 X158.83 Y127.01 E1780.263
G1 X162.24 Y130.42 E1781.358
G1 X165.64 Y133.82 E1782.452
G1 X162.13 Y133.85 F9000
G1 X158.76 Y130.48 E1783.535 F3600
G1 X155.39 Y127.11 E1784.619
G1 X152.02 Y123.74 E1785.702
G1 X152.02 Y127.27 F9000
G1 X155.31 Y130.56 E1786.759 F3600
G1 X158.6 Y133.85 E1787.815
G1 E1784.815 F1800
G1 Z1.875
G1 X162.78 Y127.43 F9000
G1 X166.96 Y121
G1 X171.15 Y114.58
G1 Z1.375
G1 E1787.815 F1800
G1 X167.76 Y111.19 E1788.906 F3600
G1 X164.37 Y107.8 E1789.996
G1 X160.98 Y104.41 E1791.086
G1 X157.59 Y101.02 E1792.177
G1 X154.19 Y97.63 E1793.267
G1 X150.8 Y94.23 E1794.357
G1 X147.41 Y90.84 E1795.448
G1 X144.02 Y87.45 E1796.538
G1 X140.63 Y84.06 E1797.629
G1 X137.24 Y80.67 E1798.719
G1 X133.85 Y77.28 E1799.809
G1 X130.46 Y73.89 E1800.9
G1 X127.07 Y70.5 E1801.99
G1 X123.68 Y67.11 E1803.08
G1 X120.28 Y63.71 E1804.171
G1 X116.89 Y60.32 E1805.261
G1 X120.76 Y60.65 F9000
G1 X124.09 Y63.99 E1806.334 F3600
G1 X127.43 Y67.33 E1807.407
G1 X130.77 Y70.66 E1808.481
G1 X134.11 Y74 E1809.554
G1 X137.44 Y77.34 E1810.627
G1 X140.78 Y80.68 E1811.7
G1 X144.12 Y84.02 E1812.773
G1 X147.46 Y87.35 E1813.847
G1 X150.79 Y90.69 E1814.92
G1 X154.13 Y94.03 E1815.993
G1 X157.47 Y97.37 E1817.066
G1 X160.81 Y100.7 E1818.14
G1 X164.15 Y104.04 E1819.213
G1 X167.48 Y107.38 E1820.286
G1 X170.82 Y110.72 E1821.359
G1 X170.16 Y106.52 F9000
G1 X166.69 Y103.05 E1822.478 F3600
G1 X163.21 Y99.57 E1823.596
G1 X159.73 Y96.09 E1824.714
G1 X156.25 Y92.61 E1825.833
G1 X152.77 Y89.13 E1826.951
G1 X149.3 Y85.66 E1828.069
G1 X145.82 Y82.18 E1829.188
G1 X142.34 Y78.7 E1830.306
G1 X138.86 Y75.22 E1831.424
G1 X135.38 Y71.74 E1832.543
G1 X131.91 Y68.27 E1833.661
G1 X128.43 Y64.79 E1834.779
G1 X124.95 Y61.31 E1835.898
G1 X129.59 Y62.41 F9000
G1 X132.88 Y65.7 E1836.955 F3600
G1 X136.17 Y68.99 E1838.013
G1 X139.46 Y72.28 E1839.07
G1 X142.75 Y75.57 E1840.128
G1 X146.03 Y78.86 E1841.186
G1 X149.32 Y82.15 E1842.243
G1 X152.61 Y85.44 E1843.301
G1 X155.9 Y88.73 E1844.358
G1 X159.19 Y92.02 E1845.416
G1 X162.48 Y95.31 E1846.474
G1 X165.77 Y98.59 E1847.531
G1 X169.06 Y101.88 E1848.589
G1 X167.26 Y96.55 F9000
G1 X164.02 Y93.31 E1849.628 F3600
G1 X160.79 Y90.08 E1850.668
G1 X157.56 Y86.85 E1851.707
G1 X154.32 Y83.61 E1852.747
G1 X151.09 Y80.38 E1853.786
G1 X147.86 Y77.15 E1854.826
G1 X144.63 Y73.92 E1855.866
G1 X141.39 Y70.68 E1856.905
G1 X138.16 Y67.45 E1857.945
G1 X134.93 Y64.22 E1858.984
G1 X141.58 Y67.34 F9000
G1 X144.8 Y70.56 E1860.02 F3600
G1 X148.03 Y73.78 E1861.056
G1 X151.25 Y77 E1862.092
G1 X154.47 Y80.22 E1863.128
G1 X157.69 Y83.45 E1864.164
G1 X160.91 Y86.67 E1865.2
G1 X164.14 Y89.89 E1866.236
; RAFT SURFACE
; Layer Change GCode
; LAYER:-1
; LAYER_HEIGHT:0.625
G1 X164 Y89.65 Z2 F9000
; TYPE:SUPPORT
G1 Y94.56 E1867.512 F3600
G1 Y99.47 E1868.788
G1 Y104.38 E1870.064
G1 Y109.29 E1871.34
G1 Y114.2 E1872.616
G1 Y119.11 E1873.892
G1 Y124.02 E1875.168
G1 Y128.93 E1876.444
G1 Y133.84 E1877.72
G1 X163 Y133.84 F9000
G1 Y129.25 E1878.914 F3600
G1 Y124.66 E1880.107
G1 Y120.07 E1881.3
G1 Y115.47 E1882.494
G1 Y110.88 E1883.687
G1 Y106.29 E1884.88
G1 Y101.7 E1886.074
G1 Y97.1 E1887.267
G1 Y92.51 E1888.46
G1 Y87.92 E1889.654
G1 X162 Y86.32 F9000
G1 Y91.07 E1890.889 F3600
G1 Y95.83 E1892.124
G1 Y100.58 E1893.358
G1 Y105.33 E1894.593
G1 Y110.08 E1895.828
G1 Y114.84 E1897.063
G1 Y119.59 E1898.298
G1 Y124.34 E1899.533
G1 Y129.09 E1900.767
G1 Y133.84 E1902.002
G1 X161 Y133.85 F9000
G1 Y128.94 E1903.276 F3600
G1 Y124.04 E1904.549
G1 Y119.14 E1905.823
G1 Y114.24 E1907.096
G1 Y109.34 E1908.37
G1 Y104.44 E1909.643
G1 Y99.54 E1910.917
G1 Y94.64 E1912.19
G1 Y89.74 E1913.464
G1 Y84.83 E1914.737
G1 X160 Y83.43 F9000
G1 Y88.02 E1915.928 F3600
G1 Y92.6 E1917.119
G1 Y97.18 E1918.31
G1 Y101.77 E1919.501
G1 Y106.35 E1920.692
G1 Y110.93 E1921.883
G1 Y115.51 E1923.073
G1 Y120.1 E1924.264
G1 Y124.68 E1925.455
G1 Y129.26 E1926.646
G1 Y133.85 E1927.837
G1 X159 Y133.85 F9000
G1 Y129.15 E1929.058 F3600
G1 Y124.44 E1930.28
G1 Y119.74 E1931.502
G1 Y115.04 E1932.724
G1 Y110.34 E1933.946
G1 Y105.64 E1935.167
G1 Y100.93 E1936.389
G1 Y96.23 E1937.611
G1 Y91.53 E1938.833
G1 Y86.83 E1940.054
G1 Y82.13 E1941.276
G1 X158 Y80.89 F9000
G1 Y85.7 E1942.527 F3600
G1 Y90.51 E1943.777
G1 Y95.33 E1945.028
G1 Y100.14 E1946.278
G1 Y104.95 E1947.529
G1 Y109.76 E1948.779
G1 Y114.58 E1950.03
G1 Y119.39 E1951.28
G1 Y124.2 E1952.531
G1 Y129.01 E1953.781
G1 Y133.83 E1955.032
G1 X157 Y133.69 F9000
G1 Y128.78 E1956.306 F3600
G1 Y123.87 E1957.581
G1 Y118.97 E1958.856
G1 Y114.06 E1960.131
G1 Y109.16 E1961.406
G1 Y104.25 E1962.68
G1 Y99.34 E1963.955
G1 Y94.44 E1965.23
G1 Y89.53 E1966.505
G1 Y84.62 E1967.78
G1 Y79.72 E1969.054
G1 X156 Y78.61 F9000
G1 Y83.59 E1970.348 F3600
G1 Y88.56 E1971.641
G1 Y93.54 E1972.935
G1 Y98.52 E1974.228
G1 Y103.5 E1975.522
G1 Y108.47 E1976.815
G1 Y113.45 E1978.109
G1 Y118.43 E1979.402
G1 Y123.41 E1980.695
G1 Y128.39 E1981.989
G1 Y133.36 E1983.282
G1 X155 Y132.79 F9000
G1 Y128.19 E1984.478 F3600
G1 Y123.58 E1985.675
G1 Y118.98 E1986.871
G1 Y114.38 E1988.067
G1 Y109.77 E1989.263
G1 Y105.17 E1990.459
G1 Y100.57 E1991.655
G1 Y95.97 E1992.851
G1 Y91.36 E1994.047
G1 Y86.76 E1995.243
G1 Y82.16 E1996.439
G1 Y77.55 E1997.635
G1 X154 Y76.55 F9000
G1 Y81.17 E1998.835 F3600
G1 Y85.78 E2000.035
G1 Y90.4 E2001.235
G1 Y95.02 E2002.435
G1 Y99.64 E2003.635
G1 Y104.26 E2004.835
G1 Y108.87 E2006.035
G1 Y113.49 E2007.235
G1 Y118.11 E2008.434
G1 Y122.73 E2009.634
G1 Y127.35 E2010.834
G1 Y131.96 E2012.034
G1 X153 Y130.69 F9000
G1 Y126.1 E2013.227 F3600
G1 Y121.51 E2014.42
G1 Y116.92 E2015.613
G1 Y112.32 E2016.806
G1 Y107.73 E2017.999
G1 Y103.14 E2019.192
G1 Y98.55 E2020.385
G1 Y93.96 E2021.578
G1 Y89.37 E2022.771
G1 Y84.78 E2023.964
G1 Y80.19 E2025.157
G1 Y75.6 E2026.35
G1 X152 Y74.69 F9000
G1 Y79.3 E2027.55 F3600
G1 Y83.92 E2028.75
G1 Y88.54 E2029.949
G1 Y93.16 E2031.149
G1 Y97.77 E2032.349
G1 Y102.39 E2033.549
G1 Y107.01 E2034.749
G1 Y111.63 E2035.948
G1 Y116.24 E2037.148
G1 X151 Y108.72 F9000
G1 Y103.74 E2038.444 F3600
G1 Y98.75 E2039.739
G1 Y93.76 E2041.035
G1 Y88.78 E2042.33
G1 Y83.79 E2043.626
G1 Y78.81 E2044.922
G1 Y73.82 E2046.217
G1 X150 Y72.99 F9000
G1 Y77.6 E2047.414 F3600
G1 Y82.21 E2048.611
G1 Y86.81 E2049.809
G1 Y91.42 E2051.006
G1 Y96.03 E2052.203
G1 Y100.64 E2053.4
G1 Y105.24 E2054.597
G1 X149 Y102.62 F9000
G1 Y98.28 E2055.727 F3600
G1 Y93.93 E2056.856
G1 Y89.58 E2057.985
G1 Y85.24 E2059.114
G1 Y80.89 E2060.243
G1 Y76.55 E2061.373
G1 Y72.2 E2062.502
G1 X148 Y71.45 F9000
G1 Y76.28 E2063.758 F3600
G1 Y81.12 E2065.015
G1 Y85.95 E2066.271
G1 Y90.79 E2067.527
G1 Y95.62 E2068.784
G1 Y100.46 E2070.04
G1 X147 Y98.59 F9000
G1 Y93.94 E2071.247 F3600
G1 Y89.3 E2072.454
G1 Y84.66 E2073.66
G1 Y80.01 E2074.867
G1 Y75.37 E2076.074
G1 Y70.72 E2077.281
G1 X146 Y70.03 F9000
G1 Y74.52 E2078.446 F3600
G1 Y79 E2079.612
G1 Y83.49 E2080.777
G1 Y87.97 E2081.943
G1 Y92.46 E2083.108
G1 Y96.94 E2084.273
G1 X145 Y95.46 F9000
G1 Y91.11 E2085.403 F3600
G1 Y86.76 E2086.533
G1 Y82.42 E2087.663
G1 Y78.07 E2088.792
G1 Y73.72 E2089.922
G1 Y69.37 E2091.052
G1 X144 Y68.75 F9000
G1 Y72.97 E2092.15 F3600
G1 Y77.2 E2093.249
G1 Y81.43 E2094.348
G1 Y85.66 E2095.447
G1 Y89.89 E2096.545
G1 Y94.12 E2097.644
G1 X143 Y92.88 F9000
G1 Y87.93 E2098.93 F3600
G1 Y82.99 E2100.215
G1 Y78.04 E2101.501
G1 Y73.09 E2102.786
G1 Y68.14 E2104.072
G1 X142 Y67.57 F9000
G1 Y72.41 E2105.328 F3600
G1 Y77.24 E2106.585
G1 Y82.08 E2107.842
G1 Y86.91 E2109.098
G1 Y91.75 E2110.355
G1 X141 Y90.7 F9000
G1 Y85.97 E2111.586 F3600
G1 Y81.23 E2112.816
G1 Y76.49 E2114.047
G1 Y71.76 E2115.278
G1 Y67.02 E2116.508
G1 X140 Y66.5 F9000
G1 Y71.15 E2117.716 F3600
G1 Y75.79 E2118.923
G1 Y80.44 E2120.13
G1 Y85.08 E2121.338
G1 Y89.73 E2122.545
G1 X139 Y88.83 F9000
G1 Y84.26 E2123.731 F3600
G1 Y79.7 E2124.917
G1 Y75.13 E2126.104
G1 Y70.57 E2127.29
G1 Y66 E2128.476
G1 X138 Y65.53 F9000
G1 Y70.02 E2129.643 F3600
G1 Y74.51 E2130.81
G1 Y79 E2131.978
G1 Y83.49 E2133.145
G1 Y87.98 E2134.312
G1 X137 Y87.2 F9000
G1 Y82.77 E2135.461 F3600
G1 Y78.35 E2136.611
G1 Y73.92 E2137.761
G1 Y69.5 E2138.91
G1 Y65.08 E2140.06
G1 X136 Y64.65 F9000
G1 Y69.01 E2141.193 F3600
G1 Y73.38 E2142.327
G1 Y77.74 E2143.461
G1 Y82.1 E2144.595
G1 Y86.46 E2145.728
G1 X135 Y85.78 F9000
G1 Y81.47 E2146.847 F3600
G1 Y77.16 E2147.966
G1 Y72.86 E2149.086
G1 Y68.55 E2150.205
G1 Y64.24 E2151.324
G1 X134 Y63.86 F9000
G1 Y68.12 E2152.429 F3600
G1 Y72.37 E2153.535
G1 Y76.63 E2154.641
G1 Y80.88 E2155.747
G1 Y85.14 E2156.852
G1 X133 Y84.54 F9000
G1 Y80.33 E2157.946 F3600
G1 Y76.12 E2159.04
G1 Y71.91 E2160.133
G1 Y67.7 E2161.227
G1 Y63.5 E2162.32
G1 X132 Y63.15 F9000
G1 Y67.32 E2163.403 F3600
G1 Y71.49 E2164.485
G1 Y75.65 E2165.568
G1 Y79.82 E2166.65
G1 Y83.98 E2167.733
G1 X131 Y83.46 F9000
G1 Y79.34 E2168.805 F3600
G1 Y75.21 E2169.877
G1 Y71.09 E2170.949
G1 Y66.96 E2172.021
G1 Y62.83 E2173.094
G1 X130 Y62.53 F9000
G1 Y66.62 E2174.156 F3600
G1 Y70.71 E2175.219
G1 Y74.8 E2176.282
G1 Y78.89 E2177.344
G1 Y82.98 E2178.407
G1 X129 Y82.54 F9000
G1 Y78.48 E2179.461 F3600
G1 Y74.42 E2180.515
G1 Y70.37 E2181.57
G1 Y66.31 E2182.624
G1 Y62.25 E2183.678
G1 X128 Y61.99 F9000
G1 Y66.02 E2184.724 F3600
G1 Y70.04 E2185.771
G1 Y74.07 E2186.817
G1 Y78.1 E2187.864
G1 Y82.13 E2188.91
G1 X127 Y81.74 F9000
G1 Y76.74 E2190.209 F3600
G1 Y71.75 E2191.508
G1 Y66.75 E2192.807
G1 Y61.75 E2194.106
G1 X126 Y61.52 F9000
G1 Y66.49 E2195.397 F3600
G1 Y71.46 E2196.688
G1 Y76.43 E2197.979
G1 Y81.4 E2199.27
G1 X125 Y81.08 F9000
G1 Y76.14 E2200.554 F3600
G1 Y71.2 E2201.837
G1 Y66.26 E2203.121
G1 Y61.32 E2204.404
G1 X124 Y61.13 F9000
G1 Y66.05 E2205.681 F3600
G1 Y70.96 E2206.958
G1 Y75.87 E2208.235
G1 Y80.79 E2209.512
G1 X123 Y80.53 F9000
G1 Y75.64 E2210.784 F3600
G1 Y70.75 E2212.055
G1 Y65.85 E2213.326
G1 Y60.96 E2214.598
G1 X122 Y60.81 F9000
G1 Y65.68 E2215.864 F3600
G1 Y70.56 E2217.13
G1 Y75.43 E2218.396
G1 Y80.3 E2219.662
G1 X121 Y80.1 F9000
G1 Y75.25 E2220.924 F3600
G1 Y70.39 E2222.186
G1 Y65.54 E2223.447
G1 Y60.68 E2224.709
G1 X120 Y60.57 F9000
G1 Y65.41 E2225.967 F3600
G1 Y70.25 E2227.224
G1 Y75.09 E2228.482
G1 Y79.93 E2229.74
G1 X119 Y79.78 F9000
G1 Y74.95 E2230.994 F3600
G1 Y70.13 E2232.249
G1 Y65.3 E2233.504
G1 Y60.47 E2234.758
G1 X118 Y60.39 F9000
G1 Y65.21 E2236.01 F3600
G1 Y70.03 E2237.263
G1 Y74.84 E2238.515
G1 Y79.66 E2239.767
G1 X117 Y79.57 F9000
G1 Y74.76 E2241.016 F3600
G1 Y69.95 E2242.266
G1 Y65.14 E2243.516
G1 Y60.33 E2244.766
G1 X116 Y60.29 F9000
G1 Y65.09 E2246.015 F3600
G1 Y69.9 E2247.263
G1 Y74.7 E2248.512
G1 Y79.51 E2249.76
G1 X115 Y79.46 F9000
G1 Y74.66 E2251.008 F3600
G1 Y69.86 E2252.255
G1 Y65.06 E2253.503
G1 Y60.26 E2254.75
G1 X114 Y60.25 F9000
G1 Y65.05 E2255.998 F3600
G1 Y69.85 E2257.245
G1 Y74.65 E2258.492
G1 Y79.45 E2259.74
G1 X113 Y79.46 F9000
G1 Y74.66 E2260.987 F3600
G1 Y69.86 E2262.235
G1 Y65.06 E2263.483
G1 Y60.26 E2264.73
G1 X112 Y60.29 F9000
G1 Y65.09 E2265.979 F3600
G1 Y69.9 E2267.227
G1 Y74.7 E2268.475
G1 Y79.5 E2269.724
G1 X111 Y79.57 F9000
G1 Y74.76 E2270.974 F3600
G1 Y69.95 E2272.224
G1 Y65.14 E2273.474
G1 Y60.33 E2274.724
G1 X110 Y60.39 F9000
G1 Y65.21 E2275.976 F3600
G1 Y70.03 E2277.228
G1 Y74.84 E2278.48
G1 Y79.66 E2279.732
G1 X109 Y79.78 F9000
G1 Y74.95 E2280.987 F3600
G1 Y70.13 E2282.241
G1 Y65.3 E2283.496
G1 Y60.47 E2284.751
G1 X108 Y60.57 F9000
G1 Y65.41 E2286.008 F3600
G1 Y70.25 E2287.266
G1 Y75.09 E2288.524
G1 Y79.93 E2289.782
G1 X107 Y80.1 F9000
G1 Y75.25 E2291.043 F3600
G1 Y70.39 E2292.305
G1 Y65.54 E2293.567
G1 Y60.68 E2294.828
G1 X106 Y60.81 F9000
G1 Y65.68 E2296.094 F3600
G1 Y70.56 E2297.36
G1 Y75.43 E2298.627
G1 Y80.3 E2299.893
G1 X105 Y80.53 F9000
G1 Y75.64 E2301.164 F3600
G1 Y70.75 E2302.435
G1 Y65.85 E2303.707
G1 Y60.96 E2304.978
G1 X104 Y61.13 F9000
G1 Y66.05 E2306.255 F3600
G1 Y70.96 E2307.532
G1 Y75.87 E2308.809
G1 Y80.79 E2310.086
G1 X103 Y81.08 F9000
G1 Y76.14 E2311.369 F3600
G1 Y71.2 E2312.653
G1 Y66.26 E2313.936
G1 Y61.32 E2315.22
G1 X102 Y61.52 F9000
G1 Y66.49 E2316.511 F3600
G1 Y71.46 E2317.801
G1 Y76.43 E2319.092
G1 Y81.4 E2320.383
G1 X101 Y81.74 F9000
G1 Y76.74 E2321.682 F3600
G1 Y71.74 E2322.981
G1 Y66.74 E2324.281
G1 Y61.75 E2325.58
G1 X100 Y61.99 F9000
G1 Y66.02 E2326.626 F3600
G1 Y70.04 E2327.672
G1 Y74.07 E2328.719
G1 Y78.1 E2329.765
G1 Y82.12 E2330.812
G1 X99 Y82.53 F9000
G1 Y78.48 E2331.866 F3600
G1 Y74.42 E2332.92
G1 Y70.36 E2333.974
G1 Y66.31 E2335.028
G1 Y62.25 E2336.082
G1 X98 Y62.53 F9000
G1 Y66.62 E2337.145 F3600
G1 Y70.71 E2338.207
G1 Y74.8 E2339.27
G1 Y78.89 E2340.333
G1 Y82.98 E2341.395
G1 X97 Y83.46 F9000
G1 Y79.34 E2342.467 F3600
G1 Y75.21 E2343.539
G1 Y71.09 E2344.612
G1 Y66.96 E2345.684
G1 Y62.83 E2346.756
G1 X96 Y63.15 F9000
G1 Y67.32 E2347.838 F3600
G1 Y71.48 E2348.921
G1 Y75.65 E2350.003
G1 Y79.82 E2351.086
G1 Y83.98 E2352.168
G1 X95 Y84.54 F9000
G1 Y80.33 E2353.262 F3600
G1 Y76.12 E2354.355
G1 Y71.91 E2355.449
G1 Y67.7 E2356.543
G1 Y63.5 E2357.636
G1 X94 Y63.86 F9000
G1 Y68.11 E2358.742 F3600
G1 Y72.37 E2359.848
G1 Y76.62 E2360.953
G1 Y80.88 E2362.059
G1 Y85.14 E2363.165
G1 X93 Y85.78 F9000
G1 Y81.47 E2364.284 F3600
G1 Y77.16 E2365.403
G1 Y72.86 E2366.522
G1 Y68.55 E2367.641
G1 Y64.24 E2368.76
G1 X92 Y64.65 F9000
G1 Y69.01 E2369.894 F3600
G1 Y73.37 E2371.027
G1 Y77.74 E2372.161
G1 Y82.1 E2373.295
G1 Y86.46 E2374.428
G1 X91 Y87.2 F9000
G1 Y82.77 E2375.578 F3600
G1 Y78.35 E2376.727
G1 Y73.92 E2377.877
G1 Y69.5 E2379.027
G1 Y65.08 E2380.176
G1 X90 Y65.52 F9000
G1 Y70.02 E2381.343 F3600
G1 Y74.51 E2382.51
G1 Y79 E2383.677
G1 Y83.49 E2384.844
G1 Y87.98 E2386.011
G1 X89 Y88.82 F9000
G1 Y84.26 E2387.198 F3600
G1 Y79.69 E2388.384
G1 Y75.13 E2389.57
G1 Y70.56 E2390.756
G1 Y66 E2391.942
G1 X88 Y66.5 F9000
G1 Y71.14 E2393.15 F3600
G1 Y75.79 E2394.357
G1 Y80.44 E2395.564
G1 Y85.08 E2396.771
G1 Y89.73 E2397.979
G1 X87 Y90.7 F9000
G1 Y85.97 E2399.209 F3600
G1 Y81.23 E2400.44
G1 Y76.49 E2401.671
G1 Y71.76 E2402.901
G1 Y67.02 E2404.132
G1 X86 Y67.57 F9000
G1 Y72.4 E2405.389 F3600
G1 Y77.24 E2406.645
G1 Y82.08 E2407.902
G1 Y86.91 E2409.158
G1 Y91.75 E2410.415
G1 X85 Y92.88 F9000
G1 Y87.93 E2411.7 F3600
G1 Y82.98 E2412.986
G1 Y78.04 E2414.271
G1 Y73.09 E2415.557
G1 Y68.14 E2416.842
G1 X84 Y68.74 F9000
G1 Y72.97 E2417.941 F3600
G1 Y77.2 E2419.04
G1 Y81.43 E2420.138
G1 Y85.66 E2421.237
G1 Y89.88 E2422.336
G1 Y94.11 E2423.434
G1 X83 Y95.46 F9000
G1 Y91.11 E2424.564 F3600
G1 Y86.76 E2425.694
G1 Y82.42 E2426.823
G1 Y78.07 E2427.953
G1 Y73.72 E2429.083
G1 Y69.37 E2430.213
G1 X82 Y70.03 F9000
G1 Y74.52 E2431.378 F3600
G1 Y79 E2432.543
G1 Y83.49 E2433.709
G1 Y87.97 E2434.874
G1 Y92.45 E2436.039
G1 Y96.94 E2437.205
G1 X81 Y98.58 F9000
G1 Y93.94 E2438.411 F3600
G1 Y89.3 E2439.618
G1 Y84.65 E2440.825
G1 Y80.01 E2442.031
G1 Y75.36 E2443.238
G1 Y70.72 E2444.445
G1 X80 Y71.44 F9000
G1 Y76.28 E2445.701 F3600
G1 Y81.11 E2446.957
G1 Y85.95 E2448.213
G1 Y90.78 E2449.47
G1 Y95.62 E2450.726
G1 Y100.45 E2451.982
G1 X79 Y102.62 F9000
G1 Y98.27 E2453.111 F3600
G1 Y93.93 E2454.24
G1 Y89.58 E2455.369
G1 Y85.23 E2456.499
G1 Y80.89 E2457.628
G1 Y76.54 E2458.757
G1 Y72.2 E2459.886
G1 X78 Y72.99 F9000
G1 Y77.6 E2461.083 F3600
G1 Y82.2 E2462.28
G1 Y86.81 E2463.477
G1 Y91.42 E2464.674
G1 Y96.02 E2465.871
G1 Y100.63 E2467.068
G1 Y105.24 E2468.265
G1 X77 Y108.71 F9000
G1 Y103.73 E2469.56 F3600
G1 Y98.74 E2470.855
G1 Y93.76 E2472.151
G1 Y88.77 E2473.446
G1 Y83.79 E2474.741
G1 Y78.8 E2476.037
G1 Y73.82 E2477.332
G1 X76 Y74.69 F9000
G1 Y79.58 E2478.604 F3600
G1 Y84.48 E2479.877
G1 Y89.37 E2481.149
G1 Y94.27 E2482.421
G1 Y99.17 E2483.694
G1 Y104.06 E2484.966
G1 Y108.96 E2486.238
G1 Y113.86 E2487.51
G1 Y118.75 E2488.783
G1 Y123.65 E2490.055
G1 Y128.55 E2491.327
G1 Y133.44 E2492.599
G1 Y138.34 E2493.872
G1 Y143.23 E2495.144
G1 Y148.13 E2496.416
G1 Y153.03 E2497.689
G1 Y157.92 E2498.961
G1 Y162.82 E2500.233
G1 Y167.72 E2501.505
G1 Y172.61 E2502.778
G1 Y177.51 E2504.05
G1 Y182.41 E2505.322
G1 Y187.3 E2506.595
G1 Y192.2 E2507.867
G1 Y197.09 E2509.139
G1 X75 Y197.4 F9000
G1 Y192.53 E2510.405 F3600
G1 Y187.66 E2511.671
G1 Y182.79 E2512.937
G1 Y177.91 E2514.203
G1 Y173.04 E2515.47
G1 Y168.17 E2516.736
G1 Y163.3 E2518.002
G1 Y158.42 E2519.268
G1 Y153.55 E2520.534
G1 Y148.68 E2521.8
G1 Y143.81 E2523.066
G1 Y138.94 E2524.332
G1 Y134.06 E2525.598
G1 Y129.19 E2526.864
G1 Y124.32 E2528.13
G1 Y119.45 E2529.396
G1 Y114.57 E2530.662
G1 Y109.7 E2531.928
G1 Y104.83 E2533.194
G1 Y99.96 E2534.461
G1 Y95.08 E2535.727
G1 Y90.21 E2536.993
G1 Y85.34 E2538.259
G1 Y80.47 E2539.525
G1 Y75.59 E2540.791
G1 X74 Y76.55 F9000
G1 Y81.38 E2542.048 F3600
G1 Y86.22 E2543.305
G1 Y91.06 E2544.562
G1 Y95.9 E2545.819
G1 Y100.74 E2547.076
G1 Y105.57 E2548.333
G1 Y110.41 E2549.59
G1 Y115.25 E2550.847
G1 Y120.09 E2552.104
G1 Y124.92 E2553.361
G1 Y129.76 E2554.618
G1 Y134.6 E2555.875
G1 Y139.44 E2557.132
G1 Y144.27 E2558.389
G1 Y149.11 E2559.646
G1 Y153.95 E2560.903
G1 Y158.79 E2562.16
G1 Y163.62 E2563.418
G1 Y168.46 E2564.675
G1 Y173.3 E2565.932
G1 Y178.14 E2567.189
G1 Y182.98 E2568.446
G1 Y187.81 E2569.703
G1 Y192.65 E2570.96
G1 Y197.49 E2572.217
G1 X73 Y197.49 F9000
G1 Y192.49 E2573.515 F3600
G1 Y187.49 E2574.814
G1 Y182.5 E2576.112
G1 Y177.5 E2577.411
G1 Y172.5 E2578.71
G1 Y167.5 E2580.008
G1 Y162.51 E2581.307
G1 Y157.51 E2582.605
G1 Y152.51 E2583.904
G1 Y147.51 E2585.202
G1 Y142.52 E2586.501
G1 Y137.52 E2587.799
G1 Y132.52 E2589.098
G1 Y127.52 E2590.397
G1 Y122.53 E2591.695
G1 Y117.53 E2592.994
G1 Y112.53 E2594.292
G1 Y107.53 E2595.591
G1 Y102.54 E2596.889
G1 Y97.54 E2598.188
G1 Y92.54 E2599.486
G1 Y87.54 E2600.785
G1 Y82.55 E2602.083
G1 Y77.55 E2603.382
G1 X72 Y78.61 F9000
G1 Y83.56 E2604.669 F3600
G1 Y88.51 E2605.956
G1 Y93.47 E2607.243
G1 Y98.42 E2608.531
G1 Y103.37 E2609.818
G1 Y108.33 E2611.105
G1 Y113.28 E2612.392
G1 Y118.23 E2613.679
G1 Y123.19 E2614.966
G1 Y128.14 E2616.253
G1 Y133.09 E2617.54
G1 Y138.05 E2618.827
G1 Y143 E2620.115
G1 Y147.95 E2621.402
G1 Y152.91 E2622.689
G1 Y157.86 E2623.976
G1 Y162.81 E2625.263
G1 Y167.77 E2626.55
G1 Y172.72 E2627.837
G1 Y177.67 E2629.124
G1 Y182.63 E2630.412
G1 Y187.58 E2631.699
G1 Y192.53 E2632.986
G1 Y197.49 E2634.273
G1 X71 Y197.49 F9000
G1 Y192.58 E2635.548 F3600
G1 Y187.67 E2636.823
G1 Y182.77 E2638.098
G1 Y177.86 E2639.373
G1 Y172.95 E2640.648
G1 Y168.05 E2641.923
G1 Y163.14 E2643.199
G1 Y158.23 E2644.474
G1 Y153.32 E2645.749
G1 Y148.42 E2647.024
G1 Y143.51 E2648.299
G1 Y138.6 E2649.574
G1 Y133.7 E2650.849
G1 Y128.79 E2652.124
G1 Y123.88 E2653.399
G1 Y118.97 E2654.674
G1 Y114.07 E2655.949
G1 Y109.16 E2657.225
G1 Y104.25 E2658.5
G1 Y99.35 E2659.775
G1 Y94.44 E2661.05
G1 Y89.53 E2662.325
G1 Y84.62 E2663.6
G1 Y79.72 E2664.875
G1 X70 Y80.89 F9000
G1 Y85.75 E2666.137 F3600
G1 Y90.6 E2667.4
G1 Y95.46 E2668.662
G1 Y100.32 E2669.925
G1 Y105.18 E2671.187
G1 Y110.04 E2672.45
G1 Y114.9 E2673.712
G1 Y119.75 E2674.974
G1 Y124.61 E2676.237
G1 Y129.47 E2677.499
G1 Y134.33 E2678.762
G1 Y139.19 E2680.024
G1 Y144.05 E2681.286
G1 Y148.9 E2682.549
G1 Y153.76 E2683.811
G1 Y158.62 E2685.074
G1 Y163.48 E2686.336
G1 Y168.34 E2687.599
G1 Y173.2 E2688.861
G1 Y178.05 E2690.123
G1 Y182.91 E2691.386
G1 Y187.77 E2692.648
G1 Y192.63 E2693.911
G1 Y197.49 E2695.173
G1 X69 Y197.49 F9000
G1 Y192.68 E2696.422 F3600
G1 Y187.87 E2697.671
G1 Y183.07 E2698.92
G1 Y178.26 E2700.169
G1 Y173.45 E2701.418
G1 Y168.65 E2702.667
G1 Y163.84 E2703.916
G1 Y159.03 E2705.165
G1 Y154.23 E2706.414
G1 Y149.42 E2707.663
G1 Y144.61 E2708.912
G1 Y139.81 E2710.161
G1 Y135 E2711.41
G1 Y130.19 E2712.659
G1 Y125.39 E2713.908
G1 Y120.58 E2715.157
G1 Y115.77 E2716.407
G1 Y110.97 E2717.656
G1 Y106.16 E2718.905
G1 Y101.35 E2720.154
G1 Y96.54 E2721.403
G1 Y91.74 E2722.652
G1 Y86.93 E2723.901
G1 Y82.12 E2725.15
G1 X68 Y83.43 F9000
G1 Y88.39 E2726.438 F3600
G1 Y93.35 E2727.727
G1 Y98.31 E2729.015
G1 Y103.27 E2730.304
G1 Y108.23 E2731.593
G1 Y113.19 E2732.881
G1 Y118.14 E2734.17
G1 Y123.1 E2735.458
G1 Y128.06 E2736.747
G1 Y133.02 E2738.035
G1 Y137.98 E2739.324
G1 Y142.94 E2740.613
G1 Y147.9 E2741.901
G1 Y152.86 E2743.19
G1 Y157.82 E2744.478
G1 Y162.78 E2745.767
G1 Y167.73 E2747.055
G1 Y172.69 E2748.344
G1 Y177.65 E2749.633
G1 Y182.61 E2750.921
G1 Y187.57 E2752.21
G1 Y192.53 E2753.498
G1 Y197.49 E2754.787
G1 X67 Y197.49 F9000
G1 Y192.59 E2756.06 F3600
G1 Y187.69 E2757.332
G1 Y182.79 E2758.605
G1 Y177.9 E2759.878
G1 Y173 E2761.151
G1 Y168.1 E2762.423
G1 Y163.2 E2763.696
G1 Y158.3 E2764.969
G1 Y153.4 E2766.242
G1 Y148.51 E2767.514
G1 Y143.61 E2768.787
G1 Y138.71 E2770.06
G1 Y133.81 E2771.333
G1 Y128.91 E2772.605
G1 Y124.02 E2773.878
G1 Y119.12 E2775.151
G1 Y114.22 E2776.424
G1 Y109.32 E2777.696
G1 Y104.42 E2778.969
G1 Y99.53 E2780.242
G1 Y94.63 E2781.515
G1 Y89.73 E2782.787
G1 Y84.83 E2784.06
G1 X66 Y86.32 F9000
G1 Y91.15 E2785.316 F3600
G1 Y95.99 E2786.572
G1 Y100.82 E2787.828
G1 Y105.65 E2789.084
G1 Y110.49 E2790.34
G1 Y115.32 E2791.596
G1 Y120.15 E2792.852
G1 Y124.99 E2794.108
G1 Y129.82 E2795.364
G1 Y134.65 E2796.62
G1 Y139.49 E2797.876
G1 Y144.32 E2799.131
G1 Y149.15 E2800.387
G1 Y153.99 E2801.643
G1 Y158.82 E2802.899
G1 Y163.65 E2804.155
G1 Y168.49 E2805.411
G1 Y173.32 E2806.667
G1 Y178.15 E2807.923
G1 Y182.99 E2809.179
G1 Y187.82 E2810.435
G1 Y192.65 E2811.691
G1 Y197.49 E2812.947
G1 X65 Y197.49 F9000
G1 Y192.51 E2814.241 F3600
G1 Y187.53 E2815.535
G1 Y182.55 E2816.829
G1 Y177.57 E2818.124
G1 Y172.59 E2819.418
G1 Y167.6 E2820.712
G1 Y162.62 E2822.006
G1 Y157.64 E2823.3
G1 Y152.66 E2824.594
G1 Y147.68 E2825.889
G1 Y142.7 E2827.183
G1 Y137.72 E2828.477
G1 Y132.74 E2829.771
G1 Y127.76 E2831.065
G1 Y122.78 E2832.36
G1 Y117.8 E2833.654
G1 Y112.82 E2834.948
G1 Y107.84 E2836.242
G1 Y102.86 E2837.536
G1 Y97.88 E2838.83
G1 Y92.9 E2840.125
G1 Y87.91 E2841.419
G1 X64 Y89.64 F9000
G1 Y94.54 E2842.693 F3600
G1 Y99.45 E2843.966
G1 Y104.35 E2845.24
G1 Y109.25 E2846.514
G1 Y114.15 E2847.788
G1 Y119.05 E2849.062
G1 Y123.96 E2850.335
G1 Y128.86 E2851.609
G1 Y133.76 E2852.883
G1 Y138.66 E2854.157
G1 Y143.57 E2855.43
G1 Y148.47 E2856.704
G1 Y153.37 E2857.978
G1 Y158.27 E2859.252
G1 Y163.17 E2860.526
G1 Y168.08 E2861.799
G1 Y172.98 E2863.073
G1 Y177.88 E2864.347
G1 Y182.78 E2865.621
G1 Y187.68 E2866.894
G1 Y192.59 E2868.168
G1 Y197.49 E2869.442
G1 X63 Y197.49 F9000
G1 Y192.67 E2870.694 F3600
G1 Y187.85 E2871.945
G1 Y183.04 E2873.197
G1 Y178.22 E2874.448
G1 Y173.4 E2875.7
G1 Y168.59 E2876.952
G1 Y163.77 E2878.203
G1 Y158.95 E2879.455
G1 Y154.14 E2880.706
G1 Y149.32 E2881.958
G1 Y144.5 E2883.21
G1 Y139.69 E2884.461
G1 Y134.87 E2885.713
G1 Y130.05 E2886.964
G1 Y125.24 E2888.216
G1 Y120.42 E2889.468
G1 Y115.6 E2890.719
G1 Y110.79 E2891.971
G1 Y105.97 E2893.222
G1 Y101.15 E2894.474
G1 Y96.34 E2895.726
G1 Y91.52 E2896.977
G1 X62 Y93.58 F9000
G1 Y98.53 E2898.263 F3600
G1 Y103.48 E2899.549
G1 Y108.43 E2900.834
G1 Y113.37 E2902.12
G1 Y118.32 E2903.406
G1 Y123.27 E2904.691
G1 Y128.22 E2905.977
G1 Y133.17 E2907.263
G1 Y138.11 E2908.548
G1 Y143.06 E2909.834
G1 Y148.01 E2911.12
G1 Y152.96 E2912.405
G1 Y157.91 E2913.691
G1 Y162.85 E2914.977
G1 Y167.8 E2916.262
G1 Y172.75 E2917.548
G1 Y177.7 E2918.834
G1 Y182.64 E2920.119
G1 Y187.59 E2921.405
G1 Y192.54 E2922.691
G1 Y197.49 E2923.976
G1 X61 Y197.49 F9000
G1 Y192.65 E2925.234 F3600
G1 Y187.81 E2926.491
G1 Y182.97 E2927.748
G1 Y178.14 E2929.005
G1 Y173.3 E2930.262
G1 Y168.46 E2931.52
G1 Y163.62 E2932.777
G1 Y158.78 E2934.034
G1 Y153.94 E2935.291
G1 Y149.11 E2936.548
G1 Y144.27 E2937.805
G1 Y139.43 E2939.063
G1 Y134.59 E2940.32
G1 Y129.75 E2941.577
G1 Y124.92 E2942.834
G1 Y120.08 E2944.091
G1 Y115.24 E2945.349
G1 Y110.4 E2946.606
G1 Y105.56 E2947.863
G1 Y100.72 E2949.12
G1 Y95.89 E2950.377
G1 X60 Y98.53 F9000
G1 Y103.48 E2951.663 F3600
G1 Y108.43 E2952.949
G1 Y113.38 E2954.234
G1 Y118.32 E2955.52
G1 Y123.27 E2956.806
G1 Y128.22 E2958.091
G1 Y133.17 E2959.377
G1 Y138.11 E2960.663
G1 Y143.06 E2961.948
G1 Y148.01 E2963.234
G1 Y152.96 E2964.519
G1 Y157.91 E2965.805
G1 Y162.85 E2967.091
G1 Y167.8 E2968.376
G1 Y172.75 E2969.662
G1 Y177.7 E2970.948
G1 Y182.64 E2972.233
G1 Y187.59 E2973.519
G1 Y192.54 E2974.805
G1 Y197.49 E2976.09
G1 X59 Y197.49 F9000
G1 Y192.7 E2977.335 F3600
G1 Y187.91 E2978.58
G1 Y183.12 E2979.825
G1 Y178.33 E2981.07
G1 Y173.53 E2982.315
G1 Y168.74 E2983.56
G1 Y163.95 E2984.804
G1 Y159.16 E2986.049
G1 Y154.37 E2987.294
G1 Y149.58 E2988.539
G1 Y144.79 E2989.784
G1 Y140 E2991.029
G1 Y135.21 E2992.273
G1 Y130.42 E2993.518
G1 Y125.63 E2994.763
G1 Y120.84 E2996.008
G1 Y116.05 E2997.253
G1 Y111.25 E2998.498
G1 Y106.46 E2999.743
G1 Y101.67 E3000.987
G1 X58 Y105.69 F9000
G1 Y110.52 E3002.243 F3600
G1 Y115.35 E3003.498
G1 Y120.18 E3004.753
G1 Y125.02 E3006.009
G1 Y129.85 E3007.264
G1 Y134.68 E3008.519
G1 Y139.51 E3009.775
G1 Y144.34 E3011.03
G1 Y149.17 E3012.285
G1 Y154 E3013.541
G1 Y158.83 E3014.796
G1 Y163.66 E3016.052
G1 Y168.5 E3017.307
G1 Y173.33 E3018.562
G1 Y178.16 E3019.818
G1 Y182.99 E3021.073
G1 Y187.82 E3022.328
G1 Y192.65 E3023.584
G1 Y197.48 E3024.839
G1 X57 Y197.17 F9000
G1 Y192.18 E3026.135 F3600
G1 Y187.2 E3027.431
G1 Y182.21 E3028.727
G1 Y177.22 E3030.023
G1 Y172.23 E3031.319
G1 Y167.25 E3032.615
G1 Y162.26 E3033.911
G1 Y157.27 E3035.207
G1 Y152.28 E3036.503
G1 Y147.29 E3037.799
G1 Y142.31 E3039.096
G1 Y137.32 E3040.392
G1 Y132.33 E3041.688
G1 Y127.34 E3042.984
G1 Y122.35 E3044.28
G1 Y117.37 E3045.576
G1 Y112.38 E3046.872
G1 X56 Y112.42 F9000
G1 Y117.38 E3048.162 F3600
G1 Y122.34 E3049.452
G1 Y127.31 E3050.742
G1 Y132.27 E3052.032
G1 Y137.24 E3053.322
G1 Y142.2 E3054.612
G1 Y147.17 E3055.902
G1 Y152.13 E3057.192
G1 Y157.1 E3058.482
G1 Y162.06 E3059.772
G1 Y167.03 E3061.062
G1 Y171.99 E3062.353
G1 Y176.96 E3063.643
G1 Y181.92 E3064.933
G1 Y186.89 E3066.223
G1 Y191.85 E3067.513
G1 Y196.82 E3068.803
G1 X55 Y196.03 F9000
G1 Y191.11 E3070.081 F3600
G1 Y186.2 E3071.359
G1 Y181.28 E3072.637
G1 Y176.36 E3073.915
G1 Y171.44 E3075.193
G1 Y166.52 E3076.471
G1 Y161.6 E3077.749
G1 Y156.68 E3079.028
G1 Y151.76 E3080.306
G1 Y146.85 E3081.584
G1 Y141.93 E3082.862
G1 Y137.01 E3084.14
G1 Y132.09 E3085.418
G1 Y127.17 E3086.696
G1 Y122.25 E3087.974
G1 Y117.33 E3089.252
G1 Y112.42 E3090.53
G1 X54 Y112.42 F9000
G1 Y117.27 E3091.791 F3600
G1 Y122.12 E3093.052
G1 Y126.97 E3094.312
G1 Y131.82 E3095.573
G1 Y136.67 E3096.833
G1 Y141.52 E3098.094
G1 Y146.37 E3099.354
G1 Y151.22 E3100.615
G1 Y156.08 E3101.875
G1 Y160.93 E3103.136
G1 Y165.78 E3104.397
G1 Y170.63 E3105.657
G1 Y175.48 E3106.918
G1 Y180.33 E3108.178
G1 Y185.18 E3109.439
G1 Y190.03 E3110.699
G1 Y194.89 E3111.96
G1 E3108.96 F1800
G1 Z2.5
G1 X61.67 Y195.47 F9000
G1 X69.33 Y196.05
G1 X77 Y196.63
G1 Z2
G1 E3111.96 F1800
G1 Y191.68 E3113.247 F3600
G1 Y186.73 E3114.535
G1 Y181.77 E3115.822
G1 Y176.82 E3117.109
G1 Y171.86 E3118.396
G1 Y166.91 E3119.684
G1 Y161.96 E3120.971
G1 Y157 E3122.258
G1 Y152.05 E3123.546
G1 Y147.09 E3124.833
G1 Y142.14 E3126.12
G1 Y137.18 E3127.408
G1 Y132.23 E3128.695
G1 Y127.28 E3129.982
G1 Y122.32 E3131.269
G1 Y117.37 E3132.557
G1 Y112.41 E3133.844
G1 X78 Y112.41 F9000
G1 Y117.32 E3135.119 F3600
G1 Y122.23 E3136.394
G1 Y127.13 E3137.668
G1 Y132.04 E3138.943
G1 Y136.94 E3140.218
G1 Y141.85 E3141.493
G1 Y146.76 E3142.767
G1 Y151.66 E3144.042
G1 Y156.57 E3145.317
G1 Y161.47 E3146.592
G1 Y166.38 E3147.866
G1 Y171.28 E3149.141
G1 Y176.19 E3150.416
G1 Y181.1 E3151.691
G1 Y186 E3152.966
G1 Y190.91 E3154.24
G1 Y195.81 E3155.515
G1 X79 Y194.43 F9000
G1 Y189.6 E3156.769 F3600
G1 Y184.78 E3158.022
G1 Y179.95 E3159.276
G1 Y175.13 E3160.529
G1 Y170.31 E3161.783
G1 Y165.48 E3163.037
G1 Y160.66 E3164.29
G1 Y155.83 E3165.544
G1 Y151.01 E3166.797
G1 Y146.18 E3168.051
G1 Y141.36 E3169.304
G1 Y136.54 E3170.558
G1 Y131.71 E3171.812
G1 Y126.89 E3173.065
G1 Y122.06 E3174.319
G1 Y117.24 E3175.572
G1 Y112.41 E3176.826
G1 E3173.826 F1800
G1 Z2.5
G1 X86.82 Y110.51 F9000
G1 X94.64 Y108.62
G1 X102.45 Y106.72
G1 X110.27 Y104.82
G1 X118.09 Y102.92
G1 X125.91 Y101.02
G1 X133.73 Y99.12
G1 X141.55 Y97.22
G1 X149.36 Y95.32
G1 X157.18 Y93.42
G1 X165 Y91.52
G1 Z2
G1 E3176.826 F1800
G1 Y96.23 E3178.048 F3600
G1 Y100.93 E3179.27
G1 Y105.63 E3180.491
G1 Y110.33 E3181.713
G1 Y115.03 E3182.935
G1 Y119.74 E3184.157
G1 Y124.44 E3185.379
G1 Y129.14 E3186.6
G1 Y133.84 E3187.822
G1 X166 Y133.73 F9000
G1 Y129.27 E3188.981 F3600
G1 Y124.81 E3190.14
G1 Y120.35 E3191.299
G1 Y115.89 E3192.458
G1 Y111.43 E3193.617
G1 Y106.97 E3194.776
G1 Y102.51 E3195.935
G1 Y98.05 E3197.094
G1 Y93.59 E3198.253
G1 X167 Y95.89 F9000
G1 Y100.58 E3199.472 F3600
G1 Y105.28 E3200.692
G1 Y109.97 E3201.911
G1 Y114.66 E3203.13
G1 Y119.35 E3204.35
G1 Y124.05 E3205.569
G1 Y128.74 E3206.788
G1 Y133.43 E3208.008
G1 X168 Y132.94 F9000
G1 Y128.03 E3209.285 F3600
G1 Y123.11 E3210.562
G1 Y118.2 E3211.839
G1 Y113.28 E3213.116
G1 Y108.37 E3214.394
G1 Y103.45 E3215.671
G1 Y98.54 E3216.948
G1 X169 Y101.68 F9000
G1 Y106.04 E3218.081 F3600
G1 Y110.4 E3219.214
G1 Y114.76 E3220.347
G1 Y119.12 E3221.48
G1 Y123.48 E3222.613
G1 Y127.84 E3223.746
G1 Y132.2 E3224.879
G1 X170 Y131.07 F9000
G1 Y126.84 E3225.978 F3600
G1 Y122.61 E3227.076
G1 Y118.38 E3228.175
G1 Y114.16 E3229.273
G1 Y109.93 E3230.372
G1 Y105.7 E3231.47
G1 X171 Y112.41 F9000
G1 Y116.54 E3232.542 F3600
G1 Y120.67 E3233.614
G1 Y124.79 E3234.686
G1 Y128.92 E3235.759
; RAFT SURFACE
; Layer Change GCode
; LAYER:-1
; LAYER_HEIGHT:0.625
; TYPE:SUPPORT
G1 X168.56 Y131.31 Z2.313 E3236.651
G1 X166.11 Y133.7 Z2.625 E3237.543
G1 X164.56 Y133.84 F9000
G1 X167.89 Y130.51 E3238.768 F3600
G1 X171.22 Y127.18 E3239.993
G1 X171.22 Y125.76 F9000
G1 X168.53 Y128.46 E3240.983 F3600
G1 X165.83 Y131.15 E3241.973
G1 X163.14 Y133.84 E3242.963
G1 X161.72 Y133.85 F9000
G1 X164.89 Y130.68 E3244.127 F3600
G1 X168.05 Y127.51 E3245.29
G1 X171.22 Y124.35 E3246.453
G1 X171.22 Y122.94 F9000
G1 X168.49 Y125.66 E3247.455 F3600
G1 X165.76 Y128.39 E3248.458
G1 X163.04 Y131.12 E3249.46
G1 X160.31 Y133.85 E3250.462
G1 X158.89 Y133.85 F9000
G1 X161.98 Y130.77 E3251.594 F3600
G1 X165.06 Y127.69 E3252.727
G1 X168.14 Y124.6 E3253.859
G1 X171.22 Y121.52 E3254.991
G1 X171.22 Y120.11 F9000
G1 X167.79 Y123.53 E3256.249 F3600
G1 X164.37 Y126.96 E3257.506
G1 X160.95 Y130.38 E3258.764
G1 X157.53 Y133.8 E3260.022
G1 X156.42 Y133.5 F9000
G1 X159.38 Y130.54 E3261.109 F3600
G1 X162.34 Y127.58 E3262.197
G1 X165.3 Y124.62 E3263.285
G1 X168.26 Y121.66 E3264.373
G1 X171.22 Y118.7 E3265.46
G1 X171.21 Y117.29 F9000
G1 X168.06 Y120.44 E3266.619 F3600
G1 X164.9 Y123.59 E3267.779
G1 X161.75 Y126.75 E3268.938
G1 X158.6 Y129.9 E3270.097
G1 X155.44 Y133.06 E3271.256
G1 X154.58 Y132.5 F9000
G1 X157.9 Y129.18 E3272.477 F3600
G1 X161.23 Y125.86 E3273.698
G1 X164.55 Y122.53 E3274.919
G1 X167.87 Y119.21 E3276.14
G1 X171.2 Y115.89 E3277.362
G1 X171.15 Y114.53 F9000
G1 X167.69 Y117.98 E3278.633 F3600
G1 X164.23 Y121.44 E3279.904
G1 X160.77 Y124.9 E3281.176
G1 X157.31 Y128.36 E3282.447
G1 X153.85 Y131.82 E3283.718
G1 X153.23 Y131.03 F9000
G1 X156.2 Y128.06 E3284.81 F3600
G1 X159.17 Y125.08 E3285.903
G1 X162.14 Y122.11 E3286.995
G1 X165.12 Y119.14 E3288.087
G1 X168.09 Y116.17 E3289.179
G1 X171.06 Y113.2 E3290.272
G1 X170.95 Y111.89 F9000
G1 X167.91 Y114.93 E3291.389 F3600
G1 X164.87 Y117.97 E3292.506
G1 X161.83 Y121.01 E3293.624
G1 X158.79 Y124.05 E3294.741
G1 X155.75 Y127.09 E3295.858
G1 X152.71 Y130.14 E3296.975
G1 X152.31 Y129.12 F9000
G1 X155.39 Y126.03 E3298.108 F3600
G1 X158.48 Y122.95 E3299.241
G1 X161.56 Y119.87 E3300.374
G1 X164.64 Y116.78 E3301.507
G1 X167.73 Y113.7 E3302.64
G1 X170.81 Y110.62 E3303.773
G1 X170.64 Y109.37 F9000
G1 X167.55 Y112.46 E3304.91 F3600
G1 X164.45 Y115.56 E3306.047
G1 X161.36 Y118.65 E3307.185
G1 X158.26 Y121.75 E3308.322
G1 X155.17 Y124.84 E3309.459
G1 X152.07 Y127.94 E3310.597
G1 X152.02 Y126.58 F9000
G1 X155.1 Y123.5 E3311.726 F3600
G1 X158.17 Y120.43 E3312.855
G1 X161.24 Y117.36 E3313.984
G1 X164.31 Y114.29 E3315.112
G1 X167.38 Y111.22 E3316.241
G1 X170.46 Y108.14 E3317.37
G1 X170.25 Y106.94 F9000
G1 X167.21 Y109.98 E3318.486 F3600
G1 X164.17 Y113.01 E3319.602
G1 X161.13 Y116.05 E3320.718
G1 X158.1 Y119.09 E3321.834
G1 X155.06 Y122.13 E3322.95
G1 X152.02 Y125.16 E3324.067
G1 X152.02 Y123.75 F9000
G1 X155.02 Y120.75 E3325.168 F3600
G1 X158.02 Y117.75 E3326.27
G1 X161.02 Y114.75 E3327.372
G1 X164.02 Y111.76 E3328.473
G1 X167.01 Y108.76 E3329.575
G1 X170.01 Y105.76 E3330.677
G1 X169.76 Y104.6 F9000
G1 X166.8 Y107.56 E3331.763 F3600
G1 X163.85 Y110.51 E3332.849
G1 X160.89 Y113.47 E3333.935
G1 X157.93 Y116.42 E3335.021
G1 X154.98 Y119.38 E3336.107
G1 X152.02 Y122.33 E3337.193
G1 X152.02 Y120.92 F9000
G1 X155.51 Y117.43 E3338.477 F3600
G1 X159.01 Y113.94 E3339.76
G1 X162.5 Y110.45 E3341.043
G1 X165.99 Y106.95 E3342.326
G1 X169.48 Y103.46 E3343.609
G1 X169.19 Y102.34 F9000
G1 X165.75 Y105.78 E3344.87 F3600
G1 X162.32 Y109.21 E3346.131
G1 X158.89 Y112.64 E3347.393
G1 X155.46 Y116.07 E3348.654
G1 X152.02 Y119.51 E3349.915
G1 X152.02 Y118.1 F9000
G1 X155.39 Y114.73 E3351.154 F3600
G1 X158.76 Y111.35 E3352.393
G1 X162.13 Y107.98 E3353.631
G1 X165.5 Y104.61 E3354.87
G1 X168.87 Y101.24 E3356.108
G1 X168.54 Y100.16 F9000
G1 X165.23 Y103.47 E3357.323 F3600
G1 X161.93 Y106.77 E3358.538
G1 X158.62 Y110.08 E3359.753
G1 X155.32 Y113.38 E3360.967
G1 X152.01 Y116.69 E3362.182
G1 X151.96 Y115.33 F9000
G1 X155.21 Y112.08 E3363.375 F3600
G1 X158.45 Y108.83 E3364.568
G1 X161.7 Y105.59 E3365.761
G1 X164.94 Y102.34 E3366.953
G1 X168.19 Y99.1 E3368.146
G1 X167.82 Y98.05 F9000
G1 X164.63 Y101.24 E3369.319 F3600
G1 X161.44 Y104.43 E3370.492
G1 X158.25 Y107.62 E3371.665
G1 X155.06 Y110.82 E3372.838
G1 X151.86 Y114.01 E3374.011
G1 X151.73 Y112.73 F9000
G1 X154.87 Y109.59 E3375.167 F3600
G1 X158.01 Y106.45 E3376.322
G1 X161.15 Y103.3 E3377.477
G1 X164.3 Y100.16 E3378.632
G1 X167.44 Y97.02 E3379.787
G1 X167.04 Y96 F9000
G1 X163.94 Y99.1 E3380.925 F3600
G1 X160.84 Y102.2 E3382.064
G1 X157.75 Y105.3 E3383.203
G1 X154.65 Y108.4 E3384.342
G1 X151.55 Y111.5 E3385.481
G1 X151.34 Y110.29 F9000
G1 X154.39 Y107.23 E3386.604 F3600
G1 X157.45 Y104.18 E3387.728
G1 X160.51 Y101.12 E3388.851
G1 X163.57 Y98.06 E3389.975
G1 X166.63 Y95 E3391.099
G1 X166.19 Y94.02 F9000
G1 X163.17 Y97.04 E3392.208 F3600
G1 X160.15 Y100.06 E3393.318
G1 X157.13 Y103.08 E3394.428
G1 X154.11 Y106.1 E3395.538
G1 X151.09 Y109.12 E3396.648
G1 X150.82 Y107.98 F9000
G1 X153.8 Y105 E3397.745 F3600
G1 X156.79 Y102.01 E3398.842
G1 X159.78 Y99.03 E3399.939
G1 X162.76 Y96.04 E3401.037
G1 X165.75 Y93.05 E3402.134
G1 X165.29 Y92.1 F9000
G1 X162.33 Y95.05 E3403.22 F3600
G1 X159.38 Y98.01 E3404.306
G1 X156.42 Y100.96 E3405.392
G1 X153.47 Y103.92 E3406.478
G1 X150.51 Y106.87 E3407.564
G1 X150.18 Y105.79 F9000
G1 X153.11 Y102.86 E3408.639 F3600
G1 X156.04 Y99.94 E3409.714
G1 X158.96 Y97.01 E3410.79
G1 X161.89 Y94.08 E3411.865
G1 X164.81 Y91.16 E3412.94
G1 X164.32 Y90.24 F9000
G1 X161.42 Y93.13 E3414.006 F3600
G1 X158.52 Y96.03 E3415.071
G1 X155.62 Y98.93 E3416.137
G1 X152.72 Y101.83 E3417.202
G1 X149.82 Y104.73 E3418.268
G1 X149.44 Y103.7 F9000
G1 X152.31 Y100.83 E3419.325 F3600
G1 X155.19 Y97.95 E3420.382
G1 X158.07 Y95.08 E3421.438
G1 X160.94 Y92.2 E3422.495
G1 X163.82 Y89.33 E3423.552
G1 X163.3 Y88.43 F9000
G1 X160.45 Y91.28 E3424.601 F3600
G1 X157.59 Y94.14 E3425.65
G1 X154.74 Y96.99 E3426.698
G1 X151.89 Y99.84 E3427.747
G1 X149.03 Y102.7 E3428.796
G1 X148.6 Y101.72 F9000
G1 X151.43 Y98.88 E3429.837 F3600
G1 X154.27 Y96.05 E3430.879
G1 X157.1 Y93.21 E3431.921
G1 X159.94 Y90.38 E3432.962
G1 X162.77 Y87.54 E3434.004
G1 X162.23 Y86.67 F9000
G1 X158.71 Y90.19 E3435.297 F3600
G1 X155.19 Y93.71 E3436.591
G1 X151.67 Y97.23 E3437.885
G1 X148.15 Y100.75 E3439.178
G1 X147.67 Y99.81 F9000
G1 X151.17 Y96.32 E3440.464 F3600
G1 X154.67 Y92.82 E3441.75
G1 X158.17 Y89.32 E3443.036
G1 X161.67 Y85.82 E3444.322
G1 X161.1 Y84.98 F9000
G1 X157.62 Y88.46 E3445.6 F3600
G1 X154.14 Y91.94 E3446.879
G1 X150.66 Y95.42 E3448.158
G1 X147.18 Y98.9 E3449.437
G1 X146.66 Y98 F9000
G1 X150.12 Y94.54 E3450.71 F3600
G1 X153.58 Y91.07 E3451.983
G1 X157.05 Y87.61 E3453.257
G1 X160.51 Y84.15 E3454.53
G1 X159.92 Y83.33 F9000
G1 X156.47 Y86.78 E3455.798 F3600
G1 X153.02 Y90.23 E3457.066
G1 X149.57 Y93.68 E3458.334
G1 X146.12 Y97.13 E3459.602
G1 X145.56 Y96.27 F9000
G1 X148.99 Y92.83 E3460.865 F3600
G1 X152.43 Y89.4 E3462.128
G1 X155.87 Y85.96 E3463.392
G1 X159.31 Y82.52 E3464.655
G1 X158.68 Y81.73 F9000
G1 X155.26 Y85.16 E3465.914 F3600
G1 X151.83 Y88.58 E3467.173
G1 X148.41 Y92.01 E3468.432
G1 X144.98 Y95.44 E3469.691
G1 X144.38 Y94.62 F9000
G1 X147.8 Y91.2 E3470.946 F3600
G1 X151.22 Y87.78 E3472.202
G1 X154.63 Y84.37 E3473.457
G1 X158.05 Y80.95 E3474.713
G1 X157.4 Y80.18 F9000
G1 X153.99 Y83.59 E3475.966 F3600
G1 X150.59 Y87 E3477.219
G1 X147.18 Y90.41 E3478.471
G1 X143.77 Y93.82 E3479.724
G1 X143.13 Y93.04 F9000
G1 X146.54 Y89.64 E3480.975 F3600
G1 X149.94 Y86.23 E3482.225
G1 X153.34 Y82.83 E3483.476
G1 X156.75 Y79.43 E3484.727
G1 X156.07 Y78.69 F9000
G1 X152.67 Y82.09 E3485.975 F3600
G1 X149.28 Y85.48 E3487.224
G1 X145.88 Y88.88 E3488.473
G1 X142.48 Y92.28 E3489.721
G1 X141.81 Y91.54 F9000
G1 X145.2 Y88.14 E3490.969 F3600
G1 X148.6 Y84.75 E3492.217
G1 X151.99 Y81.35 E3493.464
G1 X155.39 Y77.96 E3494.712
G1 X154.69 Y77.24 F9000
G1 X151.3 Y80.63 E3495.959 F3600
G1 X147.9 Y84.03 E3497.207
G1 X144.51 Y87.42 E3498.454
G1 X141.11 Y90.82 E3499.702
G1 X140.4 Y90.12 F9000
G1 X143.8 Y86.72 E3500.949 F3600
G1 X147.19 Y83.32 E3502.197
G1 X150.59 Y79.93 E3503.445
G1 X153.98 Y76.53 E3504.692
G1 X153.26 Y75.84 F9000
G1 X149.86 Y79.24 E3505.94 F3600
G1 X146.47 Y82.64 E3507.189
G1 X143.07 Y86.03 E3508.437
G1 X139.67 Y89.43 E3509.685
G1 X138.93 Y88.76 F9000
G1 X142.32 Y85.36 E3510.934 F3600
G1 X145.72 Y81.96 E3512.184
G1 X149.12 Y78.56 E3513.433
G1 X152.52 Y75.16 E3514.682
G1 X151.78 Y74.5 F9000
G1 X148.37 Y77.9 E3515.933 F3600
G1 X144.97 Y81.31 E3517.185
G1 X141.56 Y84.71 E3518.436
G1 X138.16 Y88.12 E3519.687
G1 X137.37 Y87.49 F9000
G1 X140.79 Y84.07 E3520.941 F3600
G1 X144.2 Y80.66 E3522.195
G1 X147.61 Y77.25 E3523.449
G1 X151.02 Y73.84 E3524.703
G1 X150.25 Y73.2 F9000
G1 X146.83 Y76.62 E3525.959 F3600
G1 X143.41 Y80.04 E3527.216
G1 X139.99 Y83.46 E3528.473
G1 X136.57 Y86.88 E3529.729
G1 X135.75 Y86.29 F9000
G1 X139.18 Y82.86 E3530.99 F3600
G1 X142.6 Y79.43 E3532.25
G1 X146.03 Y76 E3533.51
G1 X149.46 Y72.57 E3534.77
G1 X148.67 Y71.95 F9000
G1 X145.23 Y75.39 E3536.035 F3600
G1 X141.79 Y78.83 E3537.299
G1 X138.34 Y82.27 E3538.564
G1 X134.9 Y85.71 E3539.828
G1 X134.04 Y85.16 F9000
G1 X137.5 Y81.71 E3541.098 F3600
G1 X140.95 Y78.25 E3542.367
G1 X144.4 Y74.8 E3543.636
G1 X147.86 Y71.34 E3544.906
G1 X147.04 Y70.75 F9000
G1 X143.57 Y74.22 E3546.181 F3600
G1 X140.1 Y77.69 E3547.456
G1 X136.63 Y81.16 E3548.731
G1 X133.16 Y84.63 E3550.006
G1 X132.25 Y84.12 F9000
G1 X135.74 Y80.63 E3551.287 F3600
G1 X139.23 Y77.15 E3552.569
G1 X142.71 Y73.66 E3553.85
G1 X146.2 Y70.17 E3555.132
G1 X145.35 Y69.61 F9000
G1 X141.85 Y73.11 E3556.42 F3600
G1 X138.34 Y76.62 E3557.709
G1 X134.83 Y80.13 E3558.997
G1 X131.33 Y83.63 E3560.286
G1 X130.38 Y83.16 F9000
G1 X133.91 Y79.64 E3561.582 F3600
G1 X137.44 Y76.11 E3562.878
G1 X140.97 Y72.58 E3564.175
G1 X144.49 Y69.05 E3565.471
G1 X143.62 Y68.51 F9000
G1 X140.78 Y71.35 E3566.515 F3600
G1 X137.94 Y74.19 E3567.559
G1 X135.1 Y77.04 E3568.603
G1 X132.25 Y79.88 E3569.648
G1 X129.41 Y82.72 E3570.692
G1 X128.42 Y82.29 F9000
G1 X131.29 Y79.43 E3571.743 F3600
G1 X134.15 Y76.57 E3572.795
G1 X137.01 Y73.71 E3573.846
G1 X139.87 Y70.85 E3574.898
G1 X142.73 Y67.99 E3575.949
G1 X141.83 Y67.47 F9000
G1 X138.94 Y70.36 E3577.009 F3600
G1 X136.06 Y73.24 E3578.069
G1 X133.18 Y76.13 E3579.128
G1 X130.29 Y79.01 E3580.188
G1 X127.41 Y81.89 E3581.248
G1 X126.37 Y81.52 F9000
G1 X129.28 Y78.61 E3582.317 F3600
G1 X132.19 Y75.7 E3583.386
G1 X135.09 Y72.79 E3584.455
G1 X138 Y69.88 E3585.524
G1 X140.91 Y66.98 E3586.592
G1 X139.98 Y66.49 F9000
G1 X137.05 Y69.43 E3587.671 F3600
G1 X134.11 Y72.36 E3588.75
G1 X131.17 Y75.3 E3589.829
G1 X128.24 Y78.24 E3590.908
G1 X125.3 Y81.17 E3591.987
G1 X124.21 Y80.85 F9000
G1 X127.18 Y77.88 E3593.077 F3600
G1 X130.14 Y74.92 E3594.167
G1 X133.11 Y71.95 E3595.257
G1 X136.07 Y68.99 E3596.346
G1 X139.04 Y66.02 E3597.436
G1 X138.08 Y65.57 F9000
G1 X135.08 Y68.56 E3598.538 F3600
G1 X132.09 Y71.56 E3599.639
G1 X129.09 Y74.56 E3600.741
G1 X126.09 Y77.56 E3601.843
G1 X123.09 Y80.55 E3602.944
G1 X121.94 Y80.29 F9000
G1 X124.97 Y77.26 E3604.059 F3600
G1 X128.01 Y74.22 E3605.174
G1 X131.04 Y71.19 E3606.288
G1 X134.07 Y68.16 E3607.403
G1 X137.11 Y65.13 E3608.517
G1 X136.12 Y64.7 F9000
G1 X133.05 Y67.77 E3609.646 F3600
G1 X129.97 Y70.84 E3610.775
G1 X126.9 Y73.92 E3611.904
G1 X123.83 Y76.99 E3613.033
G1 X120.76 Y80.06 E3614.162
G1 X119.55 Y79.86 F9000
G1 X122.66 Y76.74 E3615.306 F3600
G1 X125.77 Y73.63 E3616.45
G1 X128.89 Y70.52 E3617.594
G1 X132 Y67.4 E3618.738
G1 X135.11 Y64.29 E3619.882
G1 X134.09 Y63.9 F9000
G1 X130.93 Y67.06 E3621.043 F3600
G1 X127.77 Y70.22 E3622.204
G1 X124.61 Y73.38 E3623.366
G1 X121.45 Y76.54 E3624.527
G1 X118.29 Y79.7 E3625.688
G1 X117 Y79.57 F9000
G1 X120.22 Y76.36 E3626.868 F3600
G1 X123.43 Y73.15 E3628.048
G1 X126.64 Y69.94 E3629.228
G1 X129.85 Y66.73 E3630.408
G1 X133.06 Y63.52 E3631.588
G1 X132 Y63.16 F9000
G1 X128.74 Y66.42 E3632.788 F3600
G1 X125.47 Y69.69 E3633.989
G1 X122.2 Y72.96 E3635.189
G1 X118.94 Y76.22 E3636.389
G1 X115.67 Y79.49 E3637.59
G1 X114.29 Y79.45 F9000
G1 X117.62 Y76.13 E3638.813 F3600
G1 X120.95 Y72.8 E3640.036
G1 X124.28 Y69.47 E3641.259
G1 X127.61 Y66.14 E3642.482
G1 X130.93 Y62.81 E3643.705
G1 X129.84 Y62.49 F9000
G1 X126.45 Y65.89 E3644.953 F3600
G1 X123.05 Y69.28 E3646.201
G1 X119.65 Y72.68 E3647.449
G1 X116.26 Y76.07 E3648.697
G1 X112.86 Y79.47 E3649.945
G1 X111.38 Y79.54 F9000
G1 X114.85 Y76.07 E3651.221 F3600
G1 X118.32 Y72.6 E3652.497
G1 X121.79 Y69.13 E3653.773
G1 X125.26 Y65.65 E3655.048
G1 X128.74 Y62.18 E3656.324
G1 X127.61 Y61.9 F9000
G1 X124.64 Y64.86 E3657.414 F3600
G1 X121.68 Y67.82 E3658.503
G1 X118.72 Y70.79 E3659.593
G1 X115.75 Y73.75 E3660.682
G1 X112.79 Y76.72 E3661.772
G1 X109.82 Y79.68 E3662.861
G1 X108.19 Y79.9 F9000
G1 X111.24 Y76.85 E3663.98 F3600
G1 X114.28 Y73.81 E3665.099
G1 X117.33 Y70.76 E3666.218
G1 X120.37 Y67.72 E3667.337
G1 X123.42 Y64.67 E3668.456
G1 X126.46 Y61.63 E3669.575
G1 X125.3 Y61.38 F9000
G1 X122.16 Y64.51 E3670.728 F3600
G1 X119.02 Y67.65 E3671.882
G1 X115.88 Y70.79 E3673.035
G1 X112.75 Y73.93 E3674.188
G1 X109.61 Y77.07 E3675.341
G1 X106.47 Y80.2 E3676.494
G1 X104.64 Y80.62 F9000
G1 X107.88 Y77.38 E3677.686 F3600
G1 X111.13 Y74.13 E3678.879
G1 X114.37 Y70.89 E3680.071
G1 X117.62 Y67.64 E3681.264
G1 X120.86 Y64.4 E3682.456
G1 X124.11 Y61.15 E3683.649
G1 X122.9 Y60.95 F9000
G1 X119.53 Y64.32 E3684.888 F3600
G1 X116.16 Y67.69 E3686.127
G1 X112.78 Y71.06 E3687.367
G1 X109.41 Y74.44 E3688.606
G1 X106.04 Y77.81 E3689.845
G1 X102.67 Y81.18 E3691.084
G1 X100.51 Y81.92 F9000
G1 X104.03 Y78.4 E3692.38 F3600
G1 X107.56 Y74.87 E3693.676
G1 X111.09 Y71.35 E3694.972
G1 X114.61 Y67.82 E3696.268
G1 X118.14 Y64.29 E3697.564
G1 X121.67 Y60.77 E3698.86
G1 X120.41 Y60.61 F9000
G1 X117.22 Y63.8 E3700.032 F3600
G1 X114.03 Y66.99 E3701.205
G1 X110.83 Y70.18 E3702.378
G1 X107.64 Y73.38 E3703.551
G1 X104.45 Y76.57 E3704.724
G1 X101.26 Y79.76 E3705.897
G1 X98.07 Y82.95 E3707.07
G1 X95.15 Y84.45 F9000
G1 X98.58 Y81.03 E3708.328 F3600
G1 X102 Y77.6 E3709.587
G1 X105.43 Y74.18 E3710.845
G1 X108.85 Y70.75 E3712.103
G1 X112.28 Y67.33 E3713.362
G1 X115.7 Y63.9 E3714.62
G1 X119.13 Y60.48 E3715.879
G1 X117.81 Y60.38 F9000
G1 X114.46 Y63.73 E3717.112 F3600
G1 X111.1 Y67.09 E3718.344
G1 X107.75 Y70.44 E3719.577
G1 X104.39 Y73.8 E3720.81
G1 X101.04 Y77.15 E3722.043
G1 X97.69 Y80.5 E3723.275
G1 X94.33 Y83.86 E3724.508
G1 X90.98 Y87.21 E3725.741
G1 X83.74 Y94.45 F9000
G1 X80.33 Y97.86 E3726.994 F3600
G1 X76.91 Y101.28 E3728.248
G1 X73.5 Y104.69 E3729.502
G1 X70.09 Y108.1 E3730.755
G1 X66.68 Y111.51 E3732.009
G1 X63.27 Y114.92 E3733.263
G1 X59.86 Y118.33 E3734.516
G1 X56.45 Y121.74 E3735.77
G1 X53.03 Y125.16 E3737.024
G1 X53.03 Y126.57 F9000
G1 X56.53 Y123.08 E3738.307 F3600
G1 X60.02 Y119.59 E3739.591
G1 X63.51 Y116.09 E3740.874
G1 X67 Y112.6 E3742.158
G1 X70.5 Y109.11 E3743.441
G1 X73.99 Y105.62 E3744.724
G1 X77.48 Y102.12 E3746.008
G1 X80.98 Y98.63 E3747.291
G1 X79.48 Y101.54 F9000
G1 X76.17 Y104.85 E3748.506 F3600
G1 X72.87 Y108.15 E3749.72
G1 X69.56 Y111.46 E3750.935
G1 X66.26 Y114.76 E3752.15
G1 X62.95 Y118.07 E3753.364
G1 X59.64 Y121.37 E3754.579
G1 X56.34 Y124.68 E3755.793
G1 X53.03 Y127.98 E3757.008
G1 X53.03 Y129.4 F9000
G1 X56.21 Y126.22 E3758.175 F3600
G1 X59.39 Y123.05 E3759.343
G1 X62.56 Y119.87 E3760.51
G1 X65.74 Y116.69 E3761.678
G1 X68.92 Y113.51 E3762.845
G1 X72.1 Y110.34 E3764.013
G1 X75.27 Y107.16 E3765.18
G1 X78.45 Y103.98 E3766.347
G1 X77.71 Y106.14 F9000
G1 X74.18 Y109.66 E3767.643 F3600
G1 X70.66 Y113.19 E3768.938
G1 X67.13 Y116.71 E3770.233
G1 X63.61 Y120.24 E3771.528
G1 X60.08 Y123.76 E3772.824
G1 X56.56 Y127.29 E3774.119
G1 X53.03 Y130.81 E3775.414
G1 X53.03 Y132.23 F9000
G1 X56.48 Y128.78 E3776.68 F3600
G1 X59.92 Y125.34 E3777.946
G1 X63.37 Y121.89 E3779.212
G1 X66.81 Y118.45 E3780.477
G1 X70.26 Y115 E3781.743
G1 X73.7 Y111.56 E3783.009
G1 X77.15 Y108.11 E3784.275
G1 X76.73 Y109.95 F9000
G1 X73.34 Y113.33 E3785.519 F3600
G1 X69.96 Y116.72 E3786.763
G1 X66.57 Y120.1 E3788.007
G1 X63.19 Y123.49 E3789.251
G1 X59.8 Y126.87 E3790.495
G1 X56.42 Y130.26 E3791.739
G1 X53.03 Y133.64 E3792.983
G1 X53.03 Y135.06 F9000
G1 X56.37 Y131.71 E3794.211 F3600
G1 X59.72 Y128.37 E3795.438
G1 X63.06 Y125.03 E3796.666
G1 X66.4 Y121.69 E3797.894
G1 X69.74 Y118.35 E3799.122
G1 X73.08 Y115.01 E3800.35
G1 X76.42 Y111.67 E3801.578
G1 X77.09 Y112.41 F9000
G1 X73.65 Y115.85 E3802.841 F3600
G1 X70.22 Y119.29 E3804.104
G1 X66.78 Y122.72 E3805.366
G1 X63.34 Y126.16 E3806.629
G1 X59.91 Y129.6 E3807.892
G1 X56.47 Y133.03 E3809.155
G1 X53.03 Y136.47 E3810.418
G1 X53.03 Y137.89 F9000
G1 X56.22 Y134.7 E3811.588 F3600
G1 X59.4 Y131.52 E3812.758
G1 X62.58 Y128.33 E3813.928
G1 X65.77 Y125.15 E3815.098
G1 X68.95 Y121.97 E3816.268
G1 X72.14 Y118.78 E3817.438
G1 X75.32 Y115.6 E3818.608
G1 X78.5 Y112.41 E3819.778
G1 X79.71 Y112.62 F9000
G1 X76.38 Y115.95 E3821.004 F3600
G1 X73.04 Y119.29 E3822.229
G1 X69.71 Y122.62 E3823.455
G1 X66.37 Y125.96 E3824.68
G1 X63.04 Y129.29 E3825.906
G1 X59.7 Y132.63 E3827.132
G1 X56.37 Y135.96 E3828.357
G1 X53.03 Y139.3 E3829.583
G1 X53.03 Y140.71 F9000
G1 X56.37 Y137.38 E3830.808 F3600
G1 X59.7 Y134.04 E3832.034
G1 X63.04 Y130.71 E3833.259
G1 X66.37 Y127.37 E3834.485
G1 X69.71 Y124.04 E3835.711
G1 X73.04 Y120.7 E3836.936
G1 X76.38 Y117.37 E3838.162
G1 X79.71 Y114.03 E3839.387
G1 X79.71 Y115.45 F9000
G1 X76.38 Y118.78 E3840.613 F3600
G1 X73.04 Y122.12 E3841.838
G1 X69.71 Y125.45 E3843.064
G1 X66.37 Y128.79 E3844.29
G1 X63.04 Y132.12 E3845.515
G1 X59.7 Y135.46 E3846.741
G1 X56.37 Y138.79 E3847.966
G1 X53.03 Y142.13 E3849.192
G1 X53.03 Y143.54 F9000
G1 X56.37 Y140.21 E3850.418 F3600
G1 X59.7 Y136.87 E3851.643
G1 X63.04 Y133.54 E3852.869
G1 X66.37 Y130.2 E3854.094
G1 X69.71 Y126.87 E3855.32
G1 X73.04 Y123.53 E3856.545
G1 X76.38 Y120.2 E3857.771
G1 X79.71 Y116.86 E3858.997
G1 X79.71 Y118.27 F9000
G1 X76.38 Y121.61 E3860.222 F3600
G1 X73.04 Y124.94 E3861.448
G1 X69.71 Y128.28 E3862.673
G1 X66.37 Y131.62 E3863.899
G1 X63.04 Y134.95 E3865.125
G1 X59.7 Y138.29 E3866.35
G1 X56.37 Y141.62 E3867.576
G1 X53.03 Y144.96 E3868.801
G1 X53.03 Y146.37 F9000
G1 X56.37 Y143.03 E3870.027 F3600
G1 X59.7 Y139.7 E3871.253
G1 X63.04 Y136.36 E3872.478
G1 X66.37 Y133.03 E3873.704
G1 X69.71 Y129.69 E3874.929
G1 X73.04 Y126.36 E3876.155
G1 X76.38 Y123.02 E3877.38
G1 X79.71 Y119.69 E3878.606
G1 X79.71 Y121.1 F9000
G1 X76.38 Y124.44 E3879.832 F3600
G1 X73.04 Y127.77 E3881.057
G1 X69.71 Y131.11 E3882.283
G1 X66.37 Y134.44 E3883.508
G1 X63.04 Y137.78 E3884.734
G1 X59.7 Y141.11 E3885.96
G1 X56.37 Y144.45 E3887.185
G1 X53.03 Y147.78 E3888.411
G1 X53.03 Y149.2 F9000
G1 X56.37 Y145.86 E3889.636 F3600
G1 X59.7 Y142.53 E3890.862
G1 X63.04 Y139.19 E3892.087
G1 X66.37 Y135.86 E3893.313
G1 X69.71 Y132.52 E3894.539
G1 X73.04 Y129.19 E3895.764
G1 X76.38 Y125.85 E3896.99
G1 X79.71 Y122.52 E3898.215
G1 X79.71 Y123.93 F9000
G1 X76.38 Y127.27 E3899.441 F3600
G1 X73.04 Y130.6 E3900.667
G1 X69.71 Y133.94 E3901.892
G1 X66.37 Y137.27 E3903.118
G1 X63.04 Y140.61 E3904.343
G1 X59.7 Y143.94 E3905.569
G1 X56.37 Y147.28 E3906.795
G1 X53.03 Y150.61 E3908.02
G1 X53.03 Y152.03 F9000
G1 X56.37 Y148.69 E3909.246 F3600
G1 X59.7 Y145.36 E3910.471
G1 X63.04 Y142.02 E3911.697
G1 X66.37 Y138.69 E3912.923
G1 X69.71 Y135.35 E3914.148
G1 X73.04 Y132.02 E3915.374
G1 X76.38 Y128.68 E3916.599
G1 X79.71 Y125.35 E3917.825
G1 X79.71 Y126.76 F9000
G1 X76.38 Y130.1 E3919.05 F3600
G1 X73.04 Y133.43 E3920.276
G1 X69.71 Y136.77 E3921.502
G1 X66.37 Y140.1 E3922.727
G1 X63.04 Y143.44 E3923.953
G1 X59.7 Y146.77 E3925.178
G1 X56.37 Y150.11 E3926.404
G1 X53.03 Y153.44 E3927.63
G1 X53.03 Y154.86 F9000
G1 X56.37 Y151.52 E3928.855 F3600
G1 X59.7 Y148.18 E3930.081
G1 X63.04 Y144.85 E3931.306
G1 X66.37 Y141.51 E3932.532
G1 X69.71 Y138.18 E3933.757
G1 X73.04 Y134.84 E3934.983
G1 X76.38 Y131.51 E3936.209
G1 X79.71 Y128.17 E3937.434
G1 X79.71 Y129.59 F9000
G1 X76.38 Y132.92 E3938.66 F3600
G1 X73.04 Y136.26 E3939.885
G1 X69.71 Y139.59 E3941.111
G1 X66.37 Y142.93 E3942.336
G1 X63.04 Y146.26 E3943.562
G1 X59.7 Y149.6 E3944.788
G1 X56.37 Y152.93 E3946.013
G1 X53.03 Y156.27 E3947.239
G1 X53.03 Y157.68 F9000
G1 X56.37 Y154.35 E3948.464 F3600
G1 X59.7 Y151.01 E3949.69
G1 X63.04 Y147.68 E3950.916
G1 X66.37 Y144.34 E3952.141
G1 X69.71 Y141.01 E3953.367
G1 X73.04 Y137.67 E3954.592
G1 X76.38 Y134.34 E3955.818
G1 X79.71 Y131 E3957.044
G1 X79.71 Y132.42 F9000
G1 X76.38 Y135.75 E3958.269 F3600
G1 X73.04 Y139.09 E3959.495
G1 X69.71 Y142.42 E3960.72
G1 X66.37 Y145.76 E3961.946
G1 X63.04 Y149.09 E3963.172
G1 X59.7 Y152.43 E3964.397
G1 X56.37 Y155.76 E3965.623
G1 X53.03 Y159.1 E3966.848
G1 X53.03 Y160.51 F9000
G1 X56.37 Y157.18 E3968.074 F3600
G1 X59.7 Y153.84 E3969.299
G1 X63.04 Y150.51 E3970.525
G1 X66.37 Y147.17 E3971.751
G1 X69.71 Y143.84 E3972.976
G1 X73.04 Y140.5 E3974.202
G1 X76.38 Y137.17 E3975.427
G1 X79.71 Y133.83 E3976.653
G1 X79.71 Y135.25 F9000
G1 X76.38 Y138.58 E3977.878 F3600
G1 X73.04 Y141.92 E3979.104
G1 X69.71 Y145.25 E3980.33
G1 X66.37 Y148.59 E3981.555
G1 X63.04 Y151.92 E3982.781
G1 X59.7 Y155.26 E3984.006
G1 X56.37 Y158.59 E3985.232
G1 X53.03 Y161.93 E3986.458
G1 X53.03 Y163.34 F9000
G1 X56.37 Y160 E3987.683 F3600
G1 X59.7 Y156.67 E3988.909
G1 X63.04 Y153.33 E3990.134
G1 X66.37 Y150 E3991.36
G1 X69.71 Y146.66 E3992.585
G1 X73.04 Y143.33 E3993.811
G1 X76.38 Y139.99 E3995.037
G1 X79.71 Y136.66 E3996.262
G1 X79.71 Y138.07 F9000
G1 X76.38 Y141.41 E3997.488 F3600
G1 X73.04 Y144.74 E3998.713
G1 X69.71 Y148.08 E3999.939
G1 X66.37 Y151.41 E4001.165
G1 X63.04 Y154.75 E4002.39
G1 X59.7 Y158.08 E4003.616
G1 X56.37 Y161.42 E4004.841
G1 X53.03 Y164.76 E4006.067
G1 X53.03 Y166.17 F9000
G1 X56.37 Y162.83 E4007.293 F3600
G1 X59.7 Y159.5 E4008.518
G1 X63.04 Y156.16 E4009.744
G1 X66.37 Y152.83 E4010.969
G1 X69.71 Y149.49 E4012.195
G1 X73.04 Y146.16 E4013.42
G1 X76.38 Y142.82 E4014.646
G1 X79.71 Y139.49 E4015.872
G1 X79.71 Y140.9 F9000
G1 X76.38 Y144.24 E4017.097 F3600
G1 X73.04 Y147.57 E4018.323
G1 X69.71 Y150.91 E4019.548
G1 X66.37 Y154.24 E4020.774
G1 X63.04 Y157.58 E4021.999
G1 X59.7 Y160.91 E4023.225
G1 X56.37 Y164.25 E4024.451
G1 X53.03 Y167.58 E4025.676
G1 X53.03 Y169 F9000
G1 X56.37 Y165.66 E4026.902 F3600
G1 X59.7 Y162.33 E4028.127
G1 X63.04 Y158.99 E4029.353
G1 X66.37 Y155.66 E4030.579
G1 X69.71 Y152.32 E4031.804
G1 X73.04 Y148.99 E4033.03
G1 X76.38 Y145.65 E4034.255
G1 X79.71 Y142.32 E4035.481
G1 X79.71 Y143.73 F9000
G1 X76.38 Y147.07 E4036.706 F3600
G1 X73.04 Y150.4 E4037.932
G1 X69.71 Y153.74 E4039.158
G1 X66.37 Y157.07 E4040.383
G1 X63.04 Y160.41 E4041.609
G1 X59.7 Y163.74 E4042.834
G1 X56.37 Y167.08 E4044.06
G1 X53.03 Y170.41 E4045.286
G1 X53.03 Y171.83 F9000
G1 X56.37 Y168.49 E4046.511 F3600
G1 X59.7 Y165.16 E4047.737
G1 X63.04 Y161.82 E4048.962
G1 X66.37 Y158.49 E4050.188
G1 X69.71 Y155.15 E4051.414
G1 X73.04 Y151.81 E4052.639
G1 X76.38 Y148.48 E4053.865
G1 X79.71 Y145.14 E4055.09
G1 X79.71 Y146.56 F9000
G1 X76.38 Y149.89 E4056.316 F3600
G1 X73.04 Y153.23 E4057.542
G1 X69.71 Y156.56 E4058.767
G1 X66.37 Y159.9 E4059.993
G1 X63.04 Y163.24 E4061.218
G1 X59.7 Y166.57 E4062.444
G1 X56.37 Y169.91 E4063.67
G1 X53.03 Y173.24 E4064.895
G1 X53.03 Y174.66 F9000
G1 X56.37 Y171.32 E4066.121 F3600
G1 X59.7 Y167.98 E4067.346
G1 X63.04 Y164.65 E4068.572
G1 X66.37 Y161.31 E4069.798
G1 X69.71 Y157.98 E4071.023
G1 X73.04 Y154.64 E4072.249
G1 X76.38 Y151.31 E4073.474
G1 X79.71 Y147.97 E4074.7
G1 X79.71 Y149.39 F9000
G1 X76.38 Y152.72 E4075.926 F3600
G1 X73.04 Y156.06 E4077.151
G1 X69.71 Y159.39 E4078.377
G1 X66.37 Y162.73 E4079.602
G1 X63.04 Y166.06 E4080.828
G1 X59.7 Y169.4 E4082.054
G1 X56.37 Y172.73 E4083.279
G1 X53.03 Y176.07 E4084.505
G1 X53.03 Y177.48 F9000
G1 X56.37 Y174.15 E4085.73 F3600
G1 X59.7 Y170.81 E4086.956
G1 X63.04 Y167.48 E4088.182
G1 X66.37 Y164.14 E4089.407
G1 X69.71 Y160.81 E4090.633
G1 X73.04 Y157.47 E4091.858
G1 X76.38 Y154.14 E4093.084
G1 X79.71 Y150.8 E4094.31
G1 X79.71 Y152.22 F9000
G1 X76.38 Y155.55 E4095.535 F3600
G1 X73.04 Y158.89 E4096.761
G1 X69.71 Y162.22 E4097.987
G1 X66.37 Y165.56 E4099.212
G1 X63.04 Y168.89 E4100.438
G1 X59.7 Y172.23 E4101.663
G1 X56.37 Y175.56 E4102.889
G1 X53.03 Y178.9 E4104.115
G1 X53.03 Y180.31 F9000
G1 X56.37 Y176.98 E4105.34 F3600
G1 X59.7 Y173.64 E4106.566
G1 X63.04 Y170.31 E4107.791
G1 X66.37 Y166.97 E4109.017
G1 X69.71 Y163.64 E4110.243
G1 X73.04 Y160.3 E4111.468
G1 X76.38 Y156.97 E4112.694
G1 X79.71 Y153.63 E4113.919
G1 X79.71 Y155.04 F9000
G1 X76.38 Y158.38 E4115.145 F3600
G1 X73.04 Y161.71 E4116.371
G1 X69.71 Y165.05 E4117.596
G1 X66.37 Y168.39 E4118.822
G1 X63.04 Y171.72 E4120.047
G1 X59.7 Y175.06 E4121.273
G1 X56.37 Y178.39 E4122.499
G1 X53.03 Y181.73 E4123.724
G1 X53.03 Y183.14 F9000
G1 X56.37 Y179.8 E4124.95 F3600
G1 X59.7 Y176.47 E4126.175
G1 X63.04 Y173.13 E4127.401
G1 X66.37 Y169.8 E4128.627
G1 X69.71 Y166.46 E4129.852
G1 X73.04 Y163.13 E4131.078
G1 X76.38 Y159.79 E4132.303
G1 X79.71 Y156.46 E4133.529
G1 X79.71 Y157.87 F9000
G1 X76.38 Y161.21 E4134.755 F3600
G1 X73.04 Y164.54 E4135.98
G1 X69.71 Y167.88 E4137.206
G1 X66.37 Y171.21 E4138.431
G1 X63.04 Y174.55 E4139.657
G1 X59.7 Y177.88 E4140.883
G1 X56.37 Y181.22 E4142.108
G1 X53.03 Y184.55 E4143.334
G1 X53.03 Y185.97 F9000
G1 X56.37 Y182.63 E4144.559 F3600
G1 X59.7 Y179.3 E4145.785
G1 X63.04 Y175.96 E4147.011
G1 X66.37 Y172.63 E4148.236
G1 X69.71 Y169.29 E4149.462
G1 X73.04 Y165.96 E4150.687
G1 X76.38 Y162.62 E4151.913
G1 X79.71 Y159.29 E4153.139
G1 X79.71 Y160.7 F9000
G1 X76.38 Y164.04 E4154.364 F3600
G1 X73.04 Y167.37 E4155.59
G1 X69.71 Y170.71 E4156.815
G1 X66.37 Y174.04 E4158.041
G1 X63.04 Y177.38 E4159.267
G1 X59.7 Y180.71 E4160.492
G1 X56.37 Y184.05 E4161.718
G1 X53.03 Y187.38 E4162.943
G1 X53.03 Y188.8 F9000
G1 X56.37 Y185.46 E4164.169 F3600
G1 X59.7 Y182.13 E4165.395
G1 X63.04 Y178.79 E4166.62
G1 X66.37 Y175.46 E4167.846
G1 X69.71 Y172.12 E4169.071
G1 X73.04 Y168.79 E4170.297
G1 X76.38 Y165.45 E4171.523
G1 X79.71 Y162.12 E4172.748
G1 X79.71 Y163.53 F9000
G1 X76.38 Y166.86 E4173.974 F3600
G1 X73.04 Y170.2 E4175.199
G1 X69.71 Y173.53 E4176.425
G1 X66.37 Y176.87 E4177.651
G1 X63.04 Y180.21 E4178.876
G1 X59.7 Y183.54 E4180.102
G1 X56.37 Y186.88 E4181.327
G1 X53.03 Y190.21 E4182.553
G1 X53.03 Y191.63 F9000
G1 X56.37 Y188.29 E4183.779 F3600
G1 X59.7 Y184.95 E4185.004
G1 X63.04 Y181.62 E4186.23
G1 X66.37 Y178.28 E4187.455
G1 X69.71 Y174.95 E4188.681
G1 X73.04 Y171.61 E4189.907
G1 X76.38 Y168.28 E4191.132
G1 X79.71 Y164.94 E4192.358
G1 X79.71 Y166.36 F9000
G1 X76.4 Y169.68 E4193.577 F3600
G1 X73.08 Y172.99 E4194.796
G1 X69.76 Y176.31 E4196.016
G1 X66.44 Y179.63 E4197.235
G1 X63.12 Y182.95 E4198.454
G1 X59.81 Y186.27 E4199.674
G1 X56.49 Y189.58 E4200.893
G1 X53.17 Y192.9 E4202.112
G1 X53.5 Y193.99 F9000
G1 X56.78 Y190.71 E4203.316 F3600
G1 X60.05 Y187.43 E4204.52
G1 X63.33 Y184.16 E4205.724
G1 X66.61 Y180.88 E4206.929
G1 X69.88 Y177.6 E4208.133
G1 X73.16 Y174.33 E4209.337
G1 X76.44 Y171.05 E4210.541
G1 X79.71 Y167.77 E4211.745
G1 X79.71 Y169.19 F9000
G1 X76.5 Y172.4 E4212.926 F3600
G1 X73.29 Y175.61 E4214.107
G1 X70.07 Y178.83 E4215.288
G1 X66.86 Y182.04 E4216.469
G1 X63.65 Y185.25 E4217.649
G1 X60.43 Y188.47 E4218.83
G1 X57.22 Y191.68 E4220.011
G1 X54.01 Y194.89 E4221.192
G1 X54.6 Y195.72 F9000
G1 X57.74 Y192.58 E4222.346 F3600
G1 X60.88 Y189.44 E4223.499
G1 X64.02 Y186.3 E4224.653
G1 X67.16 Y183.16 E4225.807
G1 X70.3 Y180.02 E4226.961
G1 X73.44 Y176.88 E4228.114
G1 X76.57 Y173.74 E4229.268
G1 X79.71 Y170.6 E4230.422
G1 X79.71 Y172.02 F9000
G1 X76.24 Y175.49 E4231.699 F3600
G1 X72.76 Y178.96 E4232.975
G1 X69.29 Y182.44 E4234.252
G1 X65.82 Y185.91 E4235.529
G1 X62.34 Y189.39 E4236.806
G1 X58.87 Y192.86 E4238.083
G1 X55.39 Y196.34 E4239.359
G1 X56.22 Y196.93 F9000
G1 X59.57 Y193.57 E4240.593 F3600
G1 X62.93 Y190.21 E4241.827
G1 X66.29 Y186.86 E4243.06
G1 X69.64 Y183.5 E4244.294
G1 X73 Y180.14 E4245.527
G1 X76.36 Y176.79 E4246.761
G1 X79.71 Y173.43 E4247.994
G1 X79.71 Y174.84 F9000
G1 X76.51 Y178.05 E4249.171 F3600
G1 X73.31 Y181.25 E4250.348
G1 X70.11 Y184.45 E4251.525
G1 X66.9 Y187.65 E4252.702
G1 X63.7 Y190.86 E4253.879
G1 X60.5 Y194.06 E4255.056
G1 X57.3 Y197.26 E4256.233
G1 X58.49 Y197.49 F9000
G1 X61.52 Y194.45 E4257.347 F3600
G1 X64.55 Y191.42 E4258.462
G1 X67.58 Y188.39 E4259.576
G1 X70.62 Y185.36 E4260.691
G1 X73.65 Y182.32 E4261.805
G1 X76.68 Y179.29 E4262.92
G1 X79.71 Y176.26 E4264.034
G1 X79.71 Y177.67 F9000
G1 X76.41 Y180.97 E4265.248 F3600
G1 X73.11 Y184.28 E4266.461
G1 X69.81 Y187.58 E4267.675
G1 X66.5 Y190.88 E4268.889
G1 X63.2 Y194.18 E4270.102
G1 X59.9 Y197.49 E4271.316
G1 X61.31 Y197.49 F9000
G1 X64.38 Y194.42 E4272.443 F3600
G1 X67.45 Y191.35 E4273.57
G1 X70.51 Y188.29 E4274.697
G1 X73.58 Y185.22 E4275.824
G1 X76.65 Y182.15 E4276.951
G1 X79.71 Y179.09 E4278.078
G1 X79.71 Y180.5 F9000
G1 X76.32 Y183.9 E4279.326 F3600
G1 X72.92 Y187.29 E4280.575
G1 X69.52 Y190.69 E4281.823
G1 X66.13 Y194.09 E4283.071
G1 X62.73 Y197.49 E4284.32
G1 X64.14 Y197.49 F9000
G1 X67.26 Y194.37 E4285.464 F3600
G1 X70.37 Y191.26 E4286.609
G1 X73.49 Y188.14 E4287.753
G1 X76.6 Y185.03 E4288.898
G1 X79.71 Y181.91 E4290.042
G1 X79.71 Y183.33 F9000
G1 X76.88 Y186.16 E4291.083 F3600
G1 X74.05 Y188.99 E4292.123
G1 X71.22 Y191.82 E4293.164
G1 X68.39 Y194.66 E4294.205
G1 X65.56 Y197.49 E4295.245
G1 X66.97 Y197.49 F9000
G1 X70.16 Y194.3 E4296.416 F3600
G1 X73.34 Y191.11 E4297.587
G1 X76.53 Y187.93 E4298.758
G1 X79.71 Y184.74 E4299.929
G1 X79.71 Y186.16 F9000
G1 X76.88 Y188.99 E4300.969 F3600
G1 X74.05 Y191.82 E4302.01
G1 X71.22 Y194.65 E4303.051
G1 X68.39 Y197.49 E4304.092
G1 X69.8 Y197.49 F9000
G1 X73.1 Y194.18 E4305.306 F3600
G1 X76.41 Y190.88 E4306.521
G1 X79.71 Y187.57 E4307.736
G1 X79.71 Y188.99 F9000
G1 X76.88 Y191.82 E4308.777 F3600
G1 X74.05 Y194.65 E4309.818
G1 X71.21 Y197.49 E4310.86
G1 X72.63 Y197.49 F9000
G1 X74.99 Y195.12 E4311.728 F3600
G1 X77.35 Y192.76 E4312.596
G1 X79.71 Y190.4 E4313.464
G1 X79.71 Y191.81 F9000
G1 X76.88 Y194.65 E4314.506 F3600
G1 X74.04 Y197.49 E4315.549
G1 X75.78 Y197.16 F9000
G1 X79.5 Y193.45 E4316.913 F3600
G1 E4313.913 F1800
G1 Z3.125
G1 X76.55 Y185.7 F9000
G1 X73.61 Y177.96
G1 X70.67 Y170.21
G1 X67.73 Y162.47
G1 X64.79 Y154.72
G1 X61.85 Y146.98
G1 X58.91 Y139.23
G1 X55.97 Y131.49
G1 X53.03 Y123.74
G1 Z2.625
G1 E4316.913 F1800
G1 X56.56 Y120.22 E4318.208 F3600
G1 X60.08 Y116.69 E4319.504
G1 X63.61 Y113.17 E4320.799
G1 X67.13 Y109.64 E4322.094
G1 X70.66 Y106.12 E4323.389
G1 X74.18 Y102.6 E4324.684
G1 X77.7 Y99.07 E4325.979
G1 X81.23 Y95.55 E4327.274
G1 X84.75 Y92.02 E4328.569
G1 X88.28 Y88.5 E4329.865
G1 X91.8 Y84.97 E4331.16
G1 X95.33 Y81.45 E4332.455
G1 X98.85 Y77.92 E4333.75
G1 X102.38 Y74.4 E4335.045
G1 X105.9 Y70.88 E4336.34
G1 X109.42 Y67.35 E4337.635
G1 X112.95 Y63.83 E4338.93
G1 X116.47 Y60.3 E4340.226
G1 X115.1 Y60.26 F9000
G1 X111.65 Y63.71 E4341.493 F3600
G1 X108.2 Y67.16 E4342.76
G1 X104.76 Y70.61 E4344.027
G1 X101.31 Y74.05 E4345.294
G1 X97.86 Y77.5 E4346.561
G1 X94.41 Y80.95 E4347.828
G1 X90.96 Y84.4 E4349.095
G1 X87.52 Y87.85 E4350.363
G1 X84.07 Y91.29 E4351.63
G1 X80.62 Y94.74 E4352.897
G1 X77.17 Y98.19 E4354.164
G1 X73.72 Y101.64 E4355.431
G1 X70.27 Y105.09 E4356.698
G1 X66.83 Y108.54 E4357.965
G1 X63.38 Y111.98 E4359.232
G1 X59.93 Y115.43 E4360.499
G1 X56.48 Y118.88 E4361.767
G1 X53.03 Y122.33 E4363.034
G1 X53.03 Y120.91 F9000
G1 X56.4 Y117.54 E4364.272 F3600
G1 X59.77 Y114.17 E4365.511
G1 X63.14 Y110.8 E4366.749
G1 X66.51 Y107.43 E4367.987
G1 X69.88 Y104.06 E4369.226
G1 X73.25 Y100.69 E4370.464
G1 X76.62 Y97.32 E4371.703
G1 X79.99 Y93.95 E4372.941
G1 X83.36 Y90.58 E4374.179
G1 X86.73 Y87.21 E4375.418
G1 X90.1 Y83.84 E4376.656
G1 X93.47 Y80.47 E4377.895
G1 X96.84 Y77.1 E4379.133
G1 X100.21 Y73.73 E4380.372
G1 X103.58 Y70.36 E4381.61
G1 X106.95 Y66.99 E4382.848
G1 X110.32 Y63.62 E4384.087
G1 X113.7 Y60.25 E4385.325
G1 X112.26 Y60.28 F9000
G1 X108.77 Y63.76 E4386.605 F3600
G1 X105.29 Y67.25 E4387.885
G1 X101.81 Y70.73 E4389.166
G1 X98.32 Y74.21 E4390.446
G1 X94.84 Y77.7 E4391.726
G1 X91.35 Y81.18 E4393.006
G1 X87.87 Y84.66 E4394.286
G1 X84.39 Y88.15 E4395.566
G1 X80.9 Y91.63 E4396.847
G1 X77.42 Y95.11 E4398.127
G1 X73.94 Y98.6 E4399.407
G1 X70.45 Y102.08 E4400.687
G1 X66.97 Y105.56 E4401.967
G1 X63.48 Y109.05 E4403.247
G1 X60 Y112.53 E4404.527
G1 X56.52 Y116.02 E4405.808
G1 X53.03 Y119.5 E4407.088
G1 X53.03 Y118.09 F9000
G1 X56.43 Y114.69 E4408.336 F3600
G1 X59.83 Y111.29 E4409.584
G1 X63.22 Y107.9 E4410.832
G1 X66.62 Y104.5 E4412.08
G1 X70.02 Y101.1 E4413.329
G1 X73.41 Y97.71 E4414.577
G1 X76.81 Y94.31 E4415.825
G1 X80.21 Y90.91 E4417.073
G1 X83.6 Y87.52 E4418.321
G1 X87 Y84.12 E4419.569
G1 X90.4 Y80.72 E4420.817
G1 X93.79 Y77.33 E4422.066
G1 X97.19 Y73.93 E4423.314
G1 X100.59 Y70.53 E4424.562
G1 X103.98 Y67.14 E4425.81
G1 X107.38 Y63.74 E4427.058
G1 X110.78 Y60.34 E4428.306
G1 X109.26 Y60.45 F9000
G1 X105.74 Y63.96 E4429.598 F3600
G1 X102.23 Y67.48 E4430.889
G1 X98.72 Y70.99 E4432.18
G1 X95.2 Y74.5 E4433.472
G1 X91.69 Y78.02 E4434.763
G1 X88.17 Y81.53 E4436.054
G1 X84.66 Y85.05 E4437.346
G1 X81.15 Y88.56 E4438.637
G1 X77.63 Y92.07 E4439.928
G1 X74.12 Y95.59 E4441.219
G1 X70.6 Y99.1 E4442.511
G1 X67.09 Y102.62 E4443.802
G1 X63.58 Y106.13 E4445.093
G1 X60.06 Y109.64 E4446.385
G1 X56.55 Y113.16 E4447.676
G1 X53.03 Y116.67 E4448.967
G1 X53.03 Y115.26 F9000
G1 X55.88 Y112.41 E4450.012 F3600
G1 X54.46 F9000
G1 X53.03 Y113.84 E4450.536 F3600
G1 Y112.43 F9000
G1 X53.05 Y112.41 E4450.542 F3600
G1 X57.12 Y111.17 F9000
G1 X60.5 Y107.8 E4451.78 F3600
G1 X63.87 Y104.42 E4453.019
G1 X67.24 Y101.05 E4454.258
G1 X70.61 Y97.68 E4455.497
G1 X73.98 Y94.31 E4456.736
G1 X77.35 Y90.94 E4457.974
G1 X80.72 Y87.57 E4459.213
G1 X84.09 Y84.2 E4460.452
G1 X87.46 Y80.83 E4461.691
G1 X90.84 Y77.46 E4462.93
G1 X94.21 Y74.08 E4464.169
G1 X97.58 Y70.71 E4465.407
G1 X100.95 Y67.34 E4466.646
G1 X104.32 Y63.97 E4467.885
G1 X107.69 Y60.6 E4469.124
G1 X106.08 Y60.8 F9000
G1 X102.59 Y64.28 E4470.403 F3600
G1 X99.11 Y67.77 E4471.683
G1 X95.63 Y71.25 E4472.963
G1 X92.15 Y74.73 E4474.242
G1 X88.66 Y78.21 E4475.522
G1 X85.18 Y81.69 E4476.801
G1 X81.7 Y85.18 E4478.081
G1 X78.22 Y88.66 E4479.361
G1 X74.74 Y92.14 E4480.64
G1 X71.25 Y95.62 E4481.92
G1 X67.77 Y99.1 E4483.199
G1 X64.29 Y102.59 E4484.479
G1 X60.81 Y106.07 E4485.758
G1 X57.33 Y109.55 E4487.038
G1 X57.59 Y107.87 F9000
G1 X60.93 Y104.53 E4488.267 F3600
G1 X64.28 Y101.19 E4489.495
G1 X67.62 Y97.84 E4490.724
G1 X70.96 Y94.5 E4491.953
G1 X74.31 Y91.16 E4493.182
G1 X77.65 Y87.81 E4494.41
G1 X80.99 Y84.47 E4495.639
G1 X84.34 Y81.12 E4496.868
G1 X87.68 Y77.78 E4498.097
G1 X91.03 Y74.44 E4499.325
G1 X94.37 Y71.09 E4500.554
G1 X97.71 Y67.75 E4501.783
G1 X101.06 Y64.41 E4503.012
G1 X104.4 Y61.06 E4504.24
G1 X102.66 Y61.38 F9000
G1 X99.22 Y64.83 E4505.505 F3600
G1 X95.78 Y68.27 E4506.77
G1 X92.34 Y71.71 E4508.036
G1 X88.89 Y75.15 E4509.301
G1 X85.45 Y78.6 E4510.566
G1 X82.01 Y82.04 E4511.831
G1 X78.57 Y85.48 E4513.096
G1 X75.12 Y88.92 E4514.361
G1 X71.68 Y92.37 E4515.626
G1 X68.24 Y95.81 E4516.891
G1 X64.79 Y99.25 E4518.156
G1 X61.35 Y102.7 E4519.421
G1 X57.91 Y106.14 E4520.686
G1 X58.31 Y104.33 F9000
G1 X61.58 Y101.05 E4521.889 F3600
G1 X64.85 Y97.78 E4523.092
G1 X68.13 Y94.51 E4524.294
G1 X71.4 Y91.24 E4525.497
G1 X74.67 Y87.96 E4526.7
G1 X77.94 Y84.69 E4527.902
G1 X81.22 Y81.42 E4529.105
G1 X84.49 Y78.15 E4530.308
G1 X87.76 Y74.87 E4531.51
G1 X91.03 Y71.6 E4532.713
G1 X94.31 Y68.33 E4533.915
G1 X97.58 Y65.05 E4535.118
G1 X100.85 Y61.78 E4536.321
G1 X98.96 Y62.26 F9000
G1 X95.61 Y65.61 E4537.551 F3600
G1 X92.26 Y68.96 E4538.781
G1 X88.91 Y72.3 E4540.011
G1 X85.57 Y75.65 E4541.241
G1 X82.22 Y79 E4542.471
G1 X78.87 Y82.35 E4543.701
G1 X75.53 Y85.69 E4544.932
G1 X72.18 Y89.04 E4546.162
G1 X68.83 Y92.39 E4547.392
G1 X65.48 Y95.74 E4548.622
G1 X62.14 Y99.08 E4549.852
G1 X58.79 Y102.43 E4551.082
G1 X59.37 Y100.43 F9000
G1 X62.79 Y97.02 E4552.338 F3600
G1 X66.21 Y93.6 E4553.593
G1 X69.62 Y90.18 E4554.849
G1 X73.04 Y86.77 E4556.105
G1 X76.46 Y83.35 E4557.36
G1 X79.87 Y79.93 E4558.616
G1 X83.29 Y76.51 E4559.871
G1 X86.71 Y73.1 E4561.127
G1 X90.12 Y69.68 E4562.383
G1 X93.54 Y66.26 E4563.638
G1 X96.96 Y62.85 E4564.894
G1 X94.84 Y63.55 F9000
G1 X91.37 Y67.03 E4566.172 F3600
G1 X87.89 Y70.5 E4567.449
G1 X84.41 Y73.98 E4568.727
G1 X80.94 Y77.46 E4570.004
G1 X77.46 Y80.93 E4571.282
G1 X73.98 Y84.41 E4572.56
G1 X70.51 Y87.89 E4573.837
G1 X67.03 Y91.36 E4575.115
G1 X63.55 Y94.84 E4576.392
G1 X60.08 Y98.32 E4577.67
G1 X60.94 Y96.04 F9000
G1 X64.45 Y92.52 E4578.961 F3600
G1 X67.97 Y89.01 E4580.252
G1 X71.48 Y85.5 E4581.543
G1 X74.99 Y81.98 E4582.834
G1 X78.51 Y78.47 E4584.125
G1 X82.02 Y74.96 E4585.416
G1 X85.53 Y71.44 E4586.708
G1 X89.05 Y67.93 E4587.999
G1 X92.56 Y64.42 E4589.29
G1 X90.07 Y65.49 F9000
G1 X86.56 Y69 E4590.578 F3600
G1 X83.06 Y72.51 E4591.867
G1 X79.55 Y76.01 E4593.155
G1 X76.04 Y79.52 E4594.444
G1 X72.54 Y83.03 E4595.733
G1 X69.03 Y86.53 E4597.021
G1 X65.52 Y90.04 E4598.31
G1 X62.02 Y93.55 E4599.598
G1 X63.4 Y90.75 F9000
G1 X66.81 Y87.34 E4600.852 F3600
G1 X70.22 Y83.93 E4602.105
G1 X73.63 Y80.52 E4603.358
G1 X77.04 Y77.11 E4604.611
G1 X80.45 Y73.7 E4605.864
G1 X83.86 Y70.29 E4607.117
G1 X87.27 Y66.88 E4608.37
G1 X83.97 Y68.76 F9000
G1 X80.86 Y71.88 E4609.514 F3600
G1 X77.74 Y74.99 E4610.659
G1 X74.63 Y78.1 E4611.803
G1 X71.52 Y81.22 E4612.948
G1 X68.4 Y84.33 E4614.092
G1 X65.29 Y87.45 E4615.237
G1 X68.35 Y82.97 F9000
G1 X71.13 Y80.19 E4616.261 F3600
G1 X73.92 Y77.4 E4617.286
G1 X76.71 Y74.61 E4618.31
G1 X79.5 Y71.82 E4619.334
; Layer Change GCode
; LAYER:0
; LAYER_HEIGHT:0.3
; TYPE:FILL
M400
M107
G1 E4616.334 F1800
G1 Z3.125
G1 X79.5 Y71.82 Z4.025 F9000
G1 X83.12 Y76.42
G1 X81.82 Y78.03
G1 X78.67 Y87.01
G1 X75.53 Y95.99
G1 X72.82 Y101.24
G1 X70.11 Y112.28
G1 X69.63 Y116.84
G1 X70.66 Y117.73
; TYPE:WALL-OUTER
G1 Z3.525
G1 E4619.334 F1800
G1 X74.41 E4619.568 F1080
G1 Y122.65 E4619.875
G1 Y127.58 E4620.183
G1 Y132.51 E4620.49
G1 Y137.44 E4620.797
G1 Y142.37 E4621.105
G1 Y147.3 E4621.412
G1 Y152.23 E4621.72
G1 Y157.15 E4622.027
G1 Y162.08 E4622.334
G1 Y167.01 E4622.642
G1 Y171.94 E4622.949
G1 Y176.87 E4623.256
G1 Y181.8 E4623.564
G1 Y186.73 E4623.871
G1 Y191.66 E4624.178
G1 X74.39 Y191.78 E4624.187
G1 X74.28 Y192 E4624.202
G1 X74.14 Y192.11 E4624.212
G1 X73.92 Y192.18 E4624.227
G1 X70.15 E4624.462
G1 X66.37 E4624.698
G1 X62.6 E4624.933
G1 X58.83 E4625.168
G1 X58.6 Y192.11 E4625.183
G1 X58.48 Y192.01 E4625.193
G1 X58.37 Y191.82 E4625.207
G1 X58.34 Y191.67 E4625.216
G1 X58.34 Y186.74 E4625.523
G1 Y181.81 E4625.831
G1 Y176.88 E4626.138
G1 Y171.95 E4626.446
G1 Y167.02 E4626.753
G1 Y162.09 E4627.061
G1 Y157.16 E4627.368
G1 Y152.23 E4627.675
G1 Y147.3 E4627.983
G1 Y142.37 E4628.29
G1 Y137.44 E4628.598
G1 Y132.51 E4628.905
G1 Y127.58 E4629.213
G1 Y122.65 E4629.52
G1 Y117.73 E4629.827
G1 X62.08 Y117.73 E4630.06
G1 X62.1 Y116.3 E4630.15
G1 X62.14 Y115.12 E4630.223
G1 X62.21 Y113.93 E4630.297
G1 X62.3 Y112.76 E4630.371
G1 X62.42 Y111.58 E4630.444
G1 X62.57 Y110.41 E4630.518
G1 X62.74 Y109.24 E4630.592
G1 X62.94 Y108.08 E4630.666
G1 X63.17 Y106.92 E4630.739
G1 X63.42 Y105.76 E4630.813
G1 X63.7 Y104.61 E4630.887
G1 X64.01 Y103.47 E4630.961
G1 X64.34 Y102.34 E4631.034
G1 X64.7 Y101.21 E4631.108
G1 X65.08 Y100.09 E4631.182
G1 X65.49 Y98.98 E4631.255
G1 X65.93 Y97.88 E4631.329
G1 X66.38 Y96.79 E4631.403
G1 X66.86 Y95.72 E4631.476
G1 X67.37 Y94.65 E4631.55
G1 X67.9 Y93.59 E4631.624
G1 X68.46 Y92.55 E4631.697
G1 X69.04 Y91.52 E4631.771
G1 X69.64 Y90.5 E4631.845
G1 X70.27 Y89.5 E4631.919
G1 X70.91 Y88.51 E4631.992
G1 X71.59 Y87.54 E4632.066
G1 X72.28 Y86.58 E4632.14
G1 X72.99 Y85.64 E4632.213
G1 X73.73 Y84.71 E4632.287
G1 X74.49 Y83.8 E4632.361
G1 X75.26 Y82.91 E4632.434
G1 X76.06 Y82.04 E4632.508
G1 X76.87 Y81.19 E4632.582
G1 X77.71 Y80.35 E4632.656
G1 X78.56 Y79.54 E4632.729
G1 X79.44 Y78.73 E4632.803
G1 X80.33 Y77.96 E4632.877
G1 X81.24 Y77.21 E4632.95
G1 X82.16 Y76.47 E4633.024
G1 X83.1 Y75.76 E4633.098
G1 X84.06 Y75.06 E4633.171
G1 X85.04 Y74.39 E4633.246
G1 X86.02 Y73.74 E4633.319
G1 X87.02 Y73.12 E4633.393
G1 X88.04 Y72.52 E4633.466
G1 X89.08 Y71.93 E4633.54
G1 X90.11 Y71.38 E4633.614
G1 X91.17 Y70.85 E4633.687
G1 X92.24 Y70.34 E4633.761
G1 X93.32 Y69.86 E4633.835
G1 X94.4 Y69.4 E4633.908
G1 X95.51 Y68.96 E4633.983
G1 X96.61 Y68.56 E4634.056
G1 X97.74 Y68.17 E4634.13
G1 X98.86 Y67.82 E4634.203
G1 X99.99 Y67.49 E4634.277
G1 X101.14 Y67.18 E4634.351
G1 X102.29 Y66.9 E4634.425
G1 X103.44 Y66.64 E4634.498
G1 X104.6 Y66.42 E4634.572
G1 X105.76 Y66.22 E4634.645
G1 X106.93 Y66.04 E4634.719
G1 X108.1 Y65.9 E4634.793
G1 X109.28 Y65.77 E4634.867
G1 X110.45 Y65.68 E4634.94
G1 X111.64 Y65.61 E4635.014
G1 X112.82 Y65.57 E4635.088
G1 X114 Y65.56 E4635.162
G1 X115.18 Y65.57 E4635.235
G1 X116.36 Y65.61 E4635.309
G1 X117.55 Y65.68 E4635.383
G1 X118.72 Y65.77 E4635.456
G1 X119.9 Y65.9 E4635.53
G1 X121.07 Y66.04 E4635.604
G1 X122.24 Y66.22 E4635.678
G1 X123.4 Y66.42 E4635.751
G1 X124.56 Y66.64 E4635.825
G1 X125.71 Y66.9 E4635.898
G1 X126.86 Y67.18 E4635.972
G1 X128.01 Y67.49 E4636.046
G1 X129.14 Y67.82 E4636.12
G1 X130.26 Y68.17 E4636.193
G1 X131.39 Y68.56 E4636.267
G1 X132.49 Y68.96 E4636.341
G1 X133.6 Y69.4 E4636.415
G1 X134.68 Y69.86 E4636.488
G1 X135.76 Y70.34 E4636.562
G1 X136.83 Y70.85 E4636.635
G1 X137.88 Y71.38 E4636.709
G1 X138.92 Y71.93 E4636.783
G1 X139.96 Y72.52 E4636.857
G1 X140.97 Y73.12 E4636.93
G1 X141.98 Y73.74 E4637.004
G1 X142.96 Y74.39 E4637.078
G1 X143.94 Y75.06 E4637.151
G1 X144.9 Y75.76 E4637.226
G1 X145.84 Y76.47 E4637.299
G1 X146.76 Y77.21 E4637.373
G1 X147.67 Y77.96 E4637.447
G1 X148.56 Y78.73 E4637.52
G1 X149.43 Y79.53 E4637.594
G1 X150.29 Y80.35 E4637.667
G1 X151.12 Y81.18 E4637.741
G1 X151.94 Y82.04 E4637.815
G1 X152.74 Y82.92 E4637.889
G1 X153.51 Y83.8 E4637.962
G1 X154.27 Y84.71 E4638.036
G1 X155.01 Y85.64 E4638.11
G1 X155.72 Y86.58 E4638.183
G1 X156.41 Y87.53 E4638.257
G1 X157.08 Y88.51 E4638.331
G1 X157.73 Y89.49 E4638.404
G1 X158.36 Y90.5 E4638.478
G1 X158.96 Y91.52 E4638.552
G1 X159.54 Y92.54 E4638.625
G1 X160.09 Y93.59 E4638.699
G1 X160.63 Y94.64 E4638.773
G1 X161.13 Y95.71 E4638.847
G1 X161.62 Y96.79 E4638.92
G1 X162.08 Y97.88 E4638.994
G1 X162.51 Y98.98 E4639.068
G1 X162.92 Y100.09 E4639.141
G1 X163.3 Y101.21 E4639.215
G1 X163.66 Y102.33 E4639.289
G1 X163.99 Y103.47 E4639.362
G1 X164.3 Y104.61 E4639.437
G1 X164.58 Y105.76 E4639.51
G1 X164.83 Y106.91 E4639.584
G1 X165.06 Y108.07 E4639.657
G1 X165.26 Y109.23 E4639.731
G1 X165.43 Y110.4 E4639.805
G1 X165.58 Y111.58 E4639.878
G1 X165.7 Y112.76 E4639.952
G1 X165.79 Y113.93 E4640.026
G1 X165.86 Y115.11 E4640.1
G1 X165.9 Y116.5 E4640.186
G1 X165.91 Y120.04 E4640.407
G1 Y123.57 E4640.627
G1 X165.92 Y127.11 E4640.848
G1 X165.9 Y127.34 E4640.862
G1 X165.87 Y127.54 E4640.875
G1 X165.8 Y127.75 E4640.889
G1 X165.74 Y127.87 E4640.897
G1 X165.58 Y128.12 E4640.916
G1 X165.41 Y128.29 E4640.93
G1 X165.17 Y128.45 E4640.948
G1 X165.03 Y128.5 E4640.958
G1 X164.89 Y128.53 E4640.967
G1 X161.7 Y128.54 E4641.166
G1 X158.51 E4641.364
G1 X158.3 Y128.53 E4641.378
G1 X158.11 Y128.47 E4641.39
G1 X157.9 Y128.34 E4641.406
G1 X157.68 Y128.14 E4641.424
G1 X157.55 Y127.93 E4641.439
G1 X157.45 Y127.75 E4641.452
G1 X157.39 Y127.54 E4641.466
G1 X157.33 Y127.2 E4641.487
G1 Y123.18 E4641.738
G1 Y119.16 E4641.989
G1 X157.32 Y116.43 E4642.159
G1 X157.28 Y115.38 E4642.224
G1 X157.22 Y114.34 E4642.29
G1 X157.13 Y113.29 E4642.355
G1 X157.02 Y112.25 E4642.42
G1 X156.88 Y111.21 E4642.486
G1 X156.72 Y110.18 E4642.551
G1 X156.53 Y109.15 E4642.616
G1 X156.31 Y108.12 E4642.682
G1 X156.08 Y107.1 E4642.747
G1 X155.81 Y106.09 E4642.812
G1 X155.53 Y105.08 E4642.877
G1 X155.21 Y104.08 E4642.943
G1 X154.88 Y103.09 E4643.008
G1 X154.52 Y102.11 E4643.073
G1 X154.14 Y101.13 E4643.139
G1 X153.73 Y100.17 E4643.204
G1 X153.3 Y99.21 E4643.269
G1 X152.85 Y98.27 E4643.335
G1 X152.37 Y97.34 E4643.4
G1 X151.87 Y96.41 E4643.465
G1 X151.35 Y95.51 E4643.531
G1 X150.9 Y94.76 E4643.585
G1 X150.35 Y93.88 E4643.65
G1 X149.66 Y92.86 E4643.726
G1 X149.06 Y92 E4643.792
G1 X148.43 Y91.16 E4643.857
G1 X147.79 Y90.34 E4643.922
G1 X147.12 Y89.53 E4643.988
G1 X146.44 Y88.74 E4644.053
G1 X145.73 Y87.96 E4644.118
G1 X145.01 Y87.2 E4644.184
G1 X144.27 Y86.47 E4644.249
G1 X143.51 Y85.74 E4644.314
G1 X142.74 Y85.04 E4644.379
G1 X141.94 Y84.35 E4644.445
G1 X141.13 Y83.69 E4644.51
G1 X140.31 Y83.04 E4644.575
G1 X139.47 Y82.42 E4644.641
G1 X138.62 Y81.81 E4644.706
G1 X137.75 Y81.23 E4644.771
G1 X136.86 Y80.66 E4644.837
G1 X135.97 Y80.12 E4644.902
G1 X135.06 Y79.6 E4644.967
G1 X134.14 Y79.1 E4645.033
G1 X133.21 Y78.63 E4645.098
G1 X132.26 Y78.18 E4645.163
G1 X131.31 Y77.75 E4645.228
G1 X130.34 Y77.34 E4645.294
G1 X129.37 Y76.96 E4645.359
G1 X128.38 Y76.6 E4645.424
G1 X127.39 Y76.26 E4645.49
G1 X126.39 Y75.95 E4645.555
G1 X125.38 Y75.66 E4645.62
G1 X124.37 Y75.4 E4645.686
G1 X123.35 Y75.16 E4645.751
G1 X122.33 Y74.95 E4645.816
G1 X121.3 Y74.76 E4645.882
G1 X120.26 Y74.6 E4645.947
G1 X119.22 Y74.46 E4646.012
G1 X118.18 Y74.34 E4646.077
G1 X117.14 Y74.25 E4646.143
G1 X116.09 Y74.19 E4646.208
G1 X115.05 Y74.15 E4646.273
G1 X114 Y74.14 E4646.339
G1 X112.95 Y74.15 E4646.404
G1 X111.91 Y74.19 E4646.469
G1 X110.86 Y74.25 E4646.535
G1 X109.82 Y74.34 E4646.6
G1 X108.78 Y74.46 E4646.665
G1 X107.74 Y74.6 E4646.73
G1 X106.7 Y74.76 E4646.796
G1 X105.67 Y74.95 E4646.861
G1 X104.65 Y75.16 E4646.926
G1 X103.63 Y75.4 E4646.992
G1 X102.62 Y75.66 E4647.057
G1 X101.61 Y75.95 E4647.122
G1 X100.61 Y76.26 E4647.188
G1 X99.62 Y76.6 E4647.253
G1 X98.63 Y76.96 E4647.318
G1 X97.66 Y77.34 E4647.384
G1 X96.69 Y77.75 E4647.449
G1 X95.74 Y78.18 E4647.514
G1 X94.79 Y78.63 E4647.58
G1 X93.86 Y79.1 E4647.645
G1 X92.94 Y79.6 E4647.71
G1 X92.03 Y80.12 E4647.775
G1 X91.14 Y80.66 E4647.841
G1 X90.25 Y81.23 E4647.906
G1 X89.38 Y81.81 E4647.971
G1 X88.53 Y82.42 E4648.037
G1 X87.69 Y83.04 E4648.102
G1 X86.87 Y83.69 E4648.167
G1 X86.06 Y84.35 E4648.233
G1 X85.26 Y85.04 E4648.298
G1 X84.49 Y85.74 E4648.363
G1 X83.73 Y86.47 E4648.429
G1 X82.99 Y87.2 E4648.494
G1 X82.27 Y87.96 E4648.559
G1 X81.56 Y88.74 E4648.624
G1 X80.88 Y89.53 E4648.69
G1 X80.21 Y90.34 E4648.755
G1 X79.57 Y91.16 E4648.82
G1 X78.94 Y92 E4648.886
G1 X78.34 Y92.86 E4648.951
G1 X77.75 Y93.73 E4649.016
G1 X77.19 Y94.61 E4649.081
G1 X76.65 Y95.51 E4649.147
G1 X76.13 Y96.41 E4649.212
G1 X75.63 Y97.34 E4649.277
G1 X75.15 Y98.27 E4649.343
G1 X74.7 Y99.21 E4649.408
G1 X74.27 Y100.17 E4649.473
G1 X73.86 Y101.13 E4649.539
G1 X73.48 Y102.11 E4649.604
G1 X73.12 Y103.09 E4649.669
G1 X72.79 Y104.08 E4649.735
G1 X72.47 Y105.08 E4649.8
G1 X72.19 Y106.09 E4649.865
G1 X71.92 Y107.1 E4649.931
G1 X71.69 Y108.12 E4649.996
G1 X71.47 Y109.15 E4650.061
G1 X71.28 Y110.18 E4650.126
G1 X71.12 Y111.21 E4650.192
G1 X70.98 Y112.25 E4650.257
G1 X70.87 Y113.29 E4650.322
G1 X70.78 Y114.34 E4650.388
G1 X70.72 Y115.38 E4650.453
G1 X70.68 Y116.43 E4650.518
G1 X70.66 Y117.68 E4650.596
G1 X70.66 Y117.73
G1 X73.66
G1 X70.16 Y118.23 F9000
; TYPE:WALL-INNER
G1 X73.91 E4650.83 F1080
G1 X73.9 Y123.12 E4651.135
G1 Y128.01 E4651.44
G1 Y132.91 E4651.746
G1 Y137.8 E4652.051
G1 Y142.69 E4652.356
G1 Y147.59 E4652.661
G1 Y152.48 E4652.966
G1 Y157.38 E4653.272
G1 Y162.27 E4653.577
G1 Y167.16 E4653.882
G1 Y172.06 E4654.187
G1 Y176.95 E4654.492
G1 Y181.85 E4654.798
G1 Y186.74 E4655.103
G1 Y191.63 E4655.408
G1 X73.89 Y191.67 E4655.41
G1 X73.85 Y191.68 E4655.413
G1 X68.87 E4655.723
G1 X63.88 E4656.034
G1 X58.9 E4656.345
G1 X58.86 Y191.67 E4656.348
G1 X58.85 Y191.65 E4656.349
G1 X58.84 Y191.63 E4656.35
G1 X58.84 Y186.73 E4656.656
G1 Y181.84 E4656.961
G1 Y176.95 E4657.266
G1 Y172.05 E4657.571
G1 Y167.16 E4657.876
G1 Y162.27 E4658.181
G1 Y157.37 E4658.487
G1 Y152.48 E4658.792
G1 Y147.59 E4659.097
G1 Y142.69 E4659.402
G1 Y137.8 E4659.707
G1 Y132.91 E4660.012
G1 Y128.01 E4660.318
G1 Y123.12 E4660.623
G1 Y118.23 E4660.928
G1 X62.58 Y118.23 E4661.161
G1 X62.6 Y116.31 E4661.28
G1 X62.64 Y115.14 E4661.353
G1 X62.7 Y113.97 E4661.426
G1 X62.8 Y112.79 E4661.5
G1 X62.92 Y111.64 E4661.572
G1 X63.06 Y110.48 E4661.645
G1 X63.23 Y109.32 E4661.718
G1 X63.43 Y108.17 E4661.791
G1 X63.66 Y107.02 E4661.864
G1 X63.91 Y105.88 E4661.937
G1 X64.19 Y104.74 E4662.01
G1 X64.49 Y103.61 E4662.083
G1 X64.82 Y102.49 E4662.156
G1 X65.17 Y101.37 E4662.229
G1 X65.56 Y100.25 E4662.303
G1 X65.95 Y99.17 E4662.375
G1 X66.39 Y98.06 E4662.449
G1 X66.84 Y97 E4662.521
G1 X67.32 Y95.91 E4662.595
G1 X67.82 Y94.87 E4662.667
G1 X68.35 Y93.81 E4662.741
G1 X68.9 Y92.8 E4662.813
G1 X69.48 Y91.76 E4662.887
G1 X70.06 Y90.77 E4662.959
G1 X70.68 Y89.77 E4663.032
G1 X71.33 Y88.8 E4663.105
G1 X72 Y87.82 E4663.179
G1 X72.68 Y86.88 E4663.251
