; generated by PrusaSlicer 2.8.1+MacOS-arm64 on 2024-09-24 at 15:17:17 UTC

; 

; external perimeters extrusion width = 0.45mm
; perimeters extrusion width = 0.45mm
; infill extrusion width = 0.45mm
; solid infill extrusion width = 0.45mm
; top infill extrusion width = 0.40mm
; first layer extrusion width = 0.42mm

M190 S60 ; set bed temperature and wait for it to be reached
;TYPE:Custom
G28 X0 Y0 Z0 ; home all axes
G1 Z5 F5000 ; lift nozzle
M109 S210 ; set the extruder temp and wait
G28 X0 Y0 Z0 ; Home Z again in case there was filament on nozzle
G29 ; probe the bed
G21 ; set units to millimeters
G90 ; use absolute coordinates
M82 ; use absolute distances for extrusion
G92 E0
; Filament gcode
M107
;LAYER_CHANGE
;Z:0.25
;HEIGHT:0.25
G1 E-2 F2400
G1 Z.25 F9000
G1 X90.023 Y105.088
G1 E0 F2400
;TYPE:Skirt/Brim
;WIDTH:0.42
G1 F1200
G1 X91.759 Y103.712 E.08435
G1 X94.67 Y102.984 E.19861
G1 X104.336 Y102.984 E.56667
G1 X106.515 Y103.381 E.65101
G1 X108.562 Y104.654 E.7428
G1 X112.557 Y108.394 E.95118
G1 X113.876 Y110.173 E1.03551
G1 X114.513 Y112.907 E1.1424
G1 X114.513 Y115.093 E1.22564
G1 X114.117 Y117.272 E1.30997
G1 X112.557 Y119.606 E1.41687
G1 X108.562 Y123.346 E1.62525
G1 X106.7 Y124.546 E1.7096
G1 X104.336 Y125.016 E1.80138
G1 X94.67 Y125.016 E2.16944
G1 X92.491 Y124.619 E2.25378
G1 X90.591 Y123.48 E2.33813
G1 X89.215 Y121.744 E2.42248
G1 X88.487 Y118.833 E2.53674
G1 X88.487 Y109.167 E2.9048
G1 X88.883 Y106.988 E2.98913
G1 X89.992 Y105.14 E3.0712
G1 E1.0712 F2400
G92 E0
G1 X89.992 Y105.14 F9000
G92 E0
G1 X105.531 Y114.167
G1 E2 F2400
;TYPE:Perimeter
;WIDTH:0.38684
G1 F360
G1 X105.531 Y113.833 E2.01157
G1 X107.404 Y113.833 E2.07643
G1 X107.404 Y114 E2.08221
G1 X107.404 Y114.167 E2.08799
G1 X105.591 Y114.167 E2.15078
G1 X105.591 Y114.167 F9000
G1 X105.181 Y114.516
;WIDTH:0.419999
G1 F360
G1 X105.181 Y113.484 E2.19008
G1 X107.754 Y113.484 E2.28805
G1 X107.754 Y114 E2.3077
G1 X107.754 Y114.516 E2.32735
G1 X105.241 Y114.516 E2.42304
G1 X105.241 Y114.516 F9000
G1 X104.814 Y114.883
;TYPE:External perimeter
G1 F360
G1 X104.814 Y113.117 E2.49028
G1 X108.12 Y113.117 E2.61616
G1 X108.12 Y114 E2.64978
G1 X108.12 Y114.883 E2.6834
G1 X104.874 Y114.883 E2.807
G1 X104.815 Y114.487 F9000
G1 E.807 F2400
G92 E0
G1 X97.384 Y117.121 F9000
G1 E2 F2400
;TYPE:Perimeter
G1 F360
G1 X96.868 Y116.711 E2.0251
G1 X96.39 Y116.145 E2.05331
G1 X96.032 Y115.496 E2.08153
;WIDTH:0.454163
G1 X95.903 Y115.148 E2.09698
;WIDTH:0.488326
G1 X95.774 Y114.8 E2.11375
G1 X95.696 Y114.057 E2.1475
;WIDTH:0.507171
G1 X95.742 Y113.311 E2.18273
G1 X95.866 Y112.957 E2.20041
;WIDTH:0.463585
G1 X95.99 Y112.603 E2.21639
;WIDTH:0.419999
G1 X96.33 Y111.945 E2.24459
G1 X96.792 Y111.366 E2.2728
G1 X97.358 Y110.887 E2.30103
G1 X98.007 Y110.529 E2.32925
;WIDTH:0.454158
G1 X98.355 Y110.4 E2.3447
;WIDTH:0.488316
G1 X98.703 Y110.271 E2.36147
G1 X99.446 Y110.193 E2.39522
;WIDTH:0.50717
G1 X100.192 Y110.239 E2.43045
G1 X100.546 Y110.363 E2.44813
;WIDTH:0.463585
G1 X100.899 Y110.488 E2.46409
;WIDTH:0.419999
G1 X101.558 Y110.828 E2.49233
G1 X102.137 Y111.289 E2.52051
G1 X102.615 Y111.855 E2.54872
G1 X102.974 Y112.504 E2.57696
;WIDTH:0.445816
G1 X103.099 Y112.853 E2.59207
;WIDTH:0.471632
G1 X103.224 Y113.202 E2.60818
;WIDTH:0.50717
G1 X103.264 Y113.311 E2.61365
G1 X103.31 Y113.943 E2.64352
G1 X103.264 Y114.689 E2.67875
G1 X103.139 Y115.043 E2.69645
;WIDTH:0.463583
G1 X103.015 Y115.397 E2.71243
;WIDTH:0.419999
G1 X102.675 Y116.055 E2.74063
G1 X102.213 Y116.634 E2.76884
G1 X101.647 Y117.113 E2.79707
G1 X100.999 Y117.471 E2.82526
;WIDTH:0.454162
G1 X100.651 Y117.6 E2.84071
;WIDTH:0.488325
G1 X100.303 Y117.729 E2.85748
G1 X99.559 Y117.807 E2.89128
;WIDTH:0.507172
G1 X98.814 Y117.761 E2.92646
G1 X98.46 Y117.637 E2.94414
;WIDTH:0.463586
G1 X98.106 Y117.512 E2.96014
;WIDTH:0.419999
G1 X97.448 Y117.172 E2.98834
G1 X97.431 Y117.159 E2.98915
G1 X97.431 Y117.159 F9000
G1 X97.599 Y116.832
;TYPE:External perimeter
G1 F360
G1 X97.101 Y116.427 E3.01359
G1 X96.673 Y115.912 E3.03909
G1 X96.355 Y115.323 E3.06458
G1 X96.157 Y114.684 E3.09005
G1 X96.088 Y114.018 E3.11555
G1 X96.15 Y113.351 E3.14106
G1 X96.341 Y112.71 E3.16653
G1 X96.654 Y112.118 E3.19203
G1 X97.075 Y111.598 E3.21751
G1 X97.591 Y111.171 E3.24301
G1 X98.179 Y110.852 E3.26848
G1 X98.819 Y110.654 E3.29399
G1 X99.485 Y110.585 E3.31949
G1 X100.151 Y110.647 E3.34496
G1 X100.793 Y110.838 E3.37046
G1 X101.385 Y111.151 E3.39596
G1 X101.905 Y111.573 E3.42146
G1 X102.332 Y112.088 E3.44693
G1 X102.651 Y112.677 E3.47244
G1 X102.849 Y113.316 E3.49791
G1 X102.918 Y113.982 E3.52341
G1 X102.856 Y114.649 E3.54892
G1 X102.665 Y115.29 E3.57439
G1 X102.352 Y115.882 E3.59989
G1 X101.93 Y116.402 E3.62539
G1 X101.415 Y116.829 E3.65086
G1 X100.826 Y117.148 E3.67637
G1 X100.187 Y117.346 E3.70184
G1 X99.521 Y117.415 E3.72734
G1 X98.854 Y117.353 E3.75285
G1 X98.213 Y117.162 E3.77832
G1 X97.649 Y116.864 E3.80261
G1 X97.335 Y116.616 F9000
G1 E1.80261 F2400
G92 E0
G1 X103.053 Y116.125 F9000
G1 E2 F2400
;TYPE:Perimeter
G1 F360
G1 X103.297 Y115.669 E2.01969
G1 X103.393 Y115.412 E2.03014
G1 X103.393 Y117.89 E2.1245
G1 X100.915 Y117.89 E2.21886
G1 X101.172 Y117.794 E2.22931
G1 X101.88 Y117.396 E2.26024
G1 X102.497 Y116.867 E2.29119
G1 X102.998 Y116.228 E2.32211
G1 X103.025 Y116.178 E2.32427
G1 E.32427 F2400
G92 E0
G1 X103.025 Y116.178 F9000
G1 X96.375 Y116.69
G1 E2 F2400
G1 F360
G1 X96.636 Y116.994 E2.01526
G1 X97.275 Y117.496 E2.0462
G1 X97.834 Y117.794 E2.07032
G1 X98.09 Y117.89 E2.08073
G1 X95.612 Y117.89 E2.17509
G1 X95.612 Y115.412 E2.26945
G1 X95.709 Y115.669 E2.27991
G1 X96.107 Y116.377 E2.31084
G1 X96.336 Y116.644 E2.32423
G1 E.32423 F2400
G92 E0
G1 X96.336 Y116.644 F9000
G1 X96.138 Y111.606
G1 E2 F2400
G1 F360
G1 X96.007 Y111.772 E2.00805
G1 X95.709 Y112.331 E2.03217
G1 X95.612 Y112.588 E2.04263
G1 X95.612 Y110.11 E2.13699
G1 X98.09 Y110.11 E2.23135
G1 X97.834 Y110.206 E2.24176
G1 X97.126 Y110.604 E2.27269
G1 X96.509 Y111.133 E2.30364
G1 X96.175 Y111.559 E2.32425
G1 E.32425 F2400
G92 E0
G1 X96.175 Y111.559 F9000
G1 X102.506 Y111.166
G1 E2 F2400
G1 F360
G1 X102.37 Y111.006 E2.008
G1 X101.731 Y110.505 E2.03892
G1 X101.172 Y110.206 E2.06306
G1 X100.915 Y110.11 E2.07351
G1 X103.393 Y110.11 E2.16787
G1 X103.393 Y110.67 E2.18919
G1 X103.393 Y112.588 E2.26222
G1 X103.297 Y112.331 E2.27267
G1 X102.899 Y111.623 E2.3036
G1 X102.546 Y111.211 E2.32426
G1 X102.546 Y111.211 F9000
G1 X103.76 Y109.743
G1 F360
G1 X103.76 Y110.67 E2.35956
G1 X103.76 Y112.493 E2.42898
;WIDTH:0.463585
G1 X103.738 Y112.891 E2.44596
;WIDTH:0.50717
G1 X103.716 Y113.289 E2.46475
G1 X103.732 Y114.077 E2.5019
;WIDTH:0.488325
G1 X103.725 Y114.873 E2.53786
G1 X103.742 Y115.19 E2.5522
;WIDTH:0.454162
G1 X103.76 Y115.507 E2.56542
;WIDTH:0.419999
G1 X103.76 Y118.257 E2.67013
G1 X101.01 Y118.257 E2.77484
;WIDTH:0.463584
G1 X100.612 Y118.235 E2.79182
;WIDTH:0.507169
G1 X100.214 Y118.213 E2.81061
G1 X99.426 Y118.229 E2.84776
;WIDTH:0.476038
G1 X98.63 Y118.231 E2.88271
;WIDTH:0.471633
G1 X98.313 Y118.244 E2.89649
;WIDTH:0.445816
G1 X97.996 Y118.257 E2.90942
;WIDTH:0.419999
G1 X95.246 Y118.257 E3.01413
G1 X95.246 Y115.507 E3.11884
;WIDTH:0.463585
G1 X95.268 Y115.109 E3.13582
;WIDTH:0.50717
G1 X95.29 Y114.711 E3.15461
G1 X95.274 Y113.923 E3.19176
;WIDTH:0.476039
G1 X95.272 Y113.127 E3.22671
;WIDTH:0.471633
G1 X95.259 Y112.81 E3.24049
;WIDTH:0.445816
G1 X95.246 Y112.493 E3.25342
;WIDTH:0.419999
G1 X95.246 Y109.743 E3.35813
G1 X97.996 Y109.743 E3.46284
;WIDTH:0.463575
G1 X98.394 Y109.765 E3.47982
;WIDTH:0.50715
G1 X98.792 Y109.787 E3.49861
G1 X99.58 Y109.771 E3.53576
;WIDTH:0.476038
G1 X100.376 Y109.769 E3.57071
;WIDTH:0.471631
G1 X100.693 Y109.756 E3.58449
;WIDTH:0.445815
G1 X101.01 Y109.743 E3.59742
;WIDTH:0.419999
G1 X103.7 Y109.743 E3.69985
G1 X103.7 Y109.743 F9000
G1 X104.126 Y109.377
;TYPE:External perimeter
G1 F360
G1 X104.126 Y110.67 E3.74908
G1 X104.126 Y118.623 E4.05191
G1 X94.88 Y118.623 E4.40398
G1 X94.88 Y109.377 E4.75605
G1 X104.066 Y109.377 E5.10583
G1 X104.125 Y109.773 F9000
G1 X102.439 Y110.22
;TYPE:Solid infill
;WIDTH:0.469137
G1 F600
G1 X103.283 Y111.064 E5.15738
G1 E3.15738 F2400
G92 E0
G1 X103.283 Y111.064 F9000
G1 X103.283 Y116.899
G1 E2 F2400
;WIDTH:0.469136
G1 F600
G1 X103.031 Y116.647 E2.01539
G1 X102.764 Y116.968 E2.03342
G1 X103.118 Y117.322 E2.05504
G1 X103.118 Y117.616 E2.06774
G1 X102.825 Y117.616 E2.08039
G1 X102.47 Y117.261 E2.10207
G1 X102.15 Y117.528 E2.12007
G1 X102.402 Y117.78 E2.13546
G1 E.13546 F2400
G92 E0
G1 X102.402 Y117.78 F9000
G1 X95.722 Y116.936
G1 E2 F2400
;WIDTH:0.469138
G1 F600
G1 X96.567 Y117.78 E2.05158
G1 E.05158 F2400
G92 E0
G1 X96.567 Y117.78 F9000
G1 X96.604 Y110.22
G1 E2 F2400
;WIDTH:0.469136
G1 F600
G1 X96.856 Y110.472 E2.01539
G1 X96.535 Y110.739 E2.03342
G1 X96.181 Y110.384 E2.05507
G1 X95.887 Y110.384 E2.06777
G1 X95.887 Y110.678 E2.08047
G1 X96.241 Y111.032 E2.10209
G1 X95.974 Y111.353 E2.12012
G1 X95.722 Y111.101 E2.13551
G1 E.13551 F2400
G92 E0
G1 X95.722 Y111.101 F9000
G1 X100.498 Y111.701
G1 E2 F2400
;TYPE:External perimeter
;WIDTH:0.569772
G1 F360
G1 X100.71 Y111.795 E2.01244
;WIDTH:0.56959
G1 X101.126 Y112.082 E2.03954
G1 X101.568 Y112.576 E2.07509
G1 X101.896 Y113.235 E2.11456
;WIDTH:0.570274
G1 X102.015 Y113.962 E2.15412
;WIDTH:0.591696
G1 X101.983 Y114.33 E2.17478
G1 X101.815 Y114.963 E2.21141
G1 X101.579 Y115.417 E2.24002
;WIDTH:0.569334
G1 X101.123 Y115.915 E2.27621
;WIDTH:0.564856
G1 X100.709 Y116.203 E2.30301
;WIDTH:0.572786
G1 X100.5 Y116.299 E2.31542
G1 X100.531 Y115.901 F9000
G1 E.31542 F2400
G92 E0
G1 X98.28 Y111.816 F9000
G1 E2 F2400
;WIDTH:0.587784
G1 F360
G1 X97.88 Y112.082 E2.02667
;WIDTH:0.569592
G1 X97.438 Y112.576 E2.06222
G1 X97.11 Y113.235 E2.10169
;WIDTH:0.591746
G1 X97.011 Y113.751 E2.13108
G1 X97.024 Y114.337 E2.16386
G1 X97.191 Y114.963 E2.2001
G1 X97.426 Y115.417 E2.22869
;WIDTH:0.569338
G1 X97.885 Y115.912 E2.26487
;WIDTH:0.588288
G1 X98.28 Y116.183 E2.29149
G1 X98.248 Y115.784 F9000
M106 S127.5
;LAYER_CHANGE
;Z:0.45
;HEIGHT:0.2
G1 Z.45 F9000
M104 S210 ; set temperature
G1 E.29149 F2400
G92 E0
G1 Z.45 F9000
G1 X105.697 Y114
G1 E2 F2400
;TYPE:Perimeter
;WIDTH:0.55711
G1 F900
G1 X107.237 Y114 E2.06584
G1 E.06584 F2400
G92 E0
G1 X107.237 Y114 F9000
G1 X105.236 Y114.461
G1 E2 F2400
;WIDTH:0.449999
G1 F900
G1 X105.236 Y113.539 E2.03121
G1 X107.698 Y113.539 E2.11455
G1 X107.698 Y114 E2.13015
G1 X107.698 Y114.461 E2.14575
G1 X105.296 Y114.461 E2.22705
G1 X105.296 Y114.461 F9000
G1 X104.829 Y114.868
;TYPE:External perimeter
G1 F900
G1 X104.829 Y113.132 E2.28581
G1 X108.105 Y113.132 E2.3967
G1 X108.105 Y114 E2.42608
G1 X108.105 Y114.868 E2.45546
G1 X104.889 Y114.868 E2.56432
G1 X104.83 Y114.472 F9000
G1 E.56432 F2400
G92 E0
G1 X97.357 Y117.158 F9000
G1 E2 F2400
;TYPE:Perimeter
G1 F900
G1 X97.116 Y117.002 E2.00972
G1 X96.576 Y116.479 E2.03517
G1 X96.149 Y115.861 E2.0606
G1 X95.85 Y115.17 E2.08609
G1 X95.696 Y114.435 E2.11151
;WIDTH:0.442252
G1 X95.688 Y113.684 E2.13645
;WIDTH:0.449999
G1 X95.816 Y112.944 E2.16187
G1 X96.093 Y112.245 E2.18732
G1 X96.5 Y111.613 E2.21276
G1 X97.024 Y111.074 E2.23821
G1 X97.642 Y110.646 E2.26366
;WIDTH:0.477738
G1 X98.327 Y110.335 E2.29086
;WIDTH:0.503858
G1 X98.458 Y110.284 E2.29625
G1 X98.837 Y110.235 E2.3109
;WIDTH:0.47113
G1 X99.216 Y110.186 E2.32451
;WIDTH:0.438401
G1 X99.827 Y110.185 E2.3446
;WIDTH:0.449999
G1 X100.559 Y110.313 E2.36975
G1 X101.258 Y110.59 E2.3952
G1 X101.889 Y110.998 E2.42063
G1 X102.429 Y111.521 E2.44608
G1 X102.857 Y112.139 E2.47153
G1 X103.155 Y112.83 E2.497
G1 X103.31 Y113.565 E2.52243
;WIDTH:0.443575
G1 X103.318 Y114.316 E2.54745
;WIDTH:0.449999
G1 X103.19 Y115.056 E2.57287
G1 X102.913 Y115.755 E2.59832
G1 X102.505 Y116.387 E2.62378
G1 X101.982 Y116.926 E2.6492
G1 X101.363 Y117.354 E2.67467
G1 X100.673 Y117.652 E2.70011
G1 X99.938 Y117.807 E2.72554
;WIDTH:0.442252
G1 X99.187 Y117.815 E2.75048
;WIDTH:0.449999
G1 X98.447 Y117.687 E2.7759
G1 X97.748 Y117.41 E2.80135
G1 X97.407 Y117.19 E2.81509
G1 X97.407 Y117.19 F9000
G1 X97.598 Y116.832
;TYPE:External perimeter
G1 F900
G1 X97.342 Y116.664 E2.82545
G1 X96.864 Y116.191 E2.84821
G1 X96.487 Y115.634 E2.87098
G1 X96.227 Y115.015 E2.89371
G1 X96.092 Y114.356 E2.91648
G1 X96.088 Y113.684 E2.93923
G1 X96.215 Y113.023 E2.96201
G1 X96.469 Y112.401 E2.98475
G1 X96.839 Y111.84 E3.0075
G1 X97.312 Y111.361 E3.03029
G1 X97.868 Y110.985 E3.05301
G1 X98.488 Y110.724 E3.07578
G1 X99.284 Y110.581 E3.10315
G1 X99.821 Y110.585 E3.12133
G1 X100.479 Y110.712 E3.14401
G1 X101.102 Y110.966 E3.16678
G1 X101.663 Y111.336 E3.18953
G1 X102.141 Y111.809 E3.21229
G1 X102.518 Y112.366 E3.23506
G1 X102.779 Y112.985 E3.2578
G1 X102.914 Y113.644 E3.28057
G1 X102.918 Y114.316 E3.30332
G1 X102.791 Y114.977 E3.3261
G1 X102.537 Y115.599 E3.34884
G1 X102.167 Y116.16 E3.37159
G1 X101.694 Y116.639 E3.39438
G1 X101.137 Y117.015 E3.41713
G1 X100.518 Y117.276 E3.43987
G1 X99.859 Y117.411 E3.46264
G1 X99.187 Y117.415 E3.48539
G1 X98.526 Y117.288 E3.50817
G1 X97.904 Y117.034 E3.53091
G1 X97.648 Y116.866 E3.54127
G1 X97.323 Y116.632 F9000
G1 E1.54127 F2400
G92 E0
G1 X103.036 Y116.313 F9000
G1 E2 F2400
;TYPE:Perimeter
G1 F900
G1 X103.293 Y115.912 E2.01612
G1 X103.297 Y117.794 E2.07982
G1 X101.415 Y117.79 E2.14352
G1 X102.116 Y117.341 E2.1717
G1 X102.493 Y116.991 E2.18911
G1 X102.844 Y116.613 E2.20657
G1 X103.003 Y116.364 E2.21657
G1 E.21657 F2400
G92 E0
G1 X103.003 Y116.364 F9000
G1 X96.345 Y116.81
G1 E2 F2400
G1 F900
G1 X96.512 Y116.991 E2.00834
G1 X96.89 Y117.341 E2.02578
G1 X97.591 Y117.79 E2.05396
G1 X95.709 Y117.794 E2.11766
G1 X95.713 Y115.912 E2.18136
G1 X96.162 Y116.613 E2.20954
G1 X96.304 Y116.766 E2.21661
G1 E.21661 F2400
G92 E0
G1 X96.304 Y116.766 F9000
G1 X96.11 Y111.469
G1 E2 F2400
G1 F900
G1 X95.713 Y112.088 E2.02489
G1 X95.709 Y110.206 E2.08859
G1 X97.591 Y110.21 E2.15229
G1 X96.89 Y110.659 E2.18047
G1 X96.512 Y111.009 E2.19791
G1 X96.162 Y111.387 E2.21535
G1 X96.142 Y111.418 E2.2166
G1 E.2166 F2400
G92 E0
G1 X96.142 Y111.418 F9000
G1 X102.587 Y111.111
G1 E2 F2400
G1 F900
G1 X102.493 Y111.009 E2.0047
G1 X102.116 Y110.659 E2.02211
G1 X101.415 Y110.21 E2.05029
G1 X103.297 Y110.206 E2.11399
G1 X103.297 Y110.677 E2.12993
G1 X103.293 Y112.088 E2.17769
G1 X102.844 Y111.387 E2.20587
G1 X102.628 Y111.155 E2.2166
G1 X102.628 Y111.155 F9000
G1 X103.704 Y109.799
G1 F900
G1 X103.704 Y110.677 E2.24632
G1 X103.711 Y113.684 E2.3481
;WIDTH:0.442251
G1 X103.708 Y114.474 E2.37433
;WIDTH:0.449999
G1 X103.704 Y118.201 E2.50048
G1 X99.819 Y118.208 E2.63198
;WIDTH:0.443578
G1 X99.029 Y118.204 E2.6583
;WIDTH:0.449999
G1 X95.302 Y118.201 E2.78445
G1 X95.295 Y114.316 E2.91595
;WIDTH:0.443578
G1 X95.299 Y113.526 E2.94227
;WIDTH:0.449999
G1 X95.302 Y109.799 E3.06842
G1 X97.591 Y109.799 E3.1459
;WIDTH:0.476929
G1 X98.004 Y109.812 E3.16081
;WIDTH:0.503858
G1 X98.418 Y109.826 E3.17669
G1 X98.874 Y109.808 E3.19418
;WIDTH:0.468221
G1 X99.329 Y109.79 E3.21028
;WIDTH:0.443546
G1 X99.976 Y109.796 E3.23183
;WIDTH:0.449999
G1 X103.644 Y109.799 E3.35599
G1 X103.644 Y109.799 F9000
G1 X104.111 Y109.392
;TYPE:External perimeter
G1 F900
G1 X104.111 Y110.677 E3.39949
G1 X104.111 Y118.608 E3.66794
G1 X94.895 Y118.608 E3.97989
G1 X94.895 Y109.392 E4.29184
G1 X104.051 Y109.392 E4.60176
G1 X104.11 Y109.788 F9000
G1 X103.009 Y110.494
;TYPE:Solid infill
;WIDTH:0.415472
G1 F1500
G1 X103.009 Y111.023 E4.61815
G1 X102.974 Y111.071 E4.61999
G1 X102.922 Y111.057 E4.62166
G1 X102.448 Y110.562 E4.64289
G1 X102.444 Y110.494 E4.645
G1 X102.805 Y110.494 E4.65618
G1 E2.65618 F2400
G92 E0
G1 X102.805 Y110.494 F9000
G1 X96.644 Y110.492
G1 E2 F2400
;WIDTH:0.411728
G1 F1500
G1 X96.066 Y111.056 E2.02477
G1 X95.995 Y111.06 E2.02695
G1 X95.995 Y110.492 E2.04437
G1 X96.44 Y110.492 E2.05802
G1 E.05802 F2400
G92 E0
G1 X96.44 Y110.492 F9000
G1 X95.995 Y116.859
G1 E2 F2400
;WIDTH:0.411727
G1 F1500
G1 X96.572 Y117.481 E2.02602
G1 X96.563 Y117.508 E2.02689
G1 X95.995 Y117.508 E2.04431
G1 X95.995 Y117.062 E2.05799
G1 E.05799 F2400
G92 E0
G1 X95.995 Y117.062 F9000
G1 X103.009 Y116.941
G1 E2 F2400
;WIDTH:0.415471
G1 F1500
G1 X103.009 Y117.506 E2.0175
G1 X102.444 Y117.506 E2.035
G1 X102.445 Y117.419 E2.0377
