; generated by PrusaSlicer 2.8.1+MacOS-arm64 on 2024-10-10 at 14:13:52 UTC

; 

; external perimeters extrusion width = 0.45mm
; perimeters extrusion width = 0.45mm
; infill extrusion width = 0.45mm
; solid infill extrusion width = 0.45mm
; top infill extrusion width = 0.40mm
; first layer extrusion width = 0.42mm

M190 S50 ; set bed temperature and wait for it to be reached
;TYPE:Custom
G28 X0 Y0 Z0 ; home all axes
G1 Z5 F5000 ; lift nozzle
M109 S203 ; set the extruder temp and wait
G28 X0 Y0 Z0 ; Home Z again in case there was filament on nozzle
G29 ; probe the bed
G21 ; set units to millimeters
G90 ; use absolute coordinates
M82 ; use absolute distances for extrusion
G92 E0
; Filament gcode
M107
;LAYER_CHANGE
;Z:0.2
;HEIGHT:0.2
G1 E-3 F2400
G1 Z.2 F9000
G1 X89.272 Y99.795
G1 E0 F2400
;TYPE:Skirt/Brim
;WIDTH:0.42
G1 F1800
G1 X89.812 Y99.312 E.02272
G1 X91.526 Y98.099 E.08856
G1 X92.741 Y97.4 E.13251
G1 X94.715 Y96.499 E.20055
G1 X96.702 Y95.853 E.26606
G1 X97.981 Y95.562 E.30719
G1 X100.103 Y95.281 E.3743
G1 X102.212 Y95.243 E.44044
G1 X103.61 Y95.349 E.4844
G1 X105.739 Y95.714 E.55213
G1 X107.746 Y96.299 E.61768
G1 X108.976 Y96.782 E.65911
G1 X110.755 Y97.671 E.72147
G1 X111.949 Y98.407 E.76545
G1 X113.633 Y99.677 E.83158
G1 X115.184 Y101.152 E.89869
G1 X116.048 Y102.138 E.9398
G1 X117.277 Y103.829 E1.00534
G1 X118.344 Y105.719 E1.07339
G1 X118.916 Y106.999 E1.11735
G1 X119.59 Y108.987 E1.18317
G1 X120.044 Y111.089 E1.2506
G1 X120.206 Y112.462 E1.29395
G1 X120.265 Y114.47 E1.35694
G1 X120.185 Y115.789 E1.39837
G1 X119.863 Y117.895 E1.46517
G1 X119.306 Y119.94 E1.53163
G1 X118.812 Y121.252 E1.57559
G1 X117.871 Y123.185 E1.643
G1 X116.742 Y124.956 E1.70885
G1 X115.933 Y126.001 E1.75029
G1 X114.488 Y127.553 E1.81678
G1 X112.869 Y128.936 E1.88354
G1 X111.722 Y129.743 E1.92751
G1 X109.864 Y130.805 E1.99461
G1 X107.925 Y131.637 E2.06077
G1 X106.668 Y132.045 E2.10221
G1 X104.611 Y132.512 E2.16835
G1 X102.483 Y132.744 E2.23547
G1 X101.172 Y132.768 E2.27658
G1 X99.098 Y132.616 E2.34178
G1 X97.715 Y132.384 E2.38575
G1 X95.79 Y131.881 E2.44813
G1 X93.756 Y131.097 E2.51648
G1 X92.501 Y130.473 E2.56043
G1 X90.734 Y129.377 E2.62563
G1 X89.687 Y128.586 E2.66677
G1 X88.103 Y127.148 E2.73385
G1 X86.712 Y125.561 E2.80002
G1 X85.935 Y124.492 E2.84146
G1 X84.856 Y122.679 E2.90761
G1 X83.977 Y120.728 E2.9747
G1 X83.524 Y119.401 E3.01866
G1 X83.026 Y117.33 E3.08545
G1 X82.769 Y115.225 E3.15194
G1 X82.73 Y113.905 E3.19335
G1 X82.849 Y111.889 E3.25667
G1 X83.053 Y110.532 E3.2997
G1 X83.573 Y108.435 E3.36744
G1 X84.303 Y106.477 E3.43296
G1 X84.913 Y105.215 E3.47691
G1 X85.935 Y103.508 E3.53929
G1 X87.258 Y101.775 E3.60765
G1 X88.209 Y100.745 E3.65161
G1 X89.227 Y99.835 E3.69442
G1 E.69442 F2400
G92 E0
G1 X89.227 Y99.835 F9000
G92 E0
G1 X115.346 Y109.313
G1 E3 F2400
;TYPE:Perimeter
;WIDTH:0.419999
G1 F1800
G1 X115.583 Y110.079 E3.02514
G1 X115.794 Y110.936 E3.05281
G1 X115.952 Y111.801 E3.08038
G1 X116.019 Y112.37 E3.09834
G1 X116.087 Y113.147 E3.1228
G1 X116.112 Y113.972 E3.14868
G1 X116.112 Y114.441 E3.16339
G1 X116.059 Y115.322 E3.19106
G1 X115.963 Y116.119 E3.21623
G1 X115.793 Y117.066 E3.2464
G1 X115.583 Y117.921 E3.274
G1 X115.346 Y118.689 E3.2992
G1 X115.037 Y119.517 E3.32691
G1 X114.681 Y120.322 E3.35451
G1 X114.235 Y121.174 E3.38466
G1 X113.824 Y121.864 E3.40984
G1 X113.327 Y122.593 E3.4375
G1 X112.787 Y123.29 E3.46515
G1 X112.259 Y123.895 E3.49033
G1 X111.585 Y124.582 E3.52051
G1 X110.93 Y125.17 E3.54811
G1 X110.238 Y125.719 E3.57581
G1 X109.581 Y126.182 E3.60101
G1 X108.833 Y126.646 E3.62861
G1 X107.984 Y127.1 E3.6588
G1 X107.256 Y127.438 E3.68397
G1 X106.435 Y127.761 E3.71163
G1 X105.596 Y128.033 E3.73928
G1 X104.818 Y128.235 E3.76448
G1 X103.875 Y128.424 E3.79464
G1 X103.002 Y128.541 E3.82226
G1 X102.202 Y128.601 E3.84741
G1 X101.239 Y128.616 E3.87761
G1 X100.437 Y128.58 E3.90278
G1 X99.561 Y128.489 E3.93039
G1 X98.612 Y128.329 E3.96057
G1 X97.829 Y128.15 E3.98575
G1 X96.983 Y127.903 E4.01338
G1 X96.152 Y127.605 E4.04106
G1 X95.414 Y127.29 E4.06622
G1 X94.552 Y126.862 E4.0964
G1 X93.791 Y126.42 E4.12399
G1 X93.055 Y125.932 E4.15168
G1 X92.412 Y125.45 E4.17688
G1 X91.738 Y124.882 E4.20452
G1 X91.045 Y124.215 E4.23468
G1 X90.499 Y123.627 E4.25984
G1 X89.938 Y122.945 E4.28753
G1 X89.419 Y122.232 E4.31518
G1 X88.987 Y121.555 E4.34036
G1 X88.516 Y120.716 E4.37053
G1 X88.135 Y119.923 E4.39811
G1 X87.802 Y119.105 E4.4258
G1 X87.542 Y118.344 E4.45101
G1 X87.306 Y117.495 E4.47864
G1 X87.107 Y116.554 E4.5088
G1 X86.988 Y115.76 E4.53397
G1 X86.908 Y114.881 E4.56164
G1 X86.881 Y114 E4.58928
G1 X86.905 Y113.197 E4.61447
G1 X86.988 Y112.238 E4.64465
G1 X87.12 Y111.369 E4.67221
G1 X87.305 Y110.506 E4.69988
G1 X87.542 Y109.656 E4.72755
G1 X87.802 Y108.896 E4.75274
G1 X88.168 Y108.006 E4.78291
G1 X88.516 Y107.283 E4.80807
G1 X88.945 Y106.511 E4.83576
G1 X89.419 Y105.768 E4.86339
G1 X89.938 Y105.055 E4.89104
G1 X90.499 Y104.373 E4.91873
G1 X91.045 Y103.785 E4.94389
G1 X91.738 Y103.118 E4.97405
G1 X92.412 Y102.55 E5.00169
G1 X93.055 Y102.068 E5.02689
G1 X93.791 Y101.58 E5.05458
G1 X94.554 Y101.137 E5.08224
G1 X95.34 Y100.743 E5.10981
G1 X96.226 Y100.368 E5.13998
G1 X96.982 Y100.097 E5.16516
G1 X97.829 Y99.85 E5.19282
G1 X98.69 Y99.654 E5.22051
G1 X99.482 Y99.523 E5.24568
G1 X100.438 Y99.42 E5.27583
G1 X101.319 Y99.383 E5.30348
G1 X102.121 Y99.395 E5.32863
G1 X103.081 Y99.468 E5.35882
G1 X103.876 Y99.576 E5.38398
G1 X104.742 Y99.745 E5.41164
G1 X105.596 Y99.967 E5.43931
G1 X106.435 Y100.239 E5.46696
G1 X107.255 Y100.562 E5.49459
G1 X108.056 Y100.934 E5.52228
G1 X108.763 Y101.314 E5.54745
G1 X109.582 Y101.819 E5.57762
G1 X110.238 Y102.281 E5.60278
G1 X110.93 Y102.83 E5.63048
G1 X111.587 Y103.419 E5.65815
G1 X112.205 Y104.045 E5.68573
G1 X112.835 Y104.772 E5.71589
G1 X113.327 Y105.407 E5.74108
G1 X113.823 Y106.136 E5.76873
G1 X114.275 Y106.894 E5.7964
G1 X114.645 Y107.607 E5.82159
G1 X115.038 Y108.485 E5.85175
G1 X115.326 Y109.257 E5.87758
G1 X115.326 Y109.257 F9000
G1 X115.703 Y109.191
G1 F1800
G1 X115.946 Y109.978 E5.90341
G1 X116.163 Y110.857 E5.9318
G1 X116.325 Y111.746 E5.96013
G1 X116.393 Y112.326 E5.97844
G1 X116.464 Y113.124 E6.00356
G1 X116.489 Y113.972 E6.03016
G1 X116.489 Y114.452 E6.04521
G1 X116.435 Y115.356 E6.0736
G1 X116.336 Y116.175 E6.09947
G1 X116.162 Y117.144 E6.13034
G1 X115.946 Y118.022 E6.15869
G1 X115.703 Y118.811 E6.18458
G1 X115.387 Y119.659 E6.21295
G1 X115.021 Y120.485 E6.24128
G1 X114.565 Y121.358 E6.27216
G1 X114.141 Y122.067 E6.29806
G1 X113.632 Y122.814 E6.3264
G1 X113.078 Y123.53 E6.35479
G1 X112.535 Y124.151 E6.38065
G1 X111.846 Y124.855 E6.41154
G1 X111.174 Y125.458 E6.43985
G1 X110.464 Y126.021 E6.46826
G1 X109.789 Y126.496 E6.49414
G1 X109.021 Y126.973 E6.52249
G1 X108.153 Y127.438 E6.55336
G1 X107.404 Y127.785 E6.57924
G1 X106.562 Y128.116 E6.60761
G1 X105.702 Y128.395 E6.63596
G1 X104.903 Y128.603 E6.66185
G1 X103.937 Y128.796 E6.69274
G1 X103.041 Y128.916 E6.72108
G1 X102.219 Y128.978 E6.74693
G1 X101.233 Y128.993 E6.77785
G1 X100.41 Y128.956 E6.80368
G1 X99.51 Y128.863 E6.83205
G1 X98.539 Y128.699 E6.86293
G1 X97.735 Y128.515 E6.88879
G1 X96.866 Y128.262 E6.91717
G1 X96.014 Y127.957 E6.94554
G1 X95.256 Y127.632 E6.9714
G1 X94.373 Y127.194 E7.0023
G1 X93.592 Y126.741 E7.03061
G1 X92.838 Y126.24 E7.05899
G1 X92.177 Y125.745 E7.08488
G1 X91.486 Y125.162 E7.11323
G1 X90.776 Y124.48 E7.1441
G1 X90.215 Y123.875 E7.16997
G1 X89.639 Y123.176 E7.19837
G1 X89.108 Y122.444 E7.22672
G1 X88.663 Y121.749 E7.2526
G1 X88.181 Y120.89 E7.28348
G1 X87.79 Y120.076 E7.31179
G1 X87.449 Y119.237 E7.34019
G1 X87.182 Y118.456 E7.36607
G1 X86.939 Y117.585 E7.39442
G1 X86.736 Y116.621 E7.42531
G1 X86.613 Y115.805 E7.45118
G1 X86.531 Y114.904 E7.47955
G1 X86.504 Y114 E7.50791
G1 X86.529 Y113.175 E7.53379
G1 X86.613 Y112.194 E7.56466
G1 X86.749 Y111.301 E7.59298
G1 X86.939 Y110.416 E7.62136
G1 X87.182 Y109.544 E7.64974
G1 X87.448 Y108.764 E7.67558
G1 X87.823 Y107.852 E7.7065
G1 X88.181 Y107.109 E7.73236
G1 X88.621 Y106.318 E7.76074
G1 X89.108 Y105.556 E7.78909
G1 X89.639 Y104.824 E7.81744
G1 X90.214 Y104.125 E7.84582
G1 X90.776 Y103.52 E7.87171
G1 X91.486 Y102.838 E7.90258
G1 X92.177 Y102.255 E7.93093
G1 X92.838 Y101.76 E7.95682
G1 X93.592 Y101.259 E7.9852
G1 X94.375 Y100.805 E8.01358
G1 X95.182 Y100.4 E8.04189
G1 X96.089 Y100.016 E8.07277
G1 X96.866 Y99.738 E8.09864
G1 X97.734 Y99.485 E8.12699
G1 X98.617 Y99.284 E8.15538
G1 X99.431 Y99.149 E8.18125
G1 X100.41 Y99.044 E8.21212
G1 X101.313 Y99.006 E8.24046
G1 X102.138 Y99.018 E8.26633
G1 X103.12 Y99.093 E8.29721
G1 X103.938 Y99.204 E8.32309
G1 X104.826 Y99.378 E8.35146
G1 X105.702 Y99.605 E8.37983
G1 X106.562 Y99.884 E8.40818
G1 X107.404 Y100.215 E8.43655
G1 X108.225 Y100.597 E8.46494
G1 X108.951 Y100.987 E8.49078
G1 X109.79 Y101.504 E8.52168
G1 X110.464 Y101.979 E8.54753
G1 X111.174 Y102.542 E8.57594
G1 X111.847 Y103.146 E8.60429
G1 X112.482 Y103.788 E8.6326
G1 X113.127 Y104.533 E8.6635
G1 X113.632 Y105.186 E8.68938
G1 X114.141 Y105.933 E8.71772
G1 X114.605 Y106.71 E8.7461
G1 X114.985 Y107.443 E8.77199
G1 X115.387 Y108.342 E8.80287
G1 X115.682 Y109.134 E8.82937
G1 X115.682 Y109.134 F9000
G1 X116.06 Y109.068
;TYPE:External perimeter
G1 F900
G1 X116.31 Y109.877 E8.85592
G1 X116.531 Y110.778 E8.88501
G1 X116.698 Y111.69 E8.91408
G1 X116.768 Y112.282 E8.93277
G1 X116.84 Y113.102 E8.95858
G1 X116.866 Y113.972 E8.98587
G1 X116.866 Y114.464 E9.0013
G1 X116.81 Y115.389 E9.03036
G1 X116.709 Y116.231 E9.05695
G1 X116.531 Y117.223 E9.08855
G1 X116.31 Y118.123 E9.11761
G1 X116.06 Y118.932 E9.14416
G1 X115.736 Y119.802 E9.17327
G1 X115.361 Y120.649 E9.20231
G1 X114.894 Y121.543 E9.23393
G1 X114.459 Y122.27 E9.26049
G1 X113.937 Y123.036 E9.28955
G1 X113.37 Y123.77 E9.31863
G1 X112.812 Y124.408 E9.34521
G1 X112.107 Y125.128 E9.37681
G1 X111.417 Y125.746 E9.40585
G1 X110.69 Y126.323 E9.43495
G1 X109.997 Y126.811 E9.46153
G1 X109.21 Y127.3 E9.49058
G1 X108.321 Y127.775 E9.52218
G1 X107.553 Y128.132 E9.54873
G1 X106.689 Y128.471 E9.57783
G1 X105.807 Y128.757 E9.6069
G1 X104.988 Y128.971 E9.63344
G1 X103.999 Y129.169 E9.66506
G1 X103.08 Y129.291 E9.69413
G1 X102.236 Y129.355 E9.72067
G1 X101.228 Y129.37 E9.75228
G1 X100.382 Y129.332 E9.77883
G1 X99.459 Y129.237 E9.80792
G1 X98.466 Y129.069 E9.8395
G1 X97.64 Y128.881 E9.86606
G1 X96.749 Y128.621 E9.89516
G1 X95.876 Y128.308 E9.92424
G1 X95.098 Y127.975 E9.95077
G1 X94.195 Y127.526 E9.98239
G1 X93.393 Y127.061 E10.01146
G1 X92.62 Y126.549 E10.04053
G1 X91.942 Y126.04 E10.06711
G1 X91.234 Y125.442 E10.09617
G1 X90.507 Y124.744 E10.12777
G1 X89.93 Y124.123 E10.15435
G1 X89.341 Y123.407 E10.18342
G1 X88.796 Y122.657 E10.21249
G1 X88.34 Y121.943 E10.23905
G1 X87.846 Y121.064 E10.27066
G1 X87.445 Y120.229 E10.2997
G1 X87.095 Y119.369 E10.32881
G1 X86.822 Y118.568 E10.35534
G1 X86.573 Y117.674 E10.38444
G1 X86.365 Y116.688 E10.41604
G1 X86.239 Y115.851 E10.44258
G1 X86.155 Y114.927 E10.47167
G1 X86.127 Y114 E10.50075
G1 X86.152 Y113.153 E10.52732
G1 X86.239 Y112.149 E10.55892
G1 X86.378 Y111.233 E10.58797
G1 X86.573 Y110.326 E10.61706
G1 X86.822 Y109.432 E10.64616
G1 X87.095 Y108.631 E10.67269
G1 X87.479 Y107.699 E10.7043
G1 X87.846 Y106.935 E10.73088
G1 X88.297 Y106.125 E10.75995
G1 X88.796 Y105.343 E10.78904
G1 X89.341 Y104.593 E10.81811
G1 X89.93 Y103.877 E10.84718
G1 X90.507 Y103.256 E10.87376
G1 X91.234 Y102.558 E10.90536
G1 X91.942 Y101.96 E10.93442
G1 X92.62 Y101.451 E10.961
G1 X93.393 Y100.939 E10.99007
G1 X94.195 Y100.473 E11.01915
G1 X95.024 Y100.058 E11.04822
G1 X95.952 Y99.665 E11.07982
G1 X96.749 Y99.379 E11.10637
G1 X97.64 Y99.119 E11.13547
G1 X98.544 Y98.914 E11.16453
G1 X99.38 Y98.775 E11.1911
G1 X100.382 Y98.668 E11.2227
G1 X101.308 Y98.629 E11.25176
G1 X102.155 Y98.641 E11.27832
G1 X103.16 Y98.718 E11.30992
G1 X104 Y98.832 E11.3365
G1 X104.91 Y99.01 E11.36557
G1 X105.807 Y99.243 E11.39463
G1 X106.689 Y99.529 E11.4237
G1 X107.553 Y99.868 E11.4528
G1 X108.394 Y100.259 E11.48188
G1 X109.14 Y100.661 E11.50845
G1 X109.998 Y101.189 E11.54004
G1 X110.69 Y101.677 E11.56659
G1 X111.417 Y102.254 E11.59569
G1 X112.107 Y102.873 E11.62475
G1 X112.759 Y103.532 E11.65382
G1 X113.419 Y104.294 E11.68543
G1 X113.937 Y104.964 E11.71198
G1 X114.459 Y105.73 E11.74104
G1 X114.934 Y106.527 E11.77013
G1 X115.325 Y107.279 E11.79671
G1 X115.736 Y108.199 E11.8283
G1 X116.039 Y109.011 E11.85547
G1 X116.16 Y109.393 F9000
G1 E8.85547 F2400
G92 E0
G1 X101.499 Y114 F9000
G1 E3 F2400
;TYPE:Solid infill
;WIDTH:0.42
G1 F600
G1 X101.232 Y114.267 E3.01184
G1 X101.105 Y114.108 E3.01822
G1 X101.072 Y113.901 E3.02479
G1 X101.144 Y113.697 E3.03157
G1 X101.306 Y113.545 E3.03854
G1 X101.525 Y113.479 E3.04571
G1 X101.756 Y113.516 E3.05305
G1 X101.954 Y113.651 E3.06056
G1 X102.081 Y113.86 E3.06823
G1 X102.112 Y114.108 E3.07607
G1 X102.042 Y114.352 E3.08403
G1 X101.878 Y114.553 E3.09216
G1 X101.647 Y114.678 E3.1004
G1 X101.381 Y114.707 E3.10879
G1 X101.119 Y114.635 E3.11731
G1 X100.899 Y114.469 E3.12595
G1 X100.75 Y114.232 E3.13473
G1 X100.695 Y113.954 E3.14362
G1 X100.741 Y113.671 E3.15261
G1 X100.884 Y113.417 E3.16175
G1 X101.107 Y113.226 E3.17096
G1 X101.385 Y113.119 E3.1803
G1 X101.686 Y113.111 E3.18974
G1 X101.976 Y113.204 E3.19929
G1 X102.222 Y113.388 E3.20892
G1 X102.398 Y113.644 E3.21866
G1 X102.484 Y113.946 E3.22851
G1 X102.469 Y114.262 E3.23843
G1 X102.356 Y114.561 E3.24845
G1 X102.154 Y114.812 E3.25855
G1 X101.881 Y114.99 E3.26877
G1 X101.565 Y115.078 E3.27905
G1 X101.234 Y115.066 E3.28944
G1 X100.92 Y114.955 E3.29988
G1 X100.65 Y114.754 E3.31043
G1 X100.451 Y114.48 E3.32105
G1 X100.339 Y114.157 E3.33177
G1 X100.326 Y113.813 E3.34256
G1 X100.412 Y113.477 E3.35343
G1 X100.593 Y113.179 E3.36436
G1 X100.853 Y112.942 E3.37539
G1 X101.171 Y112.787 E3.38648
G1 X101.522 Y112.726 E3.39765
G1 X101.879 Y112.767 E3.40892
G1 X102.213 Y112.905 E3.42025
G1 X102.497 Y113.131 E3.43163
G1 X102.711 Y113.428 E3.44311
G1 X102.836 Y113.773 E3.45462
G1 X102.864 Y114.142 E3.46622
G1 X102.792 Y114.507 E3.47788
G1 X102.624 Y114.842 E3.48963
G1 X102.372 Y115.122 E3.50144
G1 X102.053 Y115.326 E3.51331
G1 X101.69 Y115.441 E3.52525
G1 X101.308 Y115.456 E3.53724
G1 X100.932 Y115.372 E3.54932
G1 X100.589 Y115.193 E3.56145
G1 X100.302 Y114.931 E3.57363
G1 X100.091 Y114.602 E3.58588
G1 X99.969 Y114.229 E3.59818
G1 X99.946 Y113.835 E3.61055
G1 X100.022 Y113.446 E3.62298
G1 X100.195 Y113.086 E3.6355
G1 X100.452 Y112.78 E3.64803
G1 X100.779 Y112.546 E3.66064
G1 X101.156 Y112.399 E3.67333
G1 X101.559 Y112.349 E3.68606
G1 X101.963 Y112.399 E3.69882
G1 X102.345 Y112.547 E3.71166
G1 X102.681 Y112.784 E3.72455
G1 X102.952 Y113.097 E3.73753
G1 X103.139 Y113.467 E3.75053
G1 X103.234 Y113.873 E3.7636
G1 X103.228 Y114.291 E3.77671
G1 X103.123 Y114.698 E3.78989
G1 X102.925 Y115.07 E3.8031
G1 X102.643 Y115.386 E3.81638
G1 X102.293 Y115.627 E3.8297
G1 X101.895 Y115.781 E3.84308
G1 X101.471 Y115.839 E3.8565
G1 X101.043 Y115.796 E3.86999
G1 X100.635 Y115.655 E3.88352
G1 X100.269 Y115.423 E3.89711
G1 X99.965 Y115.113 E3.91072
G1 X99.739 Y114.739 E3.92442
G1 X99.603 Y114.323 E3.93814
G1 X99.566 Y113.885 E3.95192
G1 X99.628 Y113.448 E3.96576
G1 X99.788 Y113.036 E3.97962
G1 X100.038 Y112.668 E3.99357
G1 X100.364 Y112.365 E4.00752
G1 X100.751 Y112.141 E4.02154
G1 X101.18 Y112.008 E4.03562
G1 X101.628 Y111.973 E4.04971
G1 X102.075 Y112.039 E4.06388
G1 X102.498 Y112.202 E4.07809
G1 X102.876 Y112.454 E4.09233
G1 X103.191 Y112.784 E4.10663
G1 X103.427 Y113.176 E4.12098
G1 X103.572 Y113.611 E4.13536
G1 X103.62 Y114.069 E4.1498
G1 X103.568 Y114.528 E4.16428
G1 X103.418 Y114.966 E4.1788
G1 X103.177 Y115.363 E4.19336
G1 X102.856 Y115.7 E4.20795
G1 X102.468 Y115.961 E4.22261
G1 X102.033 Y116.135 E4.2373
G1 X101.569 Y116.212 E4.25205
G1 X101.099 Y116.19 E4.2668
G1 X100.642 Y116.068 E4.28163
G1 X100.22 Y115.853 E4.29648
G1 X99.851 Y115.553 E4.31139
G1 X99.552 Y115.182 E4.32633
G1 X99.337 Y114.755 E4.34132
G1 X99.215 Y114.291 E4.35636
G1 X99.192 Y113.811 E4.37143
G1 X99.268 Y113.335 E4.38654
G1 X99.442 Y112.885 E4.40167
G1 X99.706 Y112.478 E4.41688
G1 X100.048 Y112.133 E4.43211
G1 X100.454 Y111.865 E4.44736
